;FLAVOR:Marlin
M73 P0


; Pre-Processed for Cancel-Object support by preprocess_cancellation v0.2.0
; 1 known objects
EXCLUDE_OBJECT_DEFINE NAME=52mm_part3_stl CENTER=110.007,109.948 POLYGON=[[79.6,69.217],[79.6,150.783],[140.4,150.783],[140.4,69.217]]
M117 Time Left 1h13m15s
;TIME:4395
;Filament used: 2.72561m
;Layer height: 0.2
;MINX:78.4
;MINY:68.017
;MINZ:0.32
;MAXX:141.6
;MAXY:151.983
;MAXZ:10.12
;TARGET_MACHINE.NAME:Creality Ender-3
;POSTPROCESSED
;  [InsertAtLayerChange]
;  [MeshPrintSize]
;  [DisplayProgressOnLCD]
;  [DisplayFilenameAndLayerOnLCD]
;Generated with Cura_SteamEngine 5.6.0
M82 ;absolute extrusion mode
;Nozzle diameter = 0.4
;Filament type = PLA
;Filament name = Purple/Pink
START_PRINT PRINT_MIN=78.4,68.017 PRINT_MAX=141.6,151.983 BED_TEMP=65 EXTRUDER_TEMP=220.0
G92 E0
G92 E0
G1 F2700 E-5
;LAYER_COUNT:49
TIMELAPSE_TAKE_FRAME
;LAYER:0
M117 Printing 52mm_part3 - Layer 0 of 48
M107
G1 F300 Z0.52
G0 F6000 X82.825 Y78.91 Z0.52
;TYPE:SKIRT
G1 F300 Z0.32
G1 F2700 E0
G1 F600 X83.455 Y78.257 E0.07243
G1 X83.98 Y77.786 E0.12873
G1 X84.964 Y76.958 E0.23139
G1 X85.705 Y76.364 E0.30719
G1 X86.157 Y76.019 E0.35258
G1 X87.599 Y74.981 E0.49441
G1 X88.482 Y74.384 E0.57949
G1 X88.88 Y74.131 E0.61714
G1 X90.039 Y73.424 E0.72551
G1 X90.449 Y73.186 E0.76335
G1 X91.407 Y72.659 E0.85063
G1 X91.894 Y72.408 E0.89437
G1 X93.544 Y71.605 E1.04085
G1 X94.599 Y71.131 E1.13317
G1 X95.07 Y70.937 E1.17383
G1 X96.658 Y70.331 E1.30951
G1 X97.811 Y69.933 E1.40688
G1 X98.353 Y69.766 E1.45215
G1 X100.167 Y69.263 E1.60241
G1 X101.307 Y68.988 E1.69602
G1 X101.736 Y68.893 E1.7311
G1 X103.191 Y68.604 E1.84951
G1 X104.557 Y68.383 E1.95997
G1 X106.036 Y68.206 E2.07887
G1 X107.633 Y68.079 E2.20675
G1 X108.215 Y68.05 E2.25327
G1 X109.753 Y68.017 E2.37607
G1 X110.243 Y68.017 E2.41518
G1 X111.705 Y68.049 E2.53191
G1 X113.015 Y68.122 E2.63664
G1 X114.551 Y68.269 E2.75981
G1 X116.112 Y68.484 E2.8856
G1 X116.686 Y68.581 E2.93206
G1 X118.495 Y68.94 E3.07928
G1 X119.555 Y69.184 E3.16611
G1 X120.075 Y69.32 E3.20901
G1 X122.147 Y69.924 E3.38129
G1 X122.819 Y70.143 E3.43771
G1 X123.35 Y70.333 E3.48273
G1 X125.206 Y71.053 E3.64164
G1 X125.87 Y71.334 E3.6992
G1 X126.38 Y71.566 E3.74392
G1 X128.002 Y72.356 E3.88794
G1 X129.15 Y72.962 E3.99156
G1 X129.527 Y73.172 E4.02601
G1 X130.452 Y73.714 E4.11159
G1 X130.837 Y73.952 E4.14772
G1 X132.194 Y74.833 E4.27686
G1 X132.961 Y75.367 E4.35147
G1 X133.86 Y76.03 E4.44063
G1 X135.006 Y76.931 E4.557
G1 X136.03 Y77.792 E4.66379
G1 X136.774 Y78.481 E4.74474
G1 X137.385 Y79.152 E4.81718
G1 X138.063 Y80.041 E4.90643
G1 X138.601 Y80.901 E4.9874
G1 X139.06 Y81.801 E5.06805
G1 X139.417 Y82.681 E5.14385
G1 X139.608 Y83.261 E5.1926
G1 X140.798 Y87.235 E5.52374
G1 X141.05 Y88.016 E5.58924
G1 X141.29 Y88.891 E5.66167
G1 X141.491 Y90.003 E5.75187
G1 X141.585 Y91.16 E5.84453
G1 X141.6 Y91.83 E5.89803
G1 X141.599 Y95.484 E6.18971
G1 X141.587 Y96.208 E6.24751
G1 X141.495 Y97.474 E6.34883
G1 X141.332 Y98.751 E6.45159
G1 X141.048 Y101.253 E6.6526
G1 X140.829 Y103.823 E6.85849
G1 X140.692 Y106.243 E7.05197
G1 X140.62 Y108.804 E7.25648
G1 X140.62 Y111.298 E7.45557
G1 X140.692 Y113.826 E7.65744
G1 X140.829 Y116.246 E7.85093
G1 X141.048 Y118.815 E8.05674
G1 X141.329 Y121.287 E8.25534
G1 X141.488 Y122.466 E8.3503
G1 X141.586 Y123.685 E8.44792
G1 X141.599 Y124.292 E8.49639
G1 X141.599 Y127.949 E8.7883
G1 X141.586 Y128.729 E8.85058
G1 X141.522 Y129.738 E8.93128
G1 X141.378 Y130.692 E9.0083
G1 X141.102 Y131.811 E9.1003
G1 X140.937 Y132.353 E9.14552
G1 X140.361 Y134.149 E9.29608
G1 X139.62 Y136.696 E9.50782
G1 X139.29 Y137.654 E9.5887
G1 X138.878 Y138.579 E9.66953
G1 X138.44 Y139.374 E9.74199
G1 X137.816 Y140.302 E9.83125
G1 X137.176 Y141.087 E9.9121
G1 X136.516 Y141.769 E9.98786
G1 X136.033 Y142.204 E10.03975
G1 X135.304 Y142.821 E10.11598
G1 X134.272 Y143.652 E10.22175
G1 X133.825 Y143.991 E10.26653
G1 X132.031 Y145.273 E10.44254
M117 Time Left 1h13m00s
G1 X130.946 Y145.979 E10.54587
G1 X129.934 Y146.593 E10.64036
G1 X128.592 Y147.342 E10.76304
G1 X128.092 Y147.601 E10.80799
G1 X126.439 Y148.403 E10.95465
G1 X125.421 Y148.859 E11.04369
G1 X124.92 Y149.066 E11.08696
G1 X123.347 Y149.667 E11.22138
G1 X122.176 Y150.07 E11.32023
G1 X121.643 Y150.235 E11.36477
G1 X119.811 Y150.743 E11.51653
G1 X118.491 Y151.061 E11.62491
G1 X117.355 Y151.301 E11.71759
G1 X116.908 Y151.383 E11.75387
G1 X115.731 Y151.575 E11.84906
G1 X115.255 Y151.642 E11.88744
G1 X114.015 Y151.788 E11.9871
G1 X113.546 Y151.833 E12.02471
G1 X112.367 Y151.921 E12.11909
G1 X111.785 Y151.95 E12.1656
G1 X110.247 Y151.983 E12.2884
G1 X109.757 Y151.983 E12.32751
G1 X108.3 Y151.951 E12.44384
G1 X107.218 Y151.895 E12.53033
G1 X106.768 Y151.861 E12.56635
G1 X105.486 Y151.736 E12.66917
G1 X105.011 Y151.677 E12.70738
G1 X103.888 Y151.516 E12.79794
G1 X103.314 Y151.419 E12.84441
G1 X101.505 Y151.06 E12.99163
G1 X100.477 Y150.825 E13.0758
G1 X99.954 Y150.689 E13.11894
G1 X98.247 Y150.198 E13.26073
G1 X97.245 Y149.877 E13.34471
G1 X96.725 Y149.692 E13.38877
G1 X95.073 Y149.059 E13.52999
G1 X94.113 Y148.657 E13.61307
G1 X93.609 Y148.428 E13.65726
G1 X92.001 Y147.645 E13.80002
G1 X90.907 Y147.07 E13.89868
G1 X90.509 Y146.847 E13.9351
G1 X89.146 Y146.038 E14.06162
G1 X88.125 Y145.38 E14.15858
G1 X87.652 Y145.057 E14.2043
G1 X86.223 Y144.025 E14.345
G1 X85.362 Y143.365 E14.4316
G1 X83.995 Y142.23 E14.57343
G1 X83.252 Y141.545 E14.6541
G1 X82.638 Y140.877 E14.72653
G1 X81.957 Y139.988 E14.81592
G1 X81.417 Y139.131 E14.89678
G1 X80.999 Y138.325 E14.96925
G1 X80.594 Y137.346 E15.05382
G1 X80.344 Y136.569 E15.11898
G1 X80.241 Y136.204 E15.14925
G1 X79.213 Y132.798 E15.43325
G1 X78.95 Y131.983 E15.50161
G1 X78.71 Y131.108 E15.57403
G1 X78.509 Y129.996 E15.66424
G1 X78.415 Y128.84 E15.75682
G1 X78.4 Y128.17 E15.81031
G1 X78.401 Y124.524 E16.10135
G1 X78.412 Y123.815 E16.15796
G1 X78.504 Y122.534 E16.26047
G1 X78.669 Y121.242 E16.36444
G1 X78.952 Y118.748 E16.5648
G1 X79.171 Y116.182 E16.77038
G1 X79.308 Y113.762 E16.96386
G1 X79.38 Y111.201 E17.16837
G1 X79.38 Y108.706 E17.36753
G1 X79.308 Y106.178 E17.56941
G1 X79.169 Y103.726 E17.76546
G1 X78.958 Y101.248 E17.96398
G1 X78.494 Y97.372 E18.27558
G1 X78.423 Y96.342 E18.358
G1 X78.4 Y95.064 E18.46003
G1 X78.401 Y92.041 E18.70134
G1 X78.413 Y91.285 E18.76169
G1 X78.476 Y90.277 E18.84231
G1 X78.619 Y89.322 E18.9194
G1 X78.9 Y88.183 E19.01304
G1 X79.101 Y87.527 E19.06781
G1 X79.637 Y85.864 E19.20728
G1 X80.382 Y83.304 E19.42011
G1 X80.711 Y82.344 E19.50112
G1 X81.123 Y81.419 E19.58195
G1 X81.561 Y80.624 E19.6544
G1 X82.186 Y79.695 E19.74378
G1 X82.825 Y78.91 E19.82458
G0 F6000 X83.257 Y79.327
G1 F600 X83.887 Y78.674 E19.89701
G1 X84.366 Y78.245 E19.94834
G1 X85.339 Y77.426 E20.04986
G1 X86.069 Y76.841 E20.12453
G1 X86.508 Y76.506 E20.16861
G1 X87.936 Y75.478 E20.30907
G1 X88.804 Y74.89 E20.39275
G1 X89.192 Y74.643 E20.42947
G1 X90.341 Y73.943 E20.53687
G1 X90.738 Y73.712 E20.57353
G1 X91.683 Y73.192 E20.65963
G1 X92.157 Y72.947 E20.70222
G1 X93.79 Y72.152 E20.8472
G1 X94.828 Y71.686 E20.93803
G1 X95.299 Y71.492 E20.97869
G1 X96.854 Y70.898 E21.11157
G1 X97.988 Y70.506 E21.20734
G1 X98.513 Y70.344 E21.2512
M117 Time Left 1h12m45s
G1 X100.308 Y69.846 E21.3999
G1 X101.436 Y69.574 E21.49252
G1 X101.853 Y69.482 E21.52661
G1 X103.308 Y69.193 E21.64502
G1 X104.629 Y68.979 E21.75184
G1 X106.084 Y68.804 E21.86882
G1 X107.663 Y68.678 E21.99527
G1 X108.228 Y68.65 E22.04042
G1 X109.766 Y68.617 E22.16322
G1 X110.23 Y68.617 E22.20026
G1 X111.672 Y68.648 E22.31539
G1 X112.958 Y68.719 E22.4182
G1 X114.469 Y68.863 E22.53936
G1 X116.011 Y69.075 E22.66361
G1 X116.569 Y69.17 E22.70879
G1 X118.361 Y69.525 E22.85462
G1 X119.403 Y69.764 E22.93996
G1 X119.907 Y69.896 E22.98154
G1 X121.961 Y70.494 E23.15231
G1 X122.617 Y70.708 E23.20739
G1 X123.133 Y70.892 E23.25112
G1 X124.972 Y71.605 E23.40857
G1 X125.621 Y71.88 E23.46483
G1 X126.117 Y72.106 E23.50834
G1 X127.722 Y72.887 E23.65082
G1 X128.858 Y73.486 E23.75334
G1 X129.224 Y73.69 E23.78678
G1 X130.137 Y74.225 E23.87125
G1 X130.51 Y74.455 E23.90623
G1 X131.851 Y75.325 E24.03383
G1 X132.605 Y75.85 E24.10717
G1 X133.489 Y76.502 E24.19485
G1 X134.62 Y77.39 E24.30964
G1 X135.623 Y78.233 E24.41422
G1 X136.33 Y78.885 E24.49099
G1 X136.941 Y79.556 E24.56344
G1 X137.555 Y80.36 E24.64419
G1 X138.067 Y81.174 E24.72095
G1 X138.504 Y82.028 E24.79753
G1 X138.847 Y82.869 E24.87003
G1 X139.033 Y83.433 E24.91743
G1 X140.227 Y87.419 E25.24958
G1 X140.471 Y88.175 E25.31299
G1 X140.711 Y89.05 E25.38542
G1 X140.893 Y90.052 E25.46671
G1 X140.985 Y91.174 E25.55658
G1 X141 Y91.83 E25.60896
G1 X140.999 Y95.474 E25.89984
G1 X140.987 Y96.198 E25.95764
G1 X140.9 Y97.398 E26.05368
G1 X140.737 Y98.675 E26.15644
G1 X140.45 Y101.202 E26.35945
G1 X140.231 Y103.772 E26.56534
G1 X140.092 Y106.226 E26.76155
G1 X140.02 Y108.787 E26.96606
G1 X140.02 Y111.298 E27.1665
G1 X140.092 Y113.843 E27.36973
G1 X140.231 Y116.297 E27.56593
G1 X140.45 Y118.866 E27.77175
G1 X140.734 Y121.367 E27.97267
G1 X140.893 Y122.546 E28.06763
G1 X140.986 Y123.698 E28.15989
G1 X140.999 Y124.305 E28.20836
G1 X140.999 Y127.939 E28.49844
G1 X140.987 Y128.692 E28.55855
G1 X140.928 Y129.65 E28.63517
G1 X140.795 Y130.548 E28.70763
G1 X140.519 Y131.667 E28.79963
G1 X140.366 Y132.17 E28.8416
G1 X139.785 Y133.981 E28.99342
G1 X139.052 Y136.502 E29.20299
G1 X138.741 Y137.411 E29.27968
G1 X138.352 Y138.289 E29.35634
G1 X137.914 Y139.084 E29.42879
G1 X137.35 Y139.924 E29.50956
G1 X136.744 Y140.67 E29.58628
G1 X136.114 Y141.323 E29.65871
G1 X135.645 Y141.746 E29.70912
G1 X134.927 Y142.354 E29.78423
G1 X133.91 Y143.174 E29.88851
G1 X133.476 Y143.503 E29.93198
G1 X131.704 Y144.77 E30.10587
G1 X130.635 Y145.466 E30.20769
G1 X129.641 Y146.069 E30.3005
G1 X128.316 Y146.809 E30.42164
G1 X127.83 Y147.061 E30.46534
G1 X126.194 Y147.855 E30.6105
G1 X125.192 Y148.304 E30.69815
G1 X124.691 Y148.511 E30.74142
G1 X123.152 Y149.1 E30.87296
G1 X121.999 Y149.497 E30.9703
G1 X121.482 Y149.657 E31.0135
G1 X119.671 Y150.16 E31.16353
G1 X118.367 Y150.474 E31.2706
G1 X117.246 Y150.711 E31.36206
G1 X116.811 Y150.791 E31.39737
G1 X115.647 Y150.981 E31.49151
G1 X115.185 Y151.046 E31.52875
G1 X113.957 Y151.191 E31.62746
G1 X113.501 Y151.235 E31.66403
M73 P1
G1 X112.337 Y151.322 E31.7572
G1 X111.772 Y151.35 E31.80236
G1 X110.234 Y151.383 E31.92516
G1 X109.77 Y151.383 E31.96219
G1 X108.331 Y151.352 E32.07709
G1 X107.263 Y151.297 E32.16245
G1 X106.826 Y151.264 E32.19744
M117 Time Left 1h12m30s
G1 X105.559 Y151.14 E32.29906
G1 X105.096 Y151.083 E32.33629
G1 X103.989 Y150.925 E32.42556
G1 X103.431 Y150.83 E32.47074
G1 X101.639 Y150.475 E32.61656
G1 X100.628 Y150.244 E32.69935
G1 X100.12 Y150.112 E32.74124
G1 X98.413 Y149.621 E32.88303
G1 X97.445 Y149.311 E32.96416
G1 X96.94 Y149.132 E33.00693
G1 X95.305 Y148.506 E33.14668
G1 X94.361 Y148.111 E33.22837
G1 X93.872 Y147.889 E33.27124
G1 X92.28 Y147.114 E33.41258
G1 X91.2 Y146.546 E33.50998
G1 X90.815 Y146.331 E33.54518
G1 X89.471 Y145.534 E33.66991
G1 X88.464 Y144.885 E33.76554
G1 X88.003 Y144.57 E33.81011
G1 X86.588 Y143.549 E33.9494
G1 X85.745 Y142.903 E34.03417
G1 X84.401 Y141.788 E34.17357
G1 X83.694 Y141.139 E34.25018
G1 X83.08 Y140.471 E34.32261
G1 X82.464 Y139.667 E34.40346
G1 X81.95 Y138.855 E34.48017
G1 X81.532 Y138.049 E34.55264
G1 X81.149 Y137.118 E34.633
G1 X80.921 Y136.406 E34.69268
G1 X80.818 Y136.041 E34.72296
G1 X79.784 Y132.614 E35.00869
G1 X79.529 Y131.824 E35.07496
G1 X79.289 Y130.949 E35.14738
G1 X79.107 Y129.947 E35.22868
G1 X79.015 Y128.826 E35.31846
G1 X79 Y128.17 E35.37084
G1 X79.001 Y124.533 E35.66116
G1 X79.012 Y123.824 E35.71776
G1 X79.099 Y122.61 E35.81492
G1 X79.264 Y121.318 E35.91889
G1 X79.55 Y118.799 E36.12126
G1 X79.769 Y116.233 E36.32683
G1 X79.908 Y113.779 E36.52304
G1 X79.98 Y111.218 E36.72755
G1 X79.98 Y108.706 E36.92806
G1 X79.908 Y106.161 E37.1313
G1 X79.768 Y103.692 E37.3287
G1 X79.556 Y101.197 E37.52858
G1 X79.093 Y97.331 E37.83939
G1 X79.022 Y96.301 E37.9218
G1 X79 Y95.064 E38.02056
G1 X79.001 Y92.05 E38.26115
G1 X79.012 Y91.321 E38.31935
G1 X79.07 Y90.364 E38.39588
G1 X79.202 Y89.466 E38.46833
G1 X79.483 Y88.327 E38.56198
G1 X79.672 Y87.711 E38.61341
G1 X80.208 Y86.048 E38.75289
G1 X80.95 Y83.497 E38.96496
G1 X81.26 Y82.587 E39.0417
G1 X81.649 Y81.709 E39.11835
G1 X82.087 Y80.914 E39.19081
G1 X82.652 Y80.073 E39.27168
G1 X83.257 Y79.327 E39.34835
G0 F6000 X83.689 Y79.744
G1 F600 X84.319 Y79.091 E39.42078
G1 X84.752 Y78.704 E39.46714
G1 X85.714 Y77.894 E39.56753
G1 X86.432 Y77.318 E39.641
G1 X86.859 Y76.993 E39.68384
G1 X88.273 Y75.975 E39.82292
G1 X89.127 Y75.396 E39.90528
G1 X89.504 Y75.155 E39.941
G1 X90.642 Y74.462 E40.04735
G1 X91.028 Y74.238 E40.08298
G1 X91.959 Y73.725 E40.16783
G1 X92.42 Y73.486 E40.20928
G1 X94.036 Y72.699 E40.35276
G1 X95.057 Y72.241 E40.44209
G1 X95.528 Y72.047 E40.48275
G1 X97.05 Y71.465 E40.61282
G1 X98.165 Y71.079 E40.70701
G1 X98.674 Y70.922 E40.74953
G1 X100.448 Y70.429 E40.8965
G1 X101.565 Y70.16 E40.98821
G1 X101.97 Y70.071 E41.02131
G1 X103.425 Y69.782 E41.13973
G1 X104.701 Y69.575 E41.24292
G1 X106.132 Y69.402 E41.35798
G1 X107.693 Y69.277 E41.48298
G1 X108.241 Y69.25 E41.52678
G1 X109.779 Y69.217 E41.64958
G1 X110.217 Y69.217 E41.68454
G1 X111.639 Y69.247 E41.79807
G1 X112.901 Y69.316 E41.89896
G1 X114.396 Y69.459 E42.01884
G1 X114.819 Y69.511 E42.05286
G1 X115.911 Y69.667 E42.14092
G1 X116.453 Y69.759 E42.1848
G1 X118.227 Y70.11 E42.32915
G1 X119.252 Y70.345 E42.4131
G1 X119.739 Y70.472 E42.45327
G1 X121.775 Y71.064 E42.62253
G1 X122.416 Y71.273 E42.67634
G1 X122.916 Y71.451 E42.71871
G1 X124.738 Y72.157 E42.87469
G1 X125.372 Y72.426 E42.92966
G1 X125.855 Y72.646 E42.97203
M117 Time Left 1h12m15s
G1 X127.442 Y73.418 E43.1129
G1 X128.566 Y74.01 E43.21431
G1 X128.921 Y74.208 E43.24676
G1 X129.822 Y74.736 E43.33012
G1 X130.184 Y74.959 E43.36406
G1 X131.508 Y75.817 E43.49
G1 X132.249 Y76.333 E43.56207
G1 X133.119 Y76.974 E43.64834
G1 X134.234 Y77.849 E43.76147
G1 X135.217 Y78.675 E43.86397
G1 X135.886 Y79.289 E43.93645
G1 X136.497 Y79.96 E44.00889
G1 X137.048 Y80.681 E44.08133
G1 X137.533 Y81.448 E44.15377
G1 X137.948 Y82.255 E44.2262
G1 X138.291 Y83.096 E44.2987
G1 X138.458 Y83.605 E44.34146
G1 X139.656 Y87.603 E44.67462
G1 X139.892 Y88.334 E44.73594
G1 X140.132 Y89.209 E44.80837
G1 X140.295 Y90.102 E44.88083
G1 X140.385 Y91.188 E44.96781
G1 X140.4 Y91.83 E45.01907
G1 X140.399 Y95.464 E45.30916
G1 X140.387 Y96.188 E45.36696
G1 X140.305 Y97.322 E45.45771
G1 X140.142 Y98.599 E45.56048
G1 X139.852 Y101.151 E45.7655
G1 X139.633 Y103.721 E45.97139
G1 X139.492 Y106.209 E46.17031
G1 X139.42 Y108.77 E46.37482
G1 X139.42 Y111.298 E46.57662
G1 X139.492 Y113.86 E46.78121
G1 X139.633 Y116.348 E46.98013
G1 X139.852 Y118.917 E47.18594
G1 X140.139 Y121.447 E47.38919
G1 X140.298 Y122.626 E47.48416
G1 X140.386 Y123.711 E47.57105
G1 X140.399 Y124.318 E47.61952
G1 X140.399 Y127.93 E47.90784
G1 X140.388 Y128.656 E47.9658
G1 X140.334 Y129.562 E48.03825
G1 X140.201 Y130.46 E48.11072
G1 X139.945 Y131.493 E48.19567
G1 X139.795 Y131.987 E48.23688
G1 X139.214 Y133.798 E48.3887
G1 X138.484 Y136.309 E48.59744
G1 X138.192 Y137.169 E48.66993
G1 X137.826 Y137.999 E48.74234
G1 X137.388 Y138.794 E48.8148
G1 X136.883 Y139.547 E48.88717
G1 X136.312 Y140.253 E48.95965
G1 X135.682 Y140.906 E49.03208
G1 X135.257 Y141.288 E49.0777
G1 X134.551 Y141.887 E49.1516
G1 X133.547 Y142.696 E49.25453
G1 X133.127 Y143.015 E49.29663
G1 X131.376 Y144.267 E49.46846
G1 X130.324 Y144.953 E49.56871
G1 X129.341 Y145.549 E49.66047
G1 X128.974 Y145.761 E49.6943
G1 X128.04 Y146.276 E49.77944
G1 X127.568 Y146.521 E49.82189
G1 X125.948 Y147.308 E49.96566
G1 X124.963 Y147.75 E50.05184
G1 X124.477 Y147.951 E50.09382
G1 X122.956 Y148.533 E50.22382
G1 X121.822 Y148.924 E50.31957
G1 X121.321 Y149.079 E50.36143
G1 X119.53 Y149.577 E50.50982
G1 X118.243 Y149.887 E50.61549
G1 X117.137 Y150.121 E50.70573
G1 X116.714 Y150.199 E50.74007
G1 X115.564 Y150.387 E50.83308
G1 X115.114 Y150.45 E50.86936
G1 X113.899 Y150.594 E50.96702
G1 X113.456 Y150.637 E51.00255
G1 X112.307 Y150.723 E51.09452
G1 X111.759 Y150.75 E51.13832
G1 X110.221 Y150.783 E51.26112
