;FLAVOR:Marlin
M73 P0


; Pre-Processed for Cancel-Object support by preprocess_cancellation v0.2.0
; 1 known objects
EXCLUDE_OBJECT_DEFINE NAME=52mm_part2_stl CENTER=110.055,109.983 POLYGON=[[73.271,79.254],[73.271,140.747],[146.74,140.747],[146.74,79.254]]
M117 Time Left 0h57m04s
;TIME:3424
;Filament used: 2.13537m
;Layer height: 0.2
;MINX:72.071
;MINY:78.054
;MINZ:0.32
;MAXX:147.94
;MAXY:141.947
;MAXZ:7.12
;TARGET_MACHINE.NAME:Creality Ender-3
;POSTPROCESSED
;  [InsertAtLayerChange]
;  [MeshPrintSize]
;  [DisplayProgressOnLCD]
;  [DisplayFilenameAndLayerOnLCD]
;Generated with Cura_SteamEngine 5.6.0
M82 ;absolute extrusion mode
;Nozzle diameter = 0.4
;Filament type = PLA
;Filament name = Purple/Pink
START_PRINT PRINT_MIN=72.071,78.054 PRINT_MAX=147.94,141.947 BED_TEMP=65 EXTRUDER_TEMP=220.0
G92 E0
G92 E0
G1 F2700 E-5
;LAYER_COUNT:34
TIMELAPSE_TAKE_FRAME
;LAYER:0
M117 Printing 52mm_part2 - Layer 0 of 33
M107
G1 F300 Z0.52
G0 F6000 X83.169 Y83.19 Z0.52
;TYPE:SKIRT
G1 F300 Z0.32
G1 F2700 E0
G1 F600 X83.916 Y82.456 E0.0836
G1 X84.322 Y82.08 E0.12777
G1 X85.673 Y80.894 E0.27127
G1 X86.444 Y80.278 E0.35005
G1 X87.241 Y79.744 E0.42663
G1 X88.224 Y79.206 E0.51608
G1 X89.153 Y78.805 E0.59685
G1 X90.013 Y78.516 E0.66927
G1 X91.101 Y78.255 E0.75858
G1 X92.052 Y78.115 E0.83531
G1 X93.115 Y78.054 E0.92031
G1 X94.022 Y78.08 E0.99274
G1 X95.049 Y78.195 E1.07523
G1 X96.021 Y78.35 E1.1538
G1 X98.544 Y78.716 E1.3573
G1 X101 Y79.002 E1.55468
G1 X103.551 Y79.226 E1.75909
G1 X106.003 Y79.371 E1.95516
G1 X108.53 Y79.448 E2.15697
G1 X111 Y79.455 E2.35414
G1 X113.553 Y79.39 E2.558
G1 X116.03 Y79.256 E2.75601
G1 X118.517 Y79.051 E2.95521
G1 X120.99 Y78.776 E3.15383
G1 X123.909 Y78.361 E3.38918
G1 X124.955 Y78.195 E3.47372
G1 X126.015 Y78.079 E3.55884
G1 X127.028 Y78.058 E3.63972
G1 X127.933 Y78.115 E3.7121
G1 X129.04 Y78.284 E3.80149
G1 X129.973 Y78.514 E3.8782
G1 X130.931 Y78.84 E3.95898
G1 X131.907 Y79.273 E4.04421
G1 X132.746 Y79.738 E4.12078
G1 X133.612 Y80.322 E4.20416
G1 X134.082 Y80.689 E4.25176
G1 X134.587 Y81.116 E4.30455
G1 X135.776 Y82.18 E4.43191
G1 X136.625 Y82.993 E4.52574
G1 X136.969 Y83.337 E4.56458
G1 X138.217 Y84.646 E4.70895
G1 X138.972 Y85.506 E4.8003
G1 X139.62 Y86.297 E4.88192
M117 Time Left 0h56m49s
G1 X139.96 Y86.734 E4.92612
G1 X140.829 Y87.91 E5.04284
G1 X141.096 Y88.286 E5.07965
G1 X141.877 Y89.442 E5.19101
G1 X142.39 Y90.249 E5.26735
G1 X142.668 Y90.717 E5.3108
G1 X143.5 Y92.206 E5.44695
G1 X143.94 Y93.051 E5.523
G1 X144.183 Y93.553 E5.56752
G1 X144.81 Y94.941 E5.6891
G1 X144.988 Y95.358 E5.72529
G1 X145.489 Y96.606 E5.83264
G1 X145.826 Y97.522 E5.91055
G1 X145.997 Y98.033 E5.95356
G1 X146.436 Y99.471 E6.07358
G1 X146.56 Y99.909 E6.10992
G1 X146.988 Y101.575 E6.24722
G1 X147.143 Y102.263 E6.30352
G1 X147.239 Y102.736 E6.34204
G1 X147.421 Y103.759 E6.42499
G1 X147.503 Y104.297 E6.46843
G1 X147.695 Y105.791 E6.58867
G1 X147.743 Y106.251 E6.62559
G1 X147.838 Y107.372 E6.71539
G1 X147.867 Y107.823 E6.75146
G1 X147.935 Y109.552 E6.88959
G1 X147.94 Y110.163 E6.93836
G1 X147.932 Y110.691 E6.98051
G1 X147.871 Y112.202 E7.10123
G1 X147.801 Y113.222 E7.18284
G1 X147.748 Y113.759 E7.22591
G1 X147.537 Y115.47 E7.36353
G1 X147.354 Y116.63 E7.45727
G1 X147.274 Y117.073 E7.4932
G1 X147.031 Y118.256 E7.58961
G1 X146.918 Y118.744 E7.62959
G1 X146.531 Y120.245 E7.75333
G1 X146.241 Y121.228 E7.83514
G1 X146.095 Y121.687 E7.87358
G1 X145.678 Y122.9 E7.97597
G1 X145.516 Y123.342 E8.01355
G1 X145.175 Y124.211 E8.08807
G1 X144.966 Y124.708 E8.13111
G1 X144.263 Y126.273 E8.26806
G1 X143.831 Y127.167 E8.34731
G1 X143.577 Y127.649 E8.3908
G1 X142.742 Y129.153 E8.52812
G1 X142.247 Y129.984 E8.60533
G1 X141.96 Y130.433 E8.64787
G1 X140.992 Y131.87 E8.78618
G1 X140.288 Y132.845 E8.88217
M117 Time Left 0h56m34s
G1 X140.024 Y133.192 E8.91698
G1 X139.311 Y134.088 E9.00838
G1 X139.023 Y134.433 E9.04425
G1 X138.037 Y135.558 E9.16367
G1 X137.224 Y136.424 E9.25848
G1 X136.885 Y136.77 E9.29715
G1 X136.101 Y137.533 E9.38448
G1 X135.704 Y137.901 E9.42769
G1 X134.575 Y138.896 E9.54781
G1 X134.067 Y139.322 E9.60074
G1 X133.259 Y139.931 E9.6815
G1 X132.4 Y140.467 E9.76233
G1 X131.544 Y140.903 E9.83901
G1 X130.555 Y141.302 E9.92414
G1 X129.687 Y141.568 E9.9966
G1 X128.591 Y141.8 E10.08603
G1 X127.585 Y141.918 E10.16688
G1 X126.678 Y141.947 E10.23932
G1 X125.577 Y141.887 E10.32734
G1 X124.928 Y141.801 E10.3796
G1 X124.018 Y141.655 E10.45317
G1 X121.454 Y141.284 E10.65997
G1 X119 Y140.998 E10.85718
G1 X116.449 Y140.774 E11.0616
M73 P1
G1 X113.997 Y140.629 E11.25767
G1 X111.47 Y140.552 E11.45948
G1 X109 Y140.545 E11.65665
G1 X106.447 Y140.61 E11.8605
G1 X103.97 Y140.744 E12.05852
G1 X101.483 Y140.949 E12.25771
G1 X99.01 Y141.224 E12.45634
G1 X96.091 Y141.639 E12.69169
G1 X95.045 Y141.805 E12.77623
G1 X93.985 Y141.921 E12.86135
G1 X92.972 Y141.942 E12.94223
G1 X92.067 Y141.885 E13.01461
G1 X90.96 Y141.716 E13.104
G1 X90.027 Y141.486 E13.18071
G1 X89.069 Y141.16 E13.26148
G1 X88.093 Y140.727 E13.34672
G1 X87.254 Y140.262 E13.42329
G1 X86.388 Y139.678 E13.50666
G1 X85.93 Y139.32 E13.55307
G1 X85.449 Y138.916 E13.60321
G1 X84.508 Y138.084 E13.70347
G1 X84.183 Y137.783 E13.73883
G1 X83.153 Y136.794 E13.85282
G1 X82.489 Y136.121 E13.92829
G1 X82.121 Y135.722 E13.97161
G1 X80.968 Y134.41 E14.11104
M117 Time Left 0h56m19s
G1 X80.345 Y133.658 E14.18899
G1 X80.004 Y133.22 E14.2333
G1 X78.991 Y131.846 E14.36956
G1 X78.309 Y130.857 E14.46546
G1 X77.556 Y129.66 E14.57835
G1 X77.301 Y129.228 E14.61839
G1 X76.447 Y127.691 E14.75875
G1 X76.004 Y126.835 E14.83568
G1 X75.767 Y126.339 E14.87956
G1 X75.161 Y124.988 E14.99776
G1 X74.982 Y124.567 E15.03428
G1 X74.335 Y122.932 E15.17464
G1 X74.133 Y122.367 E15.22253
G1 X73.958 Y121.834 E15.26731
G1 X73.461 Y120.191 E15.40433
G1 X73.142 Y118.996 E15.50306
G1 X72.81 Y117.505 E15.625
G1 X72.723 Y117.057 E15.66143
G1 X72.553 Y116.075 E15.74098
G1 X72.474 Y115.544 E15.78383
G1 X72.262 Y113.831 E15.92162
G1 X72.166 Y112.828 E16.00205
G1 X72.132 Y112.297 E16.04452
G1 X72.079 Y110.919 E16.1546
G1 X72.071 Y109.497 E16.26811
G1 X72.123 Y107.993 E16.38824
G1 X72.151 Y107.535 E16.42487
G1 X72.247 Y106.354 E16.51945
G1 X72.465 Y104.526 E16.6664
G1 X72.638 Y103.405 E16.75694
G1 X72.914 Y101.997 E16.87148
G1 X73.045 Y101.434 E16.91762
G1 X73.415 Y100 E17.03583
G1 X73.537 Y99.566 E17.07182
G1 X73.949 Y98.206 E17.18525
G1 X74.27 Y97.242 E17.26636
G1 X74.433 Y96.796 E17.30426
G1 X74.829 Y95.782 E17.39116
G1 X75.043 Y95.273 E17.43523
G1 X75.743 Y93.714 E17.57165
G1 X76.155 Y92.86 E17.64734
G1 X76.42 Y92.355 E17.69286
G1 X77.157 Y91.031 E17.81382
G1 X77.392 Y90.631 E17.85085
G1 X78.099 Y89.479 E17.95875
G1 X78.628 Y88.669 E18.03597
G1 X78.949 Y88.21 E18.08068
G1 X80.201 Y86.526 E18.24819
G1 X80.934 Y85.62 E18.34121
G1 X81.63 Y84.814 E18.42622
G1 X82.009 Y84.4 E18.47102
M117 Time Left 0h56m04s
G1 X83.169 Y83.19 E18.60483
G0 F6000 X83.589 Y83.618
G1 F600 X84.324 Y82.896 E18.68707
G1 X84.718 Y82.531 E18.72994
G1 X86.048 Y81.363 E18.87124
G1 X86.819 Y80.747 E18.95001
G1 X87.574 Y80.243 E19.02247
G1 X88.463 Y79.756 E19.10339
G1 X89.344 Y79.374 E19.18004
G1 X90.204 Y79.085 E19.25246
G1 X91.188 Y78.849 E19.33324
G1 X92.139 Y78.709 E19.40997
G1 X93.098 Y78.654 E19.48664
G1 X94.005 Y78.68 E19.55907
G1 X94.955 Y78.788 E19.6354
G1 X95.927 Y78.943 E19.71397
G1 X98.459 Y79.31 E19.91819
G1 X100.948 Y79.6 E20.11822
G1 X103.499 Y79.824 E20.32263
G1 X105.985 Y79.971 E20.52142
G1 X108.512 Y80.048 E20.72323
G1 X111.013 Y80.055 E20.92288
G1 X113.568 Y79.99 E21.12689
G1 X116.074 Y79.854 E21.32723
G1 X118.566 Y79.649 E21.52682
G1 X121.074 Y79.37 E21.72826
G1 X124.003 Y78.954 E21.96441
G1 X125.049 Y78.788 E22.04895
G1 X126.029 Y78.679 E22.12766
G1 X126.99 Y78.657 E22.20439
G1 X127.895 Y78.714 E22.27677
G1 X128.896 Y78.867 E22.35761
G1 X129.829 Y79.097 E22.43431
G1 X130.737 Y79.408 E22.51093
G1 X131.616 Y79.798 E22.58769
G1 X132.455 Y80.263 E22.66426
G1 X133.243 Y80.795 E22.74015
G1 X133.695 Y81.147 E22.78588
G1 X134.187 Y81.563 E22.83732
G1 X135.361 Y82.613 E22.96304
G1 X136.21 Y83.426 E23.05687
G1 X136.535 Y83.751 E23.09356
G1 X137.766 Y85.042 E23.23596
G1 X138.508 Y85.887 E23.32572
G1 X139.147 Y86.666 E23.40615
G1 X139.478 Y87.091 E23.44915
G1 X140.34 Y88.257 E23.5649
G1 X140.599 Y88.622 E23.60062
M73 P2
G1 X141.371 Y89.764 E23.71066
G1 X141.874 Y90.556 E23.78555
G1 X142.144 Y91.01 E23.82772
M117 Time Left 0h55m49s
G1 X142.968 Y92.484 E23.96251
G1 X143.4 Y93.312 E24.03706
G1 X143.636 Y93.8 E24.08033
G1 X144.258 Y95.177 E24.20095
G1 X144.431 Y95.582 E24.2361
G1 X144.926 Y96.813 E24.34201
G1 X145.257 Y97.712 E24.41848
G1 X145.423 Y98.208 E24.46023
G1 X145.859 Y99.635 E24.57934
G1 X145.979 Y100.058 E24.61444
G1 X146.403 Y101.707 E24.75035
G1 X146.555 Y102.382 E24.80558
G1 X146.648 Y102.841 E24.84297
G1 X146.828 Y103.85 E24.92478
G1 X146.908 Y104.373 E24.96701
G1 X147.098 Y105.854 E25.0862
G1 X147.145 Y106.302 E25.12216
G1 X147.239 Y107.41 E25.21092
G1 X147.267 Y107.847 E25.24588
G1 X147.335 Y109.557 E25.38249
G1 X147.34 Y110.154 E25.43014
G1 X147.332 Y110.667 E25.4711
G1 X147.272 Y112.161 E25.59045
G1 X147.204 Y113.163 E25.67062
G1 X147.152 Y113.686 E25.71257
G1 X146.944 Y115.377 E25.84857
G1 X146.764 Y116.523 E25.94117
G1 X146.686 Y116.952 E25.97598
G1 X146.446 Y118.121 E26.07124
G1 X146.337 Y118.594 E26.10999
G1 X145.955 Y120.075 E26.23208
G1 X145.669 Y121.046 E26.31288
G1 X145.527 Y121.492 E26.35024
G1 X145.115 Y122.693 E26.45159
G1 X144.957 Y123.123 E26.48816
G1 X144.622 Y123.979 E26.56154
G1 X144.419 Y124.462 E26.60336
G1 X143.723 Y126.012 E26.73899
G1 X143.3 Y126.887 E26.81657
G1 X143.052 Y127.358 E26.85906
G1 X142.226 Y128.846 E26.99491
G1 X141.741 Y129.661 E27.07062
G1 X141.462 Y130.098 E27.112
G1 X140.494 Y131.535 E27.25031
G1 X139.811 Y132.481 E27.34345
G1 X139.554 Y132.818 E27.37728
G1 X138.85 Y133.703 E27.46755
G1 X138.562 Y134.048 E27.50342
G1 X137.599 Y135.147 E27.62006
G1 X136.795 Y136.004 E27.71386
M117 Time Left 0h55m34s
G1 X136.466 Y136.34 E27.7514
G1 X135.693 Y137.093 E27.83754
G1 X135.307 Y137.451 E27.87957
G1 X134.189 Y138.437 E27.99856
G1 X133.705 Y138.844 E28.04904
G1 X132.94 Y139.423 E28.12562
G1 X132.126 Y139.933 E28.2023
G1 X131.318 Y140.347 E28.27477
G1 X130.379 Y140.728 E28.35566
G1 X129.511 Y140.994 E28.42813
G1 X128.52 Y141.204 E28.50899
G1 X127.566 Y141.318 E28.58569
G1 X126.659 Y141.347 E28.65812
G1 X125.655 Y141.292 E28.73839
G1 X125.023 Y141.209 E28.78927
G1 X124.104 Y141.061 E28.86357
G1 X121.54 Y140.69 E29.07037
G1 X119.052 Y140.4 E29.27032
G1 X116.501 Y140.176 E29.47474
G1 X114.015 Y140.029 E29.67353
G1 X111.488 Y139.952 E29.87534
G1 X108.987 Y139.945 E30.07498
G1 X106.432 Y140.01 E30.279
G1 X103.926 Y140.146 E30.47933
G1 X101.434 Y140.351 E30.67892
G1 X98.926 Y140.63 E30.88036
G1 X95.997 Y141.046 E31.11651
G1 X94.951 Y141.212 E31.20105
G1 X93.971 Y141.321 E31.27976
G1 X93.01 Y141.343 E31.35649
G1 X92.105 Y141.286 E31.42888
G1 X91.104 Y141.133 E31.50971
G1 X90.171 Y140.903 E31.58641
G1 X89.263 Y140.592 E31.66303
G1 X88.384 Y140.202 E31.73979
G1 X87.545 Y139.737 E31.81636
G1 X86.757 Y139.205 E31.89226
G1 X86.316 Y138.861 E31.9369
G1 X85.846 Y138.466 E31.98591
G1 X84.915 Y137.643 E32.0851
G1 X84.598 Y137.35 E32.11956
G1 X83.58 Y136.373 E32.23219
G1 X82.93 Y135.714 E32.30608
G1 X82.572 Y135.326 E32.34822
G1 X81.43 Y134.027 E32.48628
G1 X80.818 Y133.289 E32.56281
G1 X80.487 Y132.864 E32.60581
G1 X79.485 Y131.505 E32.74059
G1 X78.817 Y130.537 E32.83448
G1 X78.073 Y129.355 E32.94596
G1 X77.818 Y128.923 E32.98601
M117 Time Left 0h55m19s
G1 X76.98 Y127.415 E33.12372
G1 X76.545 Y126.576 E33.19916
G1 X76.314 Y126.093 E33.2419
G1 X75.713 Y124.753 E33.35913
G1 X75.54 Y124.346 E33.39443
G1 X74.9 Y122.729 E33.53325
G1 X74.703 Y122.18 E33.57981
G1 X74.532 Y121.66 E33.6235
G1 X74.041 Y120.036 E33.75893
G1 X73.728 Y118.865 E33.85569
G1 X73.399 Y117.39 E33.97632
G1 X73.314 Y116.954 E34.01178
G1 X73.146 Y115.987 E34.09013
G1 X73.069 Y115.47 E34.13185
G1 X72.859 Y113.774 E34.26827
G1 X72.765 Y112.79 E34.34717
G1 X72.732 Y112.274 E34.38845
G1 X72.679 Y110.916 E34.49693
G1 X72.671 Y109.518 E34.60853
G1 X72.722 Y108.029 E34.72745
M73 P3
G1 X72.749 Y107.584 E34.76304
G1 X72.844 Y106.417 E34.8565
G1 X72.89 Y105.978 E34.89174
G1 X73.058 Y104.617 E35.00121
G1 X73.227 Y103.52 E35.08981
G1 X73.499 Y102.132 E35.20271
G1 X73.626 Y101.584 E35.24761
G1 X73.993 Y100.162 E35.36484
G1 X74.111 Y99.74 E35.39982
G1 X74.518 Y98.395 E35.51199
G1 X74.833 Y97.448 E35.59166
G1 X74.992 Y97.014 E35.62855
G1 X75.382 Y96.014 E35.71423
G1 X75.59 Y95.519 E35.75709
G1 X76.283 Y93.975 E35.89219
G1 X76.686 Y93.139 E35.96627
G1 X76.944 Y92.647 E36.01061
G1 X77.675 Y91.334 E36.13057
G1 X77.903 Y90.945 E36.16656
G1 X78.602 Y89.807 E36.27317
G1 X79.12 Y89.013 E36.34885
G1 X79.431 Y88.568 E36.39219
G1 X80.668 Y86.903 E36.55776
G1 X81.388 Y86.012 E36.6492
G1 X82.073 Y85.219 E36.73285
G1 X82.442 Y84.815 E36.77652
G1 X83.589 Y83.618 E36.90886
G0 F6000 X84.01 Y84.046
G1 F600 X84.732 Y83.336 E36.98969
G1 X85.114 Y82.982 E37.03126
M117 Time Left 0h55m04s
G1 X86.444 Y81.814 E37.17256
G1 X87.152 Y81.246 E37.24501
G1 X87.907 Y80.742 E37.31748
G1 X88.703 Y80.306 E37.38992
G1 X89.535 Y79.943 E37.46238
G1 X90.395 Y79.654 E37.5348
G1 X91.277 Y79.442 E37.60721
G1 X92.175 Y79.308 E37.67969
G1 X93.081 Y79.254 E37.75214
G1 X93.988 Y79.28 E37.82457
G1 X94.861 Y79.381 E37.89472
G1 X95.833 Y79.536 E37.97329
G1 X98.374 Y79.904 E38.17824
G1 X100.896 Y80.198 E38.38092
G1 X103.447 Y80.422 E38.58534
G1 X105.967 Y80.571 E38.78684
G1 X108.494 Y80.648 E38.98865
G1 X111.026 Y80.655 E39.19077
G1 X113.583 Y80.59 E39.39495
G1 X116.118 Y80.452 E39.5976
G1 X118.615 Y80.247 E39.79759
G1 X121.158 Y79.964 E40.00184
G1 X124.097 Y79.547 E40.23879
G1 X125.143 Y79.381 E40.32333
G1 X126.044 Y79.279 E40.39572
G1 X126.952 Y79.256 E40.46822
G1 X127.857 Y79.313 E40.5406
G1 X128.754 Y79.45 E40.61304
G1 X129.636 Y79.665 E40.6855
G1 X130.495 Y79.957 E40.75793
G1 X131.326 Y80.323 E40.83041
G1 X132.12 Y80.761 E40.90279
G1 X132.874 Y81.268 E40.97532
G1 X133.308 Y81.606 E41.01923
G1 X133.787 Y82.01 E41.06925
G1 X134.946 Y83.046 E41.19334
G1 X135.795 Y83.859 E41.28717
G1 X136.101 Y84.165 E41.32172
G1 X137.315 Y85.438 E41.46213
G1 X138.044 Y86.268 E41.55032
G1 X138.674 Y87.035 E41.62955
G1 X138.996 Y87.448 E41.67135
G1 X139.851 Y88.604 E41.78612
G1 X140.102 Y88.958 E41.82076
G1 X140.865 Y90.086 E41.92947
G1 X141.358 Y90.862 E42.00286
G1 X141.62 Y91.303 E42.0438
G1 X142.436 Y92.762 E42.17725
G1 X142.86 Y93.573 E42.2503
G1 X143.089 Y94.047 E42.29232
G1 X143.706 Y95.412 E42.41189
M117 Time Left 0h54m49s
G1 X143.874 Y95.806 E42.44608
G1 X144.363 Y97.02 E42.55056
G1 X144.688 Y97.902 E42.62559
G1 X144.849 Y98.383 E42.66608
G1 X145.282 Y99.799 E42.78428
G1 X145.398 Y100.208 E42.81821
G1 X145.818 Y101.839 E42.95265
G1 X145.967 Y102.501 E43.00682
G1 X146.057 Y102.947 E43.04314
G1 X146.235 Y103.941 E43.12374
G1 X146.313 Y104.449 E43.16477
G1 X146.501 Y105.917 E43.28291
G1 X146.547 Y106.353 E43.31791
G1 X146.64 Y107.448 E43.40563
G1 X146.667 Y107.871 E43.43946
G1 X146.735 Y109.562 E43.57455
G1 X146.74 Y110.144 E43.62101
G1 X146.732 Y110.643 E43.66085
G1 X146.673 Y112.121 E43.77893
G1 X146.607 Y113.104 E43.85757
G1 X146.557 Y113.613 E43.8984
G1 X146.351 Y115.284 E44.03279
G1 X146.174 Y116.415 E44.12417
G1 X146.098 Y116.831 E44.15793
G1 X145.861 Y117.987 E44.25213
G1 X145.756 Y118.444 E44.28956
G1 X145.379 Y119.906 E44.41008
G1 X145.097 Y120.864 E44.48979
G1 X144.959 Y121.297 E44.52607
G1 X144.547 Y122.498 E44.62742
G1 X144.398 Y122.905 E44.66202
G1 X144.069 Y123.747 E44.73418
G1 X143.872 Y124.216 E44.77479
G1 X143.183 Y125.751 E44.90909
G1 X142.769 Y126.608 E44.98507
G1 X142.528 Y127.067 E45.02645
G1 X141.71 Y128.539 E45.16088
G1 X141.235 Y129.338 E45.23508
G1 X140.964 Y129.763 E45.27531
G1 X140.007 Y131.184 E45.41207
G1 X139.334 Y132.117 E45.5039
G1 X139.084 Y132.445 E45.53682
G1 X138.389 Y133.319 E45.62595
G1 X138.111 Y133.653 E45.66064
M73 P4
G1 X137.162 Y134.736 E45.77558
G1 X136.366 Y135.584 E45.86843
G1 X136.047 Y135.91 E45.90483
G1 X135.285 Y136.653 E45.98979
G1 X134.91 Y137.001 E46.03063
G1 X133.803 Y137.978 E46.14849
