;FLAVOR:Marlin
M73 P0


; Pre-Processed for Cancel-Object support by preprocess_cancellation v0.2.0
; 1 known objects
EXCLUDE_OBJECT_DEFINE NAME=52mm_part1_stl CENTER=109.717,109.915 POLYGON=[[75.208,79.186],[75.208,140.81],[144.792,140.81],[144.792,79.186]]
M117 Time Left 0h34m39s
;TIME:2079
;Filament used: 1.59501m
;Layer height: 0.2
;MINX:74.008
;MINY:77.988
;MINZ:0.32
;MAXX:145.992
;MAXY:142.01
;MAXZ:5.92
;TARGET_MACHINE.NAME:Creality Ender-3
;POSTPROCESSED
;  [InsertAtLayerChange]
;  [MeshPrintSize]
;  [DisplayProgressOnLCD]
;  [DisplayFilenameAndLayerOnLCD]
;Generated with Cura_SteamEngine 5.6.0
M82 ;absolute extrusion mode
;Nozzle diameter = 0.4
;Filament type = PLA
;Filament name = Purple/Pink
START_PRINT PRINT_MIN=74.008,77.988 PRINT_MAX=145.992,142.01 BED_TEMP=65 EXTRUDER_TEMP=220.0
G92 E0
G92 E0
G1 F2700 E-5
;LAYER_COUNT:28
TIMELAPSE_TAKE_FRAME
;LAYER:0
M117 Printing 52mm_part1 - Layer 0 of 27
M107
G1 F300 Z0.52
G0 F6000 X84.449 Y84.648 Z0.52
;TYPE:SKIRT
G1 F300 Z0.32
G1 F2700 E0
G1 F600 X84.786 Y84.313 E0.03793
G1 X85.577 Y83.561 E0.12505
G1 X85.933 Y83.238 E0.16342
G1 X86.789 Y82.492 E0.25406
G1 X87.933 Y81.565 E0.3716
G1 X88.32 Y81.269 E0.41049
G1 X89.241 Y80.598 E0.50145
G1 X89.642 Y80.318 E0.54049
G1 X90.299 Y79.883 E0.60339
G1 X91.193 Y79.35 E0.68647
G1 X92.009 Y78.953 E0.75891
G1 X93.053 Y78.553 E0.84815
G1 X93.977 Y78.293 E0.92477
G1 X95.025 Y78.095 E1.00991
G1 X96.033 Y77.998 E1.09074
G1 X97.05 Y77.99 E1.17193
G1 X98.092 Y78.074 E1.25537
G1 X98.884 Y78.175 E1.31911
G1 X101.43 Y78.459 E1.5236
G1 X103.941 Y78.667 E1.72473
G1 X106.403 Y78.799 E1.92154
G1 X108.96 Y78.866 E2.12572
G1 X111.43 Y78.859 E2.32288
G1 X113.95 Y78.783 E2.52413
G1 X116.42 Y78.637 E2.72164
G1 X118.952 Y78.416 E2.92453
G1 X122.039 Y78.061 E3.17257
G1 X123.075 Y77.988 E3.25547
G1 X124.089 Y78.006 E3.33643
G1 X125.097 Y78.114 E3.41735
G1 X126.09 Y78.31 E3.49814
G1 X126.962 Y78.559 E3.57053
G1 X128.008 Y78.96 E3.65995
G1 X128.871 Y79.384 E3.73671
G1 X129.782 Y79.936 E3.82174
G1 X130.641 Y80.518 E3.90456
G1 X131.288 Y80.977 E3.96788
G1 X131.666 Y81.258 E4.00548
G1 X132.529 Y81.93 E4.09279
G1 X133.727 Y82.935 E4.21762
G1 X134.082 Y83.25 E4.2555
G1 X134.882 Y83.992 E4.3426
G1 X135.943 Y85.049 E4.46215
G1 X136.235 Y85.356 E4.49597
G1 X136.883 Y86.068 E4.57282
M117 Time Left 0h34m24s
G1 X137.251 Y86.493 E4.61769
G1 X138.308 Y87.781 E4.7507
G1 X138.947 Y88.608 E4.83412
G1 X139.225 Y88.991 E4.8719
G1 X139.762 Y89.763 E4.94697
G1 X140.054 Y90.204 E4.98919
G1 X140.913 Y91.576 E5.1184
G1 X141.378 Y92.368 E5.19171
G1 X141.652 Y92.873 E5.23757
G1 X142.386 Y94.309 E5.36631
G1 X142.778 Y95.134 E5.43922
G1 X142.985 Y95.607 E5.48043
G1 X143.613 Y97.149 E5.61334
G1 X143.979 Y98.129 E5.69684
G1 X144.136 Y98.584 E5.73527
G1 X144.417 Y99.47 E5.80946
G1 X144.572 Y100.004 E5.85385
G1 X144.992 Y101.602 E5.98574
G1 X145.219 Y102.57 E6.0651
G1 X145.315 Y103.043 E6.10363
M73 P1
G1 X145.484 Y103.971 E6.17893
G1 X145.569 Y104.524 E6.22359
G1 X145.781 Y106.17 E6.35606
G1 X145.882 Y107.195 E6.43828
G1 X145.916 Y107.661 E6.47558
G1 X145.971 Y108.736 E6.5615
G1 X145.984 Y109.201 E6.59863
G1 X145.992 Y110.277 E6.68453
G1 X145.985 Y110.747 E6.72205
G1 X145.945 Y111.84 E6.80936
G1 X145.918 Y112.307 E6.8467
G1 X145.846 Y113.227 E6.92036
G1 X145.789 Y113.773 E6.96418
G1 X145.576 Y115.408 E7.09579
G1 X145.401 Y116.503 E7.18431
G1 X145.135 Y117.815 E7.29117
G1 X145.005 Y118.355 E7.33551
G1 X144.585 Y119.946 E7.46686
G1 X144.303 Y120.905 E7.54665
G1 X144.164 Y121.332 E7.5825
G1 X143.837 Y122.265 E7.66142
G1 X143.642 Y122.783 E7.7056
G1 X143.033 Y124.276 E7.83431
G1 X142.627 Y125.19 E7.91414
G1 X142.404 Y125.653 E7.95516
G1 X141.683 Y127.065 E8.08172
G1 X141.228 Y127.894 E8.15721
G1 X140.956 Y128.355 E8.19993
G1 X140.093 Y129.734 E8.32979
G1 X139.528 Y130.582 E8.41113
G1 X139.259 Y130.962 E8.44829
G1 X138.679 Y131.745 E8.52608
G1 X138.334 Y132.187 E8.57083
M117 Time Left 0h34m09s
G1 X137.281 Y133.467 E8.70314
G1 X136.569 Y134.281 E8.78947
G1 X136.258 Y134.617 E8.82601
G1 X135.544 Y135.358 E8.90815
G1 X135.203 Y135.696 E8.94648
G1 X134.385 Y136.472 E9.03648
G1 X134.037 Y136.789 E9.07406
G1 X132.898 Y137.77 E9.19405
G1 X132.069 Y138.434 E9.27884
G1 X131.677 Y138.733 E9.31819
G1 X130.766 Y139.397 E9.40818
G1 X130.368 Y139.674 E9.44689
G1 X129.754 Y140.081 E9.50569
G1 X128.977 Y140.549 E9.57809
G1 X127.968 Y141.04 E9.66767
G1 X127.071 Y141.381 E9.74427
G1 X126.063 Y141.668 E9.82793
G1 X125.407 Y141.803 E9.88139
G1 X124.332 Y141.954 E9.96804
G1 X123.321 Y142.006 E10.04885
G1 X122.414 Y141.976 E10.12129
G1 X121.845 Y141.922 E10.16692
G1 X120.177 Y141.717 E10.30107
G1 X117.613 Y141.457 E10.50679
G1 X115.138 Y141.277 E10.70487
G1 X112.669 Y141.168 E10.90215
G1 X110.117 Y141.126 E11.10589
G1 X107.674 Y141.157 E11.30092
G1 X105.101 Y141.261 E11.50647
G1 X102.656 Y141.43 E11.70211
G1 X100.122 Y141.676 E11.90533
G1 X98.01 Y141.933 E12.07517
G1 X96.946 Y142.01 E12.16032
G1 X95.933 Y141.994 E12.24119
G1 X94.927 Y141.89 E12.32193
G1 X94.035 Y141.721 E12.3944
G1 X92.957 Y141.415 E12.48385
G1 X92.012 Y141.05 E12.56471
G1 X91.104 Y140.604 E12.64546
M73 P2
G1 X90.31 Y140.128 E12.71936
G1 X89.499 Y139.583 E12.79736
G1 X88.703 Y139.017 E12.87532
G1 X88.32 Y138.731 E12.91348
G1 X87.451 Y138.053 E13.00146
G1 X86.309 Y137.097 E13.12035
G1 X85.932 Y136.763 E13.16055
G1 X84.815 Y135.715 E13.28282
G1 X84.068 Y134.964 E13.36737
G1 X83.742 Y134.62 E13.4052
G1 X83.108 Y133.92 E13.48059
G1 X82.749 Y133.507 E13.52427
G1 X81.692 Y132.219 E13.65727
G1 X81.048 Y131.385 E13.74139
M117 Time Left 0h33m54s
G1 X80.236 Y130.236 E13.8537
G1 X79.947 Y129.797 E13.89565
G1 X79.087 Y128.424 E14.02497
G1 X78.621 Y127.632 E14.09833
G1 X78.342 Y127.12 E14.14487
G1 X77.611 Y125.685 E14.27342
G1 X77.225 Y124.872 E14.34526
G1 X77.011 Y124.379 E14.38817
G1 X76.387 Y122.851 E14.51992
G1 X76.021 Y121.871 E14.60342
G1 X75.864 Y121.416 E14.64184
G1 X75.583 Y120.529 E14.71611
G1 X75.429 Y119.998 E14.76025
G1 X75.008 Y118.396 E14.89247
G1 X74.774 Y117.394 E14.9746
G1 X74.682 Y116.94 E15.01158
G1 X74.516 Y116.028 E15.08558
G1 X74.431 Y115.471 E15.13055
G1 X74.177 Y113.456 E15.29267
G1 X74.085 Y112.351 E15.38118
G1 X74.029 Y111.252 E15.46903
G1 X74.016 Y110.787 E15.50616
G1 X74.008 Y109.7 E15.59293
G1 X74.015 Y109.212 E15.63189
G1 X74.055 Y108.14 E15.71752
G1 X74.164 Y106.647 E15.83701
G1 X74.215 Y106.15 E15.87689
G1 X74.4 Y104.729 E15.99128
G1 X74.59 Y103.555 E16.08622
G1 X74.685 Y103.043 E16.12778
G1 X74.869 Y102.174 E16.19869
G1 X74.995 Y101.649 E16.24179
G1 X75.416 Y100.057 E16.37323
G1 X75.721 Y99.028 E16.45891
G1 X75.866 Y98.583 E16.49627
G1 X76.168 Y97.723 E16.56903
G1 X76.358 Y97.217 E16.61217
G1 X76.967 Y95.724 E16.74088
G1 X77.373 Y94.81 E16.82071
G1 X77.596 Y94.347 E16.86174
G1 X78.317 Y92.935 E16.98829
G1 X78.772 Y92.106 E17.06378
G1 X79.044 Y91.645 E17.10651
G1 X79.908 Y90.265 E17.23647
G1 X80.484 Y89.4 E17.31943
G1 X81.322 Y88.254 E17.43276
G1 X81.666 Y87.813 E17.4774
G1 X82.719 Y86.533 E17.60971
G1 X83.451 Y85.696 E17.69847
G1 X84.449 Y84.648 E17.81399
G0 F6000 X84.872 Y85.074
G1 F600 X85.2 Y84.748 E17.8509
G1 X85.981 Y84.005 E17.93695
M117 Time Left 0h33m39s
G1 X86.327 Y83.69 E17.9743
G1 X87.167 Y82.958 E18.06324
G1 X88.297 Y82.042 E18.17935
G1 X88.674 Y81.754 E18.21722
M73 P3
G1 X89.584 Y81.09 E18.30715
G1 X89.974 Y80.818 E18.3451
G1 X90.607 Y80.398 E18.40574
G1 X91.455 Y79.89 E18.48465
G1 X92.271 Y79.493 E18.55709
G1 X93.216 Y79.131 E18.63786
G1 X94.14 Y78.871 E18.71449
G1 X95.084 Y78.692 E18.79118
G1 X96.039 Y78.598 E18.86778
G1 X97.002 Y78.588 E18.94466
G1 X98.016 Y78.669 E19.02586
G1 X98.808 Y78.77 E19.08959
G1 X101.381 Y79.057 E19.29625
G1 X103.895 Y79.265 E19.49762
G1 X106.387 Y79.399 E19.69683
G1 X108.946 Y79.466 E19.90117
G1 X111.448 Y79.459 E20.10089
G1 X113.968 Y79.383 E20.30214
G1 X116.472 Y79.235 E20.50237
G1 X119.004 Y79.014 E20.70525
G1 X122.082 Y78.659 E20.95258
G1 X123.066 Y78.588 E21.03133
G1 X124.027 Y78.603 E21.10805
G1 X124.982 Y78.703 E21.1847
G1 X125.925 Y78.887 E21.26139
G1 X126.797 Y79.136 E21.33378
G1 X127.743 Y79.499 E21.41466
G1 X128.606 Y79.923 E21.49142
G1 X129.446 Y80.433 E21.56986
G1 X130.294 Y81.007 E21.6516
G1 X130.93 Y81.458 E21.71384
G1 X131.298 Y81.732 E21.75046
G1 X132.15 Y82.395 E21.83664
G1 X132.503 Y82.683 E21.873
G1 X133.329 Y83.384 E21.95948
G1 X133.674 Y83.69 E21.99629
G1 X134.464 Y84.423 E22.08232
G1 X134.79 Y84.739 E22.11856
G1 X135.508 Y85.463 E22.19995
G1 X135.8 Y85.77 E22.23378
G1 X136.429 Y86.46 E22.3083
G1 X136.787 Y86.874 E22.35199
G1 X137.833 Y88.148 E22.48358
G1 X138.462 Y88.961 E22.56563
G1 X138.733 Y89.334 E22.60243
G1 X139.262 Y90.094 E22.67635
G1 X139.546 Y90.523 E22.71742
G1 X140.396 Y91.88 E22.84523
G1 X140.851 Y92.655 E22.91697
M117 Time Left 0h33m24s
G1 X141.118 Y93.146 E22.96159
G1 X141.844 Y94.567 E23.08896
G1 X142.228 Y95.375 E23.16037
G1 X142.429 Y95.834 E23.20037
G1 X143.051 Y97.359 E23.33184
G1 X143.412 Y98.325 E23.41416
G1 X143.564 Y98.766 E23.45139
G1 X143.841 Y99.637 E23.52435
G1 X143.992 Y100.157 E23.56758
G1 X144.408 Y101.739 E23.69815
G1 X144.631 Y102.69 E23.77612
G1 X144.725 Y103.151 E23.81368
G1 X144.891 Y104.062 E23.8876
G1 X144.974 Y104.601 E23.93113
G1 X145.184 Y106.229 E24.06216
G1 X145.284 Y107.239 E24.14318
G1 X145.317 Y107.691 E24.17935
G1 X145.371 Y108.753 E24.26424
G1 X145.384 Y109.206 E24.30041
G1 X145.392 Y110.268 E24.38519
G1 X145.385 Y110.725 E24.42167
G1 X145.346 Y111.806 E24.50802
G1 X145.32 Y112.26 E24.54432
M73 P4
G1 X145.249 Y113.165 E24.61678
G1 X145.194 Y113.696 E24.65939
G1 X144.984 Y115.313 E24.78955
G1 X144.813 Y116.384 E24.87613
G1 X144.551 Y117.675 E24.98128
G1 X144.425 Y118.202 E25.02454
G1 X144.009 Y119.777 E25.15457
G1 X143.732 Y120.719 E25.23295
G1 X143.593 Y121.146 E25.26879
G1 X143.275 Y122.054 E25.34559
G1 X143.086 Y122.556 E25.38841
G1 X142.477 Y124.049 E25.51712
G1 X142.086 Y124.93 E25.59406
G1 X141.87 Y125.38 E25.6339
G1 X141.157 Y126.777 E25.7591
G1 X140.712 Y127.589 E25.83302
G1 X140.447 Y128.037 E25.87457
G1 X139.593 Y129.402 E26.00309
G1 X139.038 Y130.236 E26.08306
G1 X138.777 Y130.605 E26.11914
G1 X138.206 Y131.376 E26.19572
G1 X137.871 Y131.806 E26.23924
G1 X136.83 Y133.072 E26.37007
G1 X136.128 Y133.874 E26.45515
G1 X135.826 Y134.201 E26.49068
G1 X135.122 Y134.932 E26.57169
G1 X134.79 Y135.261 E26.609
G1 X133.982 Y136.028 E26.69793
G1 X133.645 Y136.334 E26.73427
G1 X132.506 Y137.315 E26.85426
M117 Time Left 0h33m09s
G1 X131.705 Y137.957 E26.93621
G1 X131.324 Y138.248 E26.97447
G1 X130.422 Y138.905 E27.06355
G1 X130.037 Y139.174 E27.10104
G1 X129.444 Y139.567 E27.15783
G1 X128.667 Y140.035 E27.23023
G1 X127.755 Y140.479 E27.3112
G1 X126.858 Y140.82 E27.38781
G1 X125.942 Y141.08 E27.46381
G1 X125.286 Y141.215 E27.51727
G1 X124.3 Y141.355 E27.59677
G1 X123.341 Y141.406 E27.67343
G1 X122.434 Y141.376 E27.74587
G1 X121.918 Y141.326 E27.78725
G1 X120.25 Y141.121 E27.9214
G1 X117.673 Y140.86 E28.12816
G1 X115.175 Y140.678 E28.32809
G1 X112.679 Y140.568 E28.52753
G1 X110.119 Y140.526 E28.7319
G1 X107.65 Y140.557 E28.92901
G1 X105.071 Y140.661 E29.13504
G1 X102.615 Y140.831 E29.33156
G1 X100.05 Y141.08 E29.53727
G1 X97.938 Y141.337 E29.7071
G1 X96.954 Y141.41 E29.78587
G1 X95.994 Y141.397 E29.8625
G1 X95.039 Y141.3 E29.93913
G1 X94.147 Y141.131 E30.0116
G1 X93.172 Y140.855 E30.09249
G1 X92.276 Y140.511 E30.1691
G1 X91.413 Y140.089 E30.24578
G1 X90.619 Y139.613 E30.31968
G1 X89.847 Y139.094 E30.39393
G1 X89.062 Y138.536 E30.47081
G1 X88.689 Y138.258 E30.50795
G1 X87.836 Y137.593 E30.59429
G1 X86.707 Y136.648 E30.71181
G1 X86.343 Y136.325 E30.75066
G1 X85.226 Y135.277 E30.87292
G1 X84.504 Y134.551 E30.95465
G1 X84.178 Y134.207 E30.99248
G1 X83.561 Y133.527 E31.06578
M73 P5
G1 X83.213 Y133.126 E31.10816
G1 X82.167 Y131.852 E31.23974
G1 X81.538 Y131.039 E31.3218
G1 X80.737 Y129.906 E31.43256
G1 X80.455 Y129.478 E31.47347
G1 X79.604 Y128.12 E31.6014
G1 X79.148 Y127.344 E31.67324
G1 X78.877 Y126.848 E31.71836
G1 X78.153 Y125.427 E31.84567
G1 X77.775 Y124.632 E31.91593
G1 X77.566 Y124.152 E31.95772
M117 Time Left 0h32m54s
G1 X76.949 Y122.641 E32.08801
G1 X76.588 Y121.675 E32.17033
G1 X76.436 Y121.234 E32.20756
G1 X76.159 Y120.362 E32.2806
G1 X76.009 Y119.845 E32.32357
G1 X75.592 Y118.26 E32.45439
G1 X75.362 Y117.275 E32.53514
G1 X75.272 Y116.832 E32.57122
G1 X75.109 Y115.937 E32.64384
G1 X75.026 Y115.396 E32.68753
G1 X74.775 Y113.406 E32.84764
G1 X74.684 Y112.321 E32.93455
G1 X74.629 Y111.235 E33.02135
G1 X74.616 Y110.783 E33.05745
G1 X74.608 Y109.709 E33.14318
G1 X74.615 Y109.234 E33.1811
G1 X74.655 Y108.162 E33.26673
G1 X74.761 Y106.708 E33.3831
G1 X74.81 Y106.227 E33.4217
G1 X74.992 Y104.825 E33.53455
G1 X75.18 Y103.664 E33.62843
G1 X75.272 Y103.167 E33.66878
G1 X75.452 Y102.314 E33.73837
G1 X75.575 Y101.802 E33.7804
G1 X75.991 Y100.227 E33.91044
G1 X76.291 Y99.214 E33.99477
G1 X76.432 Y98.782 E34.03105
G1 X76.729 Y97.935 E34.10269
G1 X76.914 Y97.444 E34.14458
G1 X77.523 Y95.951 E34.27329
G1 X77.914 Y95.07 E34.35023
G1 X78.13 Y94.62 E34.39007
G1 X78.843 Y93.223 E34.51527
G1 X79.288 Y92.411 E34.58919
G1 X79.553 Y91.963 E34.63073
G1 X80.407 Y90.598 E34.75926
G1 X80.969 Y89.754 E34.8402
G1 X81.795 Y88.623 E34.952
G1 X82.129 Y88.194 E34.9954
G1 X83.17 Y86.928 E35.12623
G1 X83.886 Y86.11 E35.21301
G1 X84.872 Y85.074 E35.32718
G0 F6000 X85.295 Y85.5
G1 F600 X85.614 Y85.183 E35.36307
G1 X86.386 Y84.448 E35.44816
G1 X86.721 Y84.142 E35.48438
G1 X87.545 Y83.424 E35.57162
G1 X88.662 Y82.519 E35.68638
G1 X89.028 Y82.239 E35.72316
G1 X89.928 Y81.582 E35.81211
G1 X90.306 Y81.318 E35.84891
G1 X90.939 Y80.898 E35.90955
M117 Time Left 0h32m39s
G1 X91.717 Y80.43 E35.98203
G1 X92.533 Y80.033 E36.05446
G1 X93.38 Y79.708 E36.12688
G1 X94.253 Y79.46 E36.19933
G1 X95.144 Y79.289 E36.27175
G1 X96.047 Y79.198 E36.34419
G1 X96.955 Y79.186 E36.41668
G1 X97.94 Y79.264 E36.49555
M73 P6
G1 X98.732 Y79.365 E36.55929
G1 X101.332 Y79.655 E36.76812
G1 X103.849 Y79.863 E36.96972
G1 X106.371 Y79.999 E37.17133
G1 X108.932 Y80.066 E37.37583
G1 X111.466 Y80.059 E37.5781
G1 X113.986 Y79.983 E37.77935
G1 X116.524 Y79.833 E37.9823
G1 X119.056 Y79.612 E38.18518
G1 X120.661 Y79.425 E38.31417
G1 X120.823 Y79.413 E38.32714
G1 X122.153 Y79.255 E38.43405
G1 X123.058 Y79.188 E38.50649
G1 X123.966 Y79.2 E38.57897
G1 X124.868 Y79.292 E38.65135
G1 X125.76 Y79.464 E38.72386
G1 X126.632 Y79.713 E38.79625
G1 X127.48 Y80.038 E38.86875
G1 X128.295 Y80.436 E38.94115
G1 X129.11 Y80.93 E39.01722
G1 X129.947 Y81.496 E39.09788
G1 X130.572 Y81.94 E39.15907
G1 X130.93 Y82.206 E39.19468
G1 X131.771 Y82.86 E39.27972
G1 X132.115 Y83.14 E39.31512
G1 X132.931 Y83.833 E39.40058
G1 X133.266 Y84.13 E39.43632
G1 X134.047 Y84.854 E39.52133
G1 X134.364 Y85.161 E39.55655
G1 X135.073 Y85.877 E39.63699
G1 X135.365 Y86.184 E39.67081
G1 X135.975 Y86.853 E39.74308
G1 X136.323 Y87.255 E39.78552
G1 X137.358 Y88.515 E39.91568
G1 X137.977 Y89.315 E39.99642
G1 X138.241 Y89.677 E40.03219
G1 X138.762 Y90.425 E40.10495
G1 X139.038 Y90.842 E40.14487
G1 X139.879 Y92.184 E40.27129
G1 X140.324 Y92.942 E40.34145
G1 X140.584 Y93.419 E40.38482
G1 X141.302 Y94.825 E40.51084
G1 X141.678 Y95.616 E40.58075
G1 X141.879 Y96.075 E40.62075
G1 X142.489 Y97.569 E40.74957
M117 Time Left 0h32m24s
G1 X142.845 Y98.52 E40.83062
G1 X142.992 Y98.948 E40.86675
G1 X143.265 Y99.805 E40.93854
G1 X143.412 Y100.31 E40.98053
G1 X143.824 Y101.876 E41.10979
G1 X144.043 Y102.811 E41.18644
G1 X144.135 Y103.258 E41.22287
G1 X144.298 Y104.154 E41.29557
G1 X144.379 Y104.678 E41.33789
G1 X144.587 Y106.288 E41.46748
G1 X144.686 Y107.283 E41.5473
G1 X144.718 Y107.721 E41.58235
G1 X144.771 Y108.771 E41.66627
G1 X144.784 Y109.211 E41.70141
G1 X144.792 Y110.259 E41.78507
G1 X144.785 Y110.704 E41.8206
G1 X144.747 Y111.772 E41.9059
G1 X144.722 Y112.213 E41.94116
G1 X144.652 Y113.104 E42.0125
G1 X144.599 Y113.619 E42.05383
G1 X144.392 Y115.218 E42.18254
G1 X144.223 Y116.273 E42.26782
G1 X144.143 Y116.699 E42.30242
G1 X143.967 Y117.536 E42.3707
G1 X143.845 Y118.049 E42.41279
G1 X143.433 Y119.608 E42.54151
G1 X143.161 Y120.533 E42.61847
M73 P7
G1 X143.022 Y120.96 E42.65432
G1 X142.714 Y121.842 E42.72889
