;FLAVOR:Marlin
M73 P0


; Pre-Processed for Cancel-Object support by preprocess_cancellation v0.2.0
; 1 known objects
EXCLUDE_OBJECT_DEFINE NAME=avocadoGerminator_stl CENTER=110.016,115.557 POLYGON=[[45.319,47.859],[45.319,172.136],[174.682,172.136],[174.682,47.859]]
M117 Time Left 1h17m27s
;TIME:4647
;Filament used: 5.17649m
;Layer height: 0.3
;MINX:43.519
;MINY:46.059
;MINZ:0.42
;MAXX:176.482
;MAXY:173.936
;MAXZ:42.32
;TARGET_MACHINE.NAME:Creality Ender-3
;POSTPROCESSED
;  [InsertAtLayerChange]
;  [MeshPrintSize]
;  [DisplayProgressOnLCD]
;  [DisplayFilenameAndLayerOnLCD]
;Generated with Cura_SteamEngine 5.6.0
M82 ;absolute extrusion mode
;Nozzle diameter = 0.6
;Filament type = PLA
;Filament name = Purple/Pink
START_PRINT PRINT_MIN=43.519,46.059 PRINT_MAX=176.482,173.936 BED_TEMP=65 EXTRUDER_TEMP=200.0
G92 E0
G92 E0
G1 F2700 E-5
;LAYER_COUNT:140
TIMELAPSE_TAKE_FRAME
;LAYER:0
M117 Printing avocadoGerminator - Layer 0 of 139
M107
G1 F300 Z0.62
G0 F6000 X50.756 Y85.812 Z0.62
;TYPE:SKIRT
G1 F300 Z0.42
G1 F2700 E0
G1 F600 X51.585 Y85.388 E0.14633
G1 X51.885 Y85.249 E0.19829
G1 X53.211 Y84.727 E0.42225
G1 X55.585 Y83.947 E0.81495
G1 X57.899 Y83.118 E1.20124
G1 X60.198 Y82.22 E1.58912
G1 X62.525 Y81.234 E1.98629
G1 X64.749 Y80.216 E2.37068
G1 X67.017 Y79.1 E2.76792
G1 X69.178 Y77.959 E3.15196
G1 X71.382 Y76.714 E3.54977
G1 X73.481 Y75.451 E3.93475
G1 X75.591 Y74.096 E4.32883
G1 X77.607 Y72.719 E4.7125
G1 X79.624 Y71.258 E5.1039
G1 X81.611 Y69.729 E5.49792
G1 X83.539 Y68.159 E5.88866
G1 X85.392 Y66.56 E6.2733
G1 X87.203 Y64.904 E6.65896
G1 X89.032 Y63.134 E7.05895
G1 X90.738 Y61.39 E7.44235
G1 X92.438 Y59.551 E7.83592
G1 X94.062 Y57.688 E8.22433
G1 X95.656 Y55.752 E8.61843
G1 X97.189 Y53.781 E9.01084
G1 X98.643 Y51.8 E9.39702
G1 X99.471 Y50.788 E9.60251
G1 X99.736 Y50.501 E9.6639
G1 X100.434 Y49.806 E9.8187
G1 X101.127 Y49.213 E9.96204
G1 X101.475 Y48.941 E10.03145
G1 X102.28 Y48.367 E10.18683
G1 X103.163 Y47.839 E10.34851
G1 X103.485 Y47.666 E10.40596
G1 X104.48 Y47.19 E10.5793
G1 X105.304 Y46.873 E10.71804
G1 X105.602 Y46.771 E10.76754
G1 X106.696 Y46.455 E10.9465
G1 X107.536 Y46.281 E11.08131
G1 X107.851 Y46.228 E11.13151
G1 X108.909 Y46.1 E11.29899
G1 X109.923 Y46.059 E11.45847
G1 X110.329 Y46.062 E11.52228
G1 X111.316 Y46.111 E11.67758
G1 X112.257 Y46.233 E11.8267
G1 X112.723 Y46.315 E11.90106
G1 X113.683 Y46.53 E12.05567
G1 X114.556 Y46.797 E12.19914
G1 X114.923 Y46.927 E12.26032
G1 X115.9 Y47.322 E12.42594
G1 X116.64 Y47.688 E12.55568
G1 X116.983 Y47.874 E12.617
G1 X117.768 Y48.343 E12.7607
G1 X118.574 Y48.915 E12.91603
G1 X118.912 Y49.179 E12.98343
G1 X119.713 Y49.865 E13.14916
G1 X120.305 Y50.456 E13.28062
G1 X120.596 Y50.771 E13.34802
G1 X121.385 Y51.725 E13.54257
G1 X123.028 Y53.967 E13.97939
G1 X124.543 Y55.918 E14.36759
G1 X126.121 Y57.834 E14.75767
G1 X127.753 Y59.706 E15.14796
G1 X129.431 Y61.526 E15.537
G1 X131.173 Y63.311 E15.92896
G1 X132.97 Y65.049 E16.32185
G1 X134.785 Y66.71 E16.70849
G1 X136.646 Y68.316 E17.0948
G1 X138.63 Y69.933 E17.49704
G1 X140.556 Y71.415 E17.87895
G1 X142.562 Y72.871 E18.26849
G1 X144.615 Y74.273 E18.65918
G1 X146.697 Y75.609 E19.04795
G1 X148.882 Y76.926 E19.44888
G1 X150.953 Y78.098 E19.82285
G1 X153.218 Y79.295 E20.22545
G1 X155.404 Y80.37 E20.60829
G1 X157.683 Y81.415 E21.0023
G1 X159.95 Y82.376 E21.38925
G1 X162.293 Y83.292 E21.78461
G1 X164.603 Y84.121 E22.1703
G1 X166.888 Y84.877 E22.54854
G1 X168.009 Y85.318 E22.73785
G1 X168.383 Y85.489 E22.80248
G1 X169.361 Y85.995 E22.97553
G1 X170.089 Y86.447 E23.1102
G1 X170.452 Y86.694 E23.1792
G1 X171.243 Y87.286 E23.33447
G1 X171.99 Y87.943 E23.49081
G1 X172.281 Y88.223 E23.55427
G1 X172.913 Y88.884 E23.69799
G1 X173.545 Y89.655 E23.85466
G1 X173.779 Y89.969 E23.9162
G1 X174.336 Y90.786 E24.0716
G1 X174.802 Y91.601 E24.21914
G1 X174.983 Y91.949 E24.28078
G1 X175.37 Y92.778 E24.42456
G1 X175.728 Y93.736 E24.58528
G1 X175.865 Y94.16 E24.65531
G1 X176.124 Y95.11 E24.81005
G1 X176.295 Y95.999 E24.95232
G1 X176.357 Y96.422 E25.01951
G1 X176.463 Y97.477 E25.18614
G1 X176.482 Y98.353 E25.32384
G1 X176.477 Y98.674 E25.3743
G1 X176.405 Y99.81 E25.55318
G1 X176.288 Y100.631 E25.68351
G1 X176.229 Y100.961 E25.73619
G1 X176.022 Y101.891 E25.88592
G1 X175.702 Y102.924 E26.05587
G1 X175.551 Y103.339 E26.12527
G1 X175.138 Y104.329 E26.29385
G1 X174.694 Y105.184 E26.44526
G1 X174.494 Y105.532 E26.50833
G1 X173.833 Y106.552 E26.69935
G1 X172.25 Y108.751 E27.12516
G1 X170.887 Y110.762 E27.50695
G1 X169.523 Y112.903 E27.90589
G1 X168.229 Y115.068 E28.30227
G1 X167.013 Y117.237 E28.69305
G1 X165.898 Y119.366 E29.07074
G1 X164.807 Y121.602 E29.46174
G1 X163.757 Y123.917 E29.86122
G1 X162.785 Y126.232 E30.2558
G1 X161.888 Y128.551 E30.64656
G1 X161.083 Y130.825 E31.02566
G1 X160.324 Y133.176 E31.4139
M117 Time Left 1h17m12s
G1 X159.61 Y135.618 E31.81374
G1 X158.99 Y137.991 E32.19919
G1 X158.425 Y140.43 E32.59263
G1 X157.938 Y142.841 E32.97919
G1 X157.511 Y145.31 E33.37296
G1 X157.163 Y147.733 E33.75765
G1 X156.881 Y150.187 E34.14584
G1 X156.664 Y152.682 E34.53942
G1 X156.522 Y155.144 E34.92698
G1 X156.447 Y157.654 E35.32161
G1 X156.439 Y159.852 E35.66704
G1 X156.359 Y161.205 E35.88004
G1 X156.311 Y161.613 E35.9446
G1 X156.154 Y162.586 E36.09949
G1 X155.942 Y163.463 E36.24129
G1 X155.848 Y163.794 E36.29536
G1 X155.524 Y164.773 E36.45742
G1 X155.134 Y165.692 E36.61431
G1 X154.993 Y165.989 E36.66598
G1 X154.453 Y167 E36.84611
G1 X153.969 Y167.751 E36.98652
G1 X153.737 Y168.08 E37.04978
G1 X153.062 Y168.948 E37.22258
G1 X152.476 Y169.589 E37.35907
G1 X152.197 Y169.87 E37.4213
G1 X151.473 Y170.541 E37.57643
G1 X150.689 Y171.159 E37.73332
G1 X150.366 Y171.391 E37.79582
G1 X149.537 Y171.932 E37.95138
G1 X148.646 Y172.417 E38.11081
G1 X148.283 Y172.593 E38.17421
G1 X147.445 Y172.959 E38.31792
G1 X146.45 Y173.303 E38.48337
G1 X146.092 Y173.408 E38.542
G1 X145.094 Y173.654 E38.70353
G1 X144.141 Y173.811 E38.85532
G1 X143.776 Y173.855 E38.91309
G1 X142.676 Y173.936 E39.08643
G1 X141.786 Y173.93 E39.2263
G1 X141.411 Y173.913 E39.28529
G1 X140.432 Y173.824 E39.43978
G1 X139.538 Y173.674 E39.58224
G1 X139.187 Y173.6 E39.63862
G1 X137.98 Y173.28 E39.83485
G1 X135.474 Y172.475 E40.2485
G1 X133.132 Y171.795 E40.63176
G1 X130.741 Y171.173 E41.02002
G1 X128.237 Y170.597 E41.42381
G1 X125.907 Y170.13 E41.79726
G1 X123.417 Y169.704 E42.19426
G1 X120.948 Y169.353 E42.58618
G1 X118.533 Y169.077 E42.96818
G1 X116.02 Y168.864 E43.36452
G1 X113.555 Y168.725 E43.75252
G1 X111.033 Y168.653 E44.14902
G1 X108.617 Y168.653 E44.52871
G1 X106.096 Y168.725 E44.92506
G1 X103.605 Y168.866 E45.31715
G1 X101.129 Y169.076 E45.70766
G1 X98.727 Y169.349 E46.08758
G1 X96.219 Y169.707 E46.48572
G1 X93.743 Y170.131 E46.88049
G1 X91.364 Y170.608 E47.2618
G1 X88.981 Y171.155 E47.64604
G1 X86.494 Y171.803 E48.04993
G1 X84.145 Y172.486 E48.43438
G1 X81.787 Y173.237 E48.82329
G1 X80.591 Y173.545 E49.01738
G1 X80.126 Y173.637 E49.09187
G1 X79.079 Y173.792 E49.2582
G1 X78.213 Y173.853 E49.39464
G1 X77.904 Y173.863 E49.44322
G1 X76.768 Y173.844 E49.62177
G1 X75.957 Y173.769 E49.74977
G1 X75.565 Y173.717 E49.81191
G1 X74.517 Y173.531 E49.97919
G1 X73.669 Y173.309 E50.11694
G1 X73.217 Y173.169 E50.19131
G1 X72.289 Y172.836 E50.34625
G1 X71.474 Y172.471 E50.48659
G1 X71.094 Y172.282 E50.55329
G1 X70.227 Y171.8 E50.70918
G1 X69.344 Y171.208 E50.87625
G1 X68.948 Y170.913 E50.95385
G1 X68.184 Y170.288 E51.10897
G1 X67.497 Y169.63 E51.25847
G1 X67.252 Y169.374 E51.31416
G1 X66.562 Y168.584 E51.479
G1 X66.113 Y167.989 E51.59614
G1 X65.879 Y167.656 E51.6601
G1 X65.385 Y166.886 E51.80387
G1 X64.847 Y165.872 E51.98427
G1 X64.714 Y165.589 E52.03341
G1 X64.307 Y164.608 E52.20032
G1 X64.034 Y163.782 E52.33703
G1 X63.934 Y163.434 E52.39394
G1 X63.678 Y162.355 E52.56821
G1 X63.535 Y161.405 E52.71919
G1 X63.491 Y160.986 E52.7854
G1 X63.428 Y159.877 E52.95997
G1 X63.417 Y157.251 E53.37266
G1 X63.339 Y154.732 E53.76872
G1 X63.192 Y152.266 E54.15695
G1 X62.974 Y149.773 E54.55023
G1 X62.69 Y147.334 E54.93612
G1 X62.333 Y144.875 E55.32661
G1 X61.903 Y142.408 E55.72016
G1 X61.413 Y139.994 E56.10726
G1 X60.843 Y137.553 E56.5012
G1 X60.223 Y135.204 E56.88299
G1 X59.51 Y132.776 E57.28067
G1 X58.755 Y130.449 E57.66514
G1 X57.905 Y128.063 E58.06319
G1 X57.027 Y125.798 E58.44495
G1 X56.069 Y123.525 E58.8326
G1 X55.01 Y121.198 E59.23438
G1 X53.954 Y119.043 E59.61153
G1 X52.769 Y116.787 E60.012
G1 X51.563 Y114.641 E60.39886
G1 X50.267 Y112.482 E60.79459
G1 X48.945 Y110.412 E61.18058
G1 X47.565 Y108.382 E61.56634
G1 X46.148 Y106.413 E61.94758
G1 X45.391 Y105.22 E62.16962
G1 X45.216 Y104.905 E62.22625
G1 X44.729 Y103.919 E62.39907
G1 X44.407 Y103.115 E62.53518
G1 X44.273 Y102.741 E62.59762
G1 X43.984 Y101.801 E62.75217
G1 X43.786 Y100.926 E62.89315
G1 X43.73 Y100.626 E62.94111
G1 X43.574 Y99.49 E63.12132
G1 X43.526 Y98.633 E63.25621
G1 X43.519 Y98.139 E63.33385
M117 Time Left 1h16m57s
G1 X43.556 Y97.085 E63.49959
G1 X43.641 Y96.309 E63.62227
G1 X43.708 Y95.86 E63.69362
G1 X43.899 Y94.891 E63.84883
G1 X44.154 Y93.979 E63.99765
G1 X44.291 Y93.561 E64.06678
G1 X44.64 Y92.64 E64.22156
G1 X45.048 Y91.772 E64.37229
G1 X45.207 Y91.469 E64.42606
G1 X45.759 Y90.523 E64.59819
G1 X46.226 Y89.848 E64.72718
G1 X46.445 Y89.555 E64.78467
G1 X47.149 Y88.699 E64.95885
G1 X47.815 Y88.014 E65.10899
G1 X48.109 Y87.738 E65.17236
G1 X48.908 Y87.051 E65.33796
G1 X49.533 Y86.59 E65.46001
G1 X49.849 Y86.374 E65.52017
G1 X50.756 Y85.812 E65.68785
G0 F6000 X51.167 Y86.613
G1 F600 X51.963 Y86.205 E65.82842
G1 X52.263 Y86.066 E65.88038
G1 X53.492 Y85.582 E66.08796
G1 X55.866 Y84.802 E66.48067
G1 X58.226 Y83.957 E66.87461
G1 X60.549 Y83.049 E67.26657
G1 X62.876 Y82.063 E67.66375
G1 X65.146 Y81.024 E68.05608
G1 X67.414 Y79.908 E68.45332
G1 X69.621 Y78.743 E68.84551
G1 X71.825 Y77.498 E69.24332
G1 X73.945 Y76.222 E69.63218
G1 X76.077 Y74.853 E70.03036
G1 X78.135 Y73.448 E70.42197
G1 X80.152 Y71.987 E70.81337
G1 X82.171 Y70.434 E71.21367
G1 X84.107 Y68.857 E71.60608
G1 X85.98 Y67.241 E71.99485
G1 X87.829 Y65.551 E72.38852
G1 X89.658 Y63.781 E72.78851
G1 X91.399 Y62.001 E73.1798
G1 X93.099 Y60.162 E73.57338
G1 X94.757 Y58.26 E73.96991
G1 X96.351 Y56.324 E74.36401
G1 X97.899 Y54.334 E74.76023
G1 X99.368 Y52.333 E75.15034
G1 X100.134 Y51.397 E75.34041
G1 X100.373 Y51.137 E75.39591
G1 X101.019 Y50.49 E75.5396
G1 X101.712 Y49.897 E75.68294
G1 X102 Y49.672 E75.74037
G1 X102.743 Y49.139 E75.88407
G1 X103.589 Y48.632 E76.03907
G1 X103.911 Y48.459 E76.09652
G1 X104.803 Y48.03 E76.25207
G1 X105.595 Y47.725 E76.38545
G1 X105.893 Y47.623 E76.43495
G1 X106.879 Y47.336 E76.59633
G1 X107.685 Y47.169 E76.72569
G1 X108 Y47.116 E76.77589
G1 X108.946 Y46.999 E76.92569
G1 X109.918 Y46.959 E77.07857
G1 X110.287 Y46.961 E77.13656
G1 X111.2 Y47.004 E77.2802
G1 X112.141 Y47.126 E77.42932
G1 X112.529 Y47.194 E77.49123
G1 X113.421 Y47.391 E77.63479
G1 X114.258 Y47.646 E77.77229
G1 X114.588 Y47.762 E77.82726
G1 X115.502 Y48.129 E77.98205
G1 X116.211 Y48.479 E78.10631
G1 X116.521 Y48.647 E78.16172
G1 X117.306 Y49.116 E78.30543
G1 X118.021 Y49.625 E78.44336
G1 X118.328 Y49.864 E78.5045
G1 X119.078 Y50.503 E78.65934
G1 X119.645 Y51.068 E78.78514
G1 X119.902 Y51.345 E78.84452
G1 X120.691 Y52.299 E79.03908
G1 X122.317 Y54.519 E79.47153
G1 X123.848 Y56.49 E79.86375
G1 X125.426 Y58.406 E80.25383
G1 X127.091 Y60.316 E80.65203
G1 X128.787 Y62.155 E81.04518
G1 X130.547 Y63.958 E81.44115
G1 X132.344 Y65.696 E81.83403
G1 X134.197 Y67.391 E82.22869
G1 X136.077 Y69.014 E82.61901
G1 X138.061 Y70.631 E83.02124
G1 X140.027 Y72.143 E83.41101
G1 X142.054 Y73.614 E83.8046
G1 X144.107 Y75.016 E84.1953
G1 X146.232 Y76.38 E84.59213
G1 X148.417 Y77.697 E84.99306
G1 X150.533 Y78.894 E85.37512
G1 X152.803 Y80.093 E85.77856
G1 X155.019 Y81.184 E86.16674
G1 X157.332 Y82.244 E86.56659
G1 X159.599 Y83.205 E86.95354
G1 X161.977 Y84.135 E87.35482
G1 X164.321 Y84.976 E87.74618
G1 X166.559 Y85.715 E88.11657
G1 X167.635 Y86.137 E88.29821
G1 X168.009 Y86.308 E88.36284
G1 X168.887 Y86.76 E88.51803
G1 X169.584 Y87.192 E88.6469
G1 X169.913 Y87.415 E88.70936
G1 X170.704 Y88.007 E88.86463
G1 X171.367 Y88.593 E89.00369
G1 X171.63 Y88.845 E89.06093
G1 X172.262 Y89.506 E89.20465
G1 X172.824 Y90.194 E89.34426
G1 X173.035 Y90.476 E89.39961
G1 X173.592 Y91.293 E89.555
G1 X174.004 Y92.017 E89.68591
G1 X174.167 Y92.33 E89.74137
G1 X174.554 Y93.159 E89.88515
G1 X174.884 Y94.049 E90.03432
G1 X174.997 Y94.399 E90.09212
G1 X175.24 Y95.28 E90.23575
G1 X175.411 Y96.169 E90.37802
G1 X175.462 Y96.514 E90.43283
G1 X175.563 Y97.497 E90.58812
G1 X175.582 Y98.339 E90.72048
G1 X175.577 Y98.66 E90.77093
G1 X175.514 Y99.684 E90.93216
G1 X175.402 Y100.473 E91.0574
G1 X175.35 Y100.765 E91.10401
G1 X175.143 Y101.695 E91.25374
G1 X174.856 Y102.617 E91.40549
G1 X174.719 Y102.995 E91.46868
G1 X174.339 Y103.914 E91.62496
G1 X173.895 Y104.769 E91.77637
G1 X173.714 Y105.083 E91.83333
M117 Time Left 1h16m42s
G1 X173.103 Y106.026 E92.00991
G1 X171.505 Y108.246 E92.43978
G1 X170.128 Y110.278 E92.82553
G1 X168.75 Y112.441 E93.22858
G1 X167.456 Y114.606 E93.62496
G1 X166.228 Y116.797 E94.01968
G1 X165.089 Y118.971 E94.40538
G1 X163.987 Y121.23 E94.80038
G1 X162.937 Y123.545 E95.19986
G1 X161.955 Y125.883 E95.59838
G1 X161.049 Y128.226 E95.99317
G1 X160.235 Y130.524 E96.37629
G1 X159.46 Y132.923 E96.77249
G1 X158.746 Y135.365 E97.17233
G1 X158.119 Y137.763 E97.56185
G1 X157.548 Y140.227 E97.95934
G1 X157.051 Y142.688 E98.35391
G1 X156.624 Y145.157 E98.74768
G1 X156.272 Y147.605 E99.13635
G1 X155.984 Y150.109 E99.53246
G1 X155.765 Y152.63 E99.93014
G1 X155.623 Y155.092 E100.31769
G1 X155.547 Y157.627 E100.71626
G1 X155.539 Y159.849 E101.06546
G1 X155.465 Y161.101 E101.26256
G1 X155.422 Y161.472 E101.32125
G1 X155.279 Y162.375 E101.46493
G1 X155.076 Y163.217 E101.60105
G1 X154.982 Y163.548 E101.65512
G1 X154.67 Y164.49 E101.81107
G1 X154.321 Y165.306 E101.95054
G1 X154.18 Y165.603 E102.00221
G1 X153.696 Y166.512 E102.16405
G1 X153.212 Y167.263 E102.30446
G1 X153.002 Y167.56 E102.36163
G1 X152.397 Y168.341 E102.51688
G1 X151.836 Y168.956 E102.6477
G1 X151.583 Y169.212 E102.70427
G1 X150.915 Y169.835 E102.84781
G1 X150.163 Y170.429 E102.99842
G1 X149.874 Y170.637 E103.05437
G1 X149.045 Y171.178 E103.20994
G1 X148.251 Y171.608 E103.35185
G1 X147.923 Y171.768 E103.4092
G1 X147.085 Y172.134 E103.55291
G1 X146.194 Y172.44 E103.70096
G1 X145.877 Y172.534 E103.75292
G1 X144.879 Y172.78 E103.91445
G1 X144.033 Y172.917 E104.04914
G1 X143.668 Y172.961 E104.10691
G1 X142.681 Y173.036 E104.26247
G1 X141.826 Y173.031 E104.39684
G1 X141.49 Y173.016 E104.4497
G1 X140.58 Y172.936 E104.59326
G1 X139.724 Y172.793 E104.72965
G1 X139.373 Y172.719 E104.78602
G1 X138.255 Y172.423 E104.96777
M73 P1
G1 X135.749 Y171.618 E105.38142
G1 X133.359 Y170.924 E105.77254
G1 X130.96 Y170.3 E106.16209
G1 X128.439 Y169.72 E106.56863
G1 X126.059 Y169.243 E106.95009
G1 X123.554 Y168.814 E107.3495
G1 X121.07 Y168.461 E107.74379
G1 X118.609 Y168.18 E108.13306
G1 X116.075 Y167.965 E108.53272
G1 X113.596 Y167.825 E108.92292
G1 X111.059 Y167.753 E109.32178
G1 X108.591 Y167.753 E109.70964
G1 X106.055 Y167.825 E110.10834
G1 X103.55 Y167.967 E110.50265
G1 X101.053 Y168.179 E110.89647
G1 X98.606 Y168.457 E111.2835
G1 X96.082 Y168.817 E111.68417
G1 X93.591 Y169.244 E112.08136
G1 X91.17 Y169.729 E112.46938
G1 X88.754 Y170.284 E112.85896
G1 X86.267 Y170.932 E113.26285
G1 X83.882 Y171.625 E113.65316
G1 X81.563 Y172.365 E114.03571
G1 X80.367 Y172.673 E114.2298
G1 X79.992 Y172.747 E114.28987
G1 X79.015 Y172.894 E114.44514
G1 X78.184 Y172.953 E114.57606
G1 X77.875 Y172.963 E114.62465
G1 X76.85 Y172.948 E114.78575
G1 X76.073 Y172.877 E114.90836
G1 X75.72 Y172.831 E114.96431
G1 X74.745 Y172.66 E115.11987
G1 X73.897 Y172.438 E115.25763
G1 X73.518 Y172.321 E115.31996
G1 X72.657 Y172.015 E115.46357
G1 X71.842 Y171.65 E115.6039
G1 X71.529 Y171.494 E115.65887
G1 X70.728 Y171.052 E115.80264
G1 X69.845 Y170.46 E115.96971
G1 X69.518 Y170.216 E116.03383
G1 X68.754 Y169.591 E116.18895
G1 X68.146 Y169.007 E116.32144
G1 X67.928 Y168.78 E116.3709
G1 X67.28 Y168.042 E116.52524
G1 X66.849 Y167.471 E116.63767
