;FLAVOR:Marlin
M73 P0


; Pre-Processed for Cancel-Object support by preprocess_cancellation v0.2.0
; 1 known objects
EXCLUDE_OBJECT_DEFINE NAME=Bigtreetech_Relay_v1_2___Case_and_Mount___Base_stl CENTER=107.296,110.225 POLYGON=[[52.8,79.55],[52.8,140.45],[167.2,140.45],[167.2,79.55]]
M117 Time Left 0h59m00s
;TIME:3540
;Filament used: 3.58624m
;Layer height: 0.2
;MINX:51
;MINY:77.75
;MINZ:0.32
;MAXX:169
;MAXY:142.25
;MAXZ:8.72
;TARGET_MACHINE.NAME:Creality Ender-3
;POSTPROCESSED
;  [InsertAtLayerChange]
;  [MeshPrintSize]
;  [DisplayProgressOnLCD]
;  [DisplayFilenameAndLayerOnLCD]
;Generated with Cura_SteamEngine 5.6.0
M82 ;absolute extrusion mode
;Nozzle diameter = 0.6
;Filament type = PLA
;Filament name = Purple/Pink
START_PRINT PRINT_MIN=51,77.75 PRINT_MAX=169,142.25 BED_TEMP=65 EXTRUDER_TEMP=210.0
G92 E0
G92 E0
G1 F2700 E-5
;LAYER_COUNT:42
TIMELAPSE_TAKE_FRAME
;LAYER:0
M117 Printing Bigtreetech_Relay_v1.2_-_Case_and_Mount_-_Base - Layer 0 of 41
M107
G1 F300 Z0.52
G0 F6000 X56.33 Y79.907 Z0.52
;TYPE:SKIRT
G1 F300 Z0.32
G1 F2700 E0
G1 F600 X57.38 Y79.264 E0.14742
G1 X58.341 Y78.791 E0.27567
G1 X59.342 Y78.403 E0.40422
G1 X60.374 Y78.105 E0.53284
G1 X61.458 Y77.896 E0.66502
G1 X62.928 Y77.763 E0.84175
G1 X63.542 Y77.75 E0.91529
G1 X156.067 Y77.75 E11.9939
G1 X156.915 Y77.761 E12.09545
G1 X158.067 Y77.834 E12.23366
G1 X159.124 Y77.995 E12.36168
G1 X160.013 Y78.206 E12.47109
G1 X161.182 Y78.595 E12.61861
G1 X162.092 Y78.992 E12.73748
G1 X163.1 Y79.541 E12.87492
G1 X163.863 Y80.045 E12.98441
G1 X164.825 Y80.809 E13.1315
G1 X165.599 Y81.549 E13.25972
M117 Time Left 0h58m45s
G1 X166.255 Y82.295 E13.37867
G1 X166.892 Y83.156 E13.50691
G1 X167.413 Y83.999 E13.62557
G1 X167.962 Y85.102 E13.77309
G1 X168.348 Y86.098 E13.90099
G1 X168.608 Y86.974 E14.0104
G1 X168.855 Y88.217 E14.16214
G1 X168.987 Y89.679 E14.33791
G1 X169 Y90.33 E14.41587
G1 X168.999 Y129.416 E19.0959
G1 X168.989 Y130.182 E19.18762
G1 X168.921 Y131.291 E19.32066
G1 X168.79 Y132.196 E19.43015
G1 X168.509 Y133.394 E19.57749
G1 X168.222 Y134.262 E19.68695
G1 X167.772 Y135.315 E19.82406
G1 X167.263 Y136.26 E19.95259
G1 X166.628 Y137.221 E20.0905
G1 X166.009 Y138 E20.20964
G1 X165.216 Y138.835 E20.34752
G1 X164.415 Y139.538 E20.47513
G1 X163.616 Y140.129 E20.59413
G1 X162.704 Y140.69 E20.72233
G1 X161.672 Y141.204 E20.86038
G1 X160.675 Y141.592 E20.98848
G1 X159.799 Y141.853 E21.09792
M117 Time Left 0h58m30s
G1 X158.655 Y142.088 E21.23776
G1 X157.071 Y142.237 E21.42826
G1 X156.42 Y142.25 E21.50623
G1 X63.798 Y142.249 E32.59646
G1 X63.061 Y142.239 E32.68471
G1 X61.951 Y142.169 E32.81788
G1 X60.891 Y142.008 E32.94626
G1 X59.851 Y141.757 E33.07436
M73 P1
G1 X58.983 Y141.47 E33.18383
G1 X57.927 Y141.018 E33.32137
G1 X56.914 Y140.468 E33.45938
G1 X56.086 Y139.92 E33.57827
G1 X55.245 Y139.254 E33.70672
G1 X54.524 Y138.576 E33.82523
G1 X53.706 Y137.657 E33.97254
G1 X53.116 Y136.858 E34.09147
G1 X52.517 Y135.876 E34.22919
G1 X52.044 Y134.915 E34.35744
G1 X51.657 Y133.92 E34.48528
G1 X51.396 Y133.043 E34.59484
G1 X51.161 Y131.899 E34.73468
G1 X51.013 Y130.31 E34.92576
G1 X51 Y129.658 E35.00384
G1 X51.001 Y90.508 E39.69153
G1 X51.011 Y89.804 E39.77583
G1 X51.081 Y88.692 E39.90924
M117 Time Left 0h58m15s
G1 X51.243 Y87.631 E40.03775
G1 X51.495 Y86.595 E40.16542
G1 X51.782 Y85.727 E40.27488
G1 X52.27 Y84.6 E40.42193
G1 X52.744 Y83.727 E40.54088
G1 X53.381 Y82.767 E40.67883
G1 X54.052 Y81.93 E40.80728
G1 X54.793 Y81.157 E40.93549
G1 X55.596 Y80.452 E41.06344
G1 X56.33 Y79.907 E41.1729
G0 F6000 X56.867 Y80.63
G1 F600 X57.78 Y80.07 E41.30115
G1 X58.669 Y79.629 E41.41997
G1 X59.595 Y79.267 E41.53902
G1 X60.548 Y78.988 E41.65791
G1 X61.54 Y78.792 E41.77899
G1 X62.947 Y78.663 E41.94816
G1 X63.561 Y78.65 E42.0217
G1 X156.055 Y78.65 E53.09661
G1 X156.903 Y78.661 E53.19815
G1 X157.934 Y78.724 E53.32183
G1 X158.916 Y78.871 E53.44072
G1 X159.805 Y79.082 E53.55012
G1 X160.822 Y79.42 E53.67844
G1 X161.732 Y79.817 E53.79732
G1 X162.604 Y80.292 E53.91622
M117 Time Left 0h58m00s
G1 X163.367 Y80.796 E54.02571
G1 X164.205 Y81.461 E54.1538
G1 X164.925 Y82.146 E54.2728
G1 X165.531 Y82.83 E54.38222
G1 X166.168 Y83.691 E54.51046
G1 X166.646 Y84.47 E54.61989
G1 X167.124 Y85.429 E54.74819
G1 X167.485 Y86.354 E54.86708
G1 X167.745 Y87.23 E54.9765
G1 X167.959 Y88.299 E55.10703
G1 X168.087 Y89.697 E55.27512
G1 X168.1 Y90.33 E55.35093
G1 X168.099 Y129.404 E60.02952
G1 X168.089 Y130.17 E60.12124
G1 X168.03 Y131.162 E60.24023
G1 X167.899 Y132.067 E60.34972
M73 P2
G1 X167.654 Y133.111 E60.47812
G1 X167.367 Y133.979 E60.58759
G1 X166.978 Y134.891 E60.70631
G1 X166.511 Y135.766 E60.82506
G1 X165.923 Y136.661 E60.95329
G1 X165.304 Y137.44 E61.07242
G1 X164.62 Y138.16 E61.19133
G1 X163.877 Y138.816 E61.31001
G1 X163.144 Y139.362 E61.41945
M117 Time Left 0h57m45s
G1 X162.232 Y139.923 E61.54766
G1 X161.343 Y140.366 E61.66659
G1 X160.418 Y140.729 E61.78557
G1 X159.542 Y140.99 E61.89501
G1 X158.569 Y141.192 E62.014
G1 X157.053 Y141.337 E62.19635
G1 X156.42 Y141.35 E62.27216
G1 X63.81 Y141.349 E73.36095
G1 X63.073 Y141.339 E73.44921
G1 X62.083 Y141.279 E73.56796
G1 X61.1 Y141.133 E73.68696
G1 X60.134 Y140.902 E73.80588
G1 X59.266 Y140.615 E73.91535
G1 X58.354 Y140.226 E74.03407
G1 X57.411 Y139.717 E74.16238
G1 X56.583 Y139.169 E74.28126
G1 X55.806 Y138.55 E74.40021
G1 X55.142 Y137.922 E74.50965
G1 X54.43 Y137.122 E74.63788
G1 X53.84 Y136.323 E74.7568
G1 X53.323 Y135.476 E74.87562
G1 X52.882 Y134.587 E74.99444
G1 X52.52 Y133.663 E75.11327
G1 X52.259 Y132.786 E75.22283
G1 X52.057 Y131.814 E75.3417
G1 X51.913 Y130.292 E75.52475
M117 Time Left 0h57m30s
G1 X51.9 Y129.658 E75.60068
G1 X51.901 Y90.521 E80.28681
G1 X51.911 Y89.817 E80.37111
G1 X51.971 Y88.825 E80.49011
G1 X52.118 Y87.842 E80.60912
G1 X52.35 Y86.878 E80.72784
G1 X52.637 Y86.01 E80.8373
G1 X53.062 Y85.027 E80.96553
G1 X53.496 Y84.222 E81.07504
G1 X54.085 Y83.328 E81.20322
G1 X54.704 Y82.551 E81.32217
G1 X55.389 Y81.832 E81.44108
G1 X56.133 Y81.175 E81.55993
G1 X56.867 Y80.63 E81.66939
G0 F6000 X57.404 Y81.353
G1 F600 X58.183 Y80.875 E81.77883
G1 X59 Y80.466 E81.88822
G1 X59.851 Y80.13 E81.99777
G1 X60.727 Y79.87 E82.10719
G1 X61.623 Y79.688 E82.21666
G1 X62.966 Y79.563 E82.37816
G1 X63.58 Y79.55 E82.4517
G1 X156.043 Y79.55 E93.52289
G1 X156.891 Y79.561 E93.62444
M73 P3
G1 X157.803 Y79.614 E93.73382
G1 X158.708 Y79.747 E93.84335
M117 Time Left 0h57m15s
G1 X159.597 Y79.958 E93.95275
G1 X160.465 Y80.246 E94.06225
G1 X161.304 Y80.609 E94.17171
G1 X162.108 Y81.043 E94.28111
G1 X162.871 Y81.547 E94.3906
G1 X163.587 Y82.115 E94.50003
G1 X164.251 Y82.743 E94.60946
G1 X164.857 Y83.427 E94.71888
G1 X165.401 Y84.162 E94.82837
G1 X165.879 Y84.941 E94.9378
G1 X166.287 Y85.759 E95.04726
G1 X166.622 Y86.61 E95.15676
G1 X166.882 Y87.486 E95.26617
G1 X167.063 Y88.382 E95.37563
G1 X167.187 Y89.716 E95.53604
G1 X167.2 Y90.33 E95.60958
G1 X167.199 Y129.393 E100.28684
G1 X167.19 Y130.12 E100.3739
G1 X167.139 Y131.033 E100.48339
G1 X167.008 Y131.938 E100.59288
G1 X166.799 Y132.828 E100.70234
G1 X166.512 Y133.696 E100.81181
G1 X166.151 Y134.535 E100.92117
G1 X165.718 Y135.34 E101.03062
G1 X165.216 Y136.104 E101.14008
G1 X164.65 Y136.822 E101.24955
M117 Time Left 0h57m00s
G1 X164.022 Y137.487 E101.35907
G1 X163.339 Y138.094 E101.46848
G1 X162.606 Y138.64 E101.57792
G1 X161.828 Y139.119 E101.68731
G1 X161.011 Y139.529 E101.79676
G1 X160.161 Y139.866 E101.90625
G1 X159.285 Y140.127 E102.01569
G1 X158.389 Y140.31 E102.12519
G1 X157.034 Y140.437 E102.28815
G1 X156.42 Y140.45 E102.36168
G1 X63.822 Y140.449 E113.44904
G1 X63.124 Y140.44 E113.53262
G1 X62.212 Y140.388 E113.642
G1 X61.307 Y140.257 E113.75149
G1 X60.417 Y140.047 E113.86098
G1 X59.549 Y139.76 E113.97045
G1 X58.71 Y139.399 E114.07981
G1 X57.905 Y138.965 E114.18931
G1 X57.141 Y138.463 E114.29877
G1 X56.424 Y137.896 E114.40822
G1 X55.76 Y137.268 E114.51766
G1 X55.152 Y136.585 E114.62714
G1 X54.607 Y135.852 E114.73651
G1 X54.128 Y135.073 E114.84601
G1 X53.719 Y134.256 E114.95541
G1 X53.383 Y133.406 E115.06485
M117 Time Left 0h56m45s
G1 X53.122 Y132.529 E115.17441
G1 X52.939 Y131.634 E115.28379
G1 X52.813 Y130.273 E115.44745
G1 X52.8 Y129.658 E115.5211
G1 X52.801 Y90.533 E120.20579
M73 P4
G1 X52.81 Y89.868 E120.28542
G1 X52.862 Y88.955 E120.39492
G1 X52.994 Y88.05 E120.50443
G1 X53.205 Y87.161 E120.61383
G1 X53.492 Y86.293 E120.7233
G1 X53.854 Y85.454 E120.83271
G1 X54.288 Y84.649 E120.94221
G1 X54.791 Y83.886 E121.05164
G1 X55.358 Y83.169 E121.16109
G1 X55.986 Y82.505 E121.27052
G1 X56.67 Y81.898 E121.38002
G1 X57.404 Y81.353 E121.48948
G1 F2700 E116.48948
G1 F300 Z0.52
;MESH:Bigtreetech_Relay_v1.2_-_Case_and_Mount_-_Base.stl
EXCLUDE_OBJECT_START NAME=Bigtreetech_Relay_v1_2___Case_and_Mount___Base_stl
G0 F6000 X79.569 Y104.794 Z0.52
;TYPE:WALL-INNER
G1 F300 Z0.32
G1 F2700 E121.48948
G1 F600 X79.327 Y104.913 E121.52177
M117 Time Left 0h56m30s
G1 X78.98 Y104.999 E121.56458
G1 X72.661 Y104.999 E122.32119
G1 X72.317 Y104.888 E122.36447
G1 X72.03 Y104.719 E122.40435
G1 X71.766 Y104.449 E122.44957
G1 X71.575 Y104.081 E122.49921
G1 X71.505 Y103.801 E122.53377
G1 X71.505 Y98.648 E123.15077
G1 X71.581 Y98.199 E123.2053
G1 X71.787 Y97.821 E123.25684
G1 X72.123 Y97.512 E123.3115
G1 X72.345 Y97.397 E123.34144
G1 X72.592 Y97.323 E123.37231
G1 X72.855 Y97.298 E123.40394
G1 X79.021 Y97.298 E124.14224
G1 X79.328 Y97.384 E124.18041
G1 X79.72 Y97.613 E124.23477
G1 X79.988 Y97.917 E124.2833
G1 X80.137 Y98.232 E124.32502
G1 X80.197 Y98.519 E124.36013
G1 X80.201 Y103.802 E124.9927
G1 X80.087 Y104.233 E125.04608
G1 X79.862 Y104.546 E125.09223
G1 X79.569 Y104.794 E125.1382
G1 F2700 E120.1382
G1 F300 Z0.52
M117 Time Left 0h56m15s
G0 F6000 X79.328 Y122.516 Z0.52
G1 F300 Z0.32
G1 F2700 E125.1382
G1 F600 X79.013 Y122.602 E125.17729
G1 X72.855 Y122.602 E125.91463
G1 X72.597 Y122.578 E125.94566
G1 X72.353 Y122.506 E125.97612
G1 X71.948 Y122.253 E126.03329
G1 X71.678 Y121.915 E126.08509
G1 X71.505 Y121.431 E126.14664
G1 X71.505 Y116.081 E126.78723
G1 X71.658 Y115.624 E126.84493
G1 X71.767 Y115.451 E126.86941
M73 P5
G1 X72.03 Y115.181 E126.91455
G1 X72.317 Y115.012 E126.95442
G1 X72.661 Y114.901 E126.99771
G1 X79.071 Y114.901 E127.76522
G1 X79.457 Y115.043 E127.81446
G1 X79.742 Y115.235 E127.85561
G1 X79.945 Y115.457 E127.89163
G1 X80.135 Y115.829 E127.94164
G1 X80.201 Y116.179 E127.98429
G1 X80.196 Y121.381 E128.60716
G1 X80.137 Y121.669 E128.64236
G1 X79.987 Y121.984 E128.68414
G1 X79.72 Y122.287 E128.73249
M117 Time Left 0h56m00s
G1 X79.328 Y122.516 E128.78685
G1 F2700 E123.78685
G1 F300 Z0.52
G0 F6000 X146.377 Y122.516 Z0.52
G1 F300 Z0.32
G1 F2700 E128.78685
G1 F600 X145.985 Y122.287 E128.84121
G1 X145.717 Y121.984 E128.88964
G1 X145.568 Y121.668 E128.93148
G1 X145.509 Y121.381 E128.96656
G1 X145.504 Y116.179 E129.58943
G1 X145.577 Y115.808 E129.6347
G1 X145.68 Y115.581 E129.66455
G1 X145.897 Y115.296 E129.70744
G1 X146.248 Y115.043 E129.75925
G1 X146.634 Y114.901 E129.80849
G1 X152.85 Y114.901 E130.55278
G1 X153.147 Y114.933 E130.58854
G1 X153.486 Y115.059 E130.63185
G1 X153.828 Y115.319 E130.68329
G1 X154.097 Y115.731 E130.7422
G1 F553.8 X154.275 Y116.251 E130.8135
G1 F512.8 X154.275 Y121.475 E131.54534
G1 F540.5 X154.116 Y121.78 E131.59105
G1 F586.3 X153.828 Y122.184 E131.65184
G1 F600 X153.486 Y122.444 E131.70328
M117 Time Left 0h55m45s
G1 X153.147 Y122.57 E131.74659
G1 X152.85 Y122.602 E131.78235
G1 X146.689 Y122.602 E132.52005
G1 X146.377 Y122.516 E132.5588
G1 F2700 E127.5588
G1 F300 Z0.52
G0 F6000 X155.4 Y128.65 Z0.52
G1 F300 Z0.32
G1 F2700 E132.5588
G1 F600 X155.4 Y122.812 E133.25782
G1 F586.3 X155.379 Y122.032 E133.35343
G1 F538.4 X155.318 Y121.591 E133.41284
G1 F510.9 X155.325 Y121.252 E133.46052
G1 F514.3 X155.325 Y116.251 E134.15912
G1 F553.8 X155.4 Y115.471 E134.26077
G1 F600 X155.4 Y105.209 E135.4895
G1 F586.3 X155.379 Y104.429 E135.58511
G1 F538.4 X155.318 Y103.988 E135.64452
G1 F510.9 X155.325 Y103.649 E135.6922
G1 F514.3 X155.325 Y98.648 E136.3908
G1 F553.8 X155.4 Y97.868 E136.49245
M73 P6
G1 F600 X155.4 Y91.35 E137.27289
G1 X64.601 Y91.351 E148.14484
G1 X64.601 Y128.649 E152.61077
G1 X155.4 Y128.65 E163.48273
M117 Time Left 0h55m30s
G1 F2700 E158.48273
G1 F300 Z0.52
G0 F6000 X146.248 Y104.857 Z0.52
G1 F300 Z0.32
G1 F2700 E163.48273
G1 F600 X146.042 Y104.729 E163.51177
G1 X145.76 Y104.443 E163.55986
G1 X145.608 Y104.173 E163.59696
G1 X145.504 Y103.833 E163.63953
G1 X145.508 Y98.519 E164.27581
G1 X145.568 Y98.231 E164.31103
G1 X145.717 Y97.916 E164.35276
G1 X145.985 Y97.612 E164.40128
G1 X146.377 Y97.384 E164.45558
G1 X146.684 Y97.298 E164.49376
G1 X152.85 Y97.298 E165.23205
G1 X153.147 Y97.33 E165.26782
G1 X153.486 Y97.456 E165.31112
G1 X153.828 Y97.716 E165.36256
G1 X154.097 Y98.128 E165.42148
G1 F553.8 X154.275 Y98.648 E165.49277
G1 F512.8 X154.275 Y103.872 E166.22461
G1 F540.5 X154.116 Y104.177 E166.27032
G1 F586.3 X153.828 Y104.581 E166.33112
G1 F600 X153.486 Y104.841 E166.38256
G1 X153.147 Y104.967 E166.42586
M117 Time Left 0h55m15s
G1 X152.85 Y104.999 E166.46163
G1 X146.634 Y104.999 E167.20591
G1 X146.248 Y104.857 E167.25516
G0 F6000 X146.651 Y104.052
;TYPE:WALL-OUTER
G1 F600 X146.445 Y103.841 E167.29047
G1 X146.403 Y103.674 E167.31108
G1 X146.404 Y98.605 E167.91803
G1 X146.474 Y98.404 E167.94351
G1 X146.563 Y98.302 E167.95972
G1 X146.775 Y98.204 E167.98769
G1 X152.922 Y98.198 E168.72371
G1 X153.176 Y98.337 E168.75838
G1 X153.266 Y98.474 E168.778
G1 X153.3 Y98.648 E168.79923
G1 X153.294 Y103.727 E169.40737
G1 X153.176 Y103.96 E169.43865
G1 X152.922 Y104.099 E169.47332
G1 X146.813 Y104.098 E170.20479
G1 X146.651 Y104.052 E170.22495
G1 F2700 E165.22495
G1 F300 Z0.52
G0 F6000 X146.624 Y121.64 Z0.52
G1 F300 Z0.32
G1 F2700 E170.22495
G1 F600 X146.513 Y121.548 E170.24221
M117 Time Left 0h55m00s
G1 X146.403 Y121.354 E170.26892
G1 X146.403 Y116.227 E170.8828
M73 P7
G1 X146.488 Y115.986 E170.9134
G1 X146.651 Y115.848 E170.93898
G1 X146.813 Y115.802 E170.95914
G1 X152.922 Y115.801 E171.69061
G1 X153.176 Y115.94 E171.72528
G1 X153.266 Y116.077 E171.74491
G1 X153.3 Y116.251 E171.76613
G1 X153.294 Y121.33 E172.37428
G1 X153.176 Y121.563 E172.40555
G1 X152.922 Y121.702 E172.44022
G1 X146.797 Y121.702 E173.1736
G1 X146.624 Y121.64 E173.19561
G1 F2700 E168.19561
G1 F300 Z0.52
G0 F6000 X156.3 Y129.55 Z0.52
G1 F300 Z0.32
G1 F2700 E173.19561
G1 F600 X156.3 Y90.45 E177.87731
G1 X63.701 Y90.451 E188.96478
G1 X63.701 Y129.549 E193.64624
G1 X156.3 Y129.55 E204.73372
G1 F2700 E199.73372
G1 F300 Z0.52
G0 F6000 X79.142 Y121.597 Z0.52
M117 Time Left 0h54m45s
G1 F300 Z0.32
G1 F2700 E204.73372
G1 F600 X78.93 Y121.696 E204.76174
G1 X72.797 Y121.702 E205.49608
G1 X72.552 Y121.586 E205.52854
G1 X72.411 Y121.331 E205.56343
G1 X72.405 Y116.191 E206.17887
G1 X72.456 Y116.042 E206.19773
G1 X72.627 Y115.862 E206.22746
G1 X72.815 Y115.802 E206.25109
G1 X78.908 Y115.804 E206.98064
G1 X79.149 Y115.912 E207.01226
G1 X79.26 Y116.059 E207.03432
G1 X79.302 Y116.227 E207.05505
G1 X79.3 Y121.295 E207.66188
G1 X79.231 Y121.496 E207.68732
G1 X79.142 Y121.597 E207.70344
G1 F2700 E202.70344
G1 F300 Z0.52
G0 F6000 X78.978 Y104.096 Z0.52
G1 F300 Z0.32
G1 F2700 E207.70344
G1 F600 X72.806 Y104.097 E208.44246
G1 X72.627 Y104.038 E208.46502
G1 X72.456 Y103.858 E208.49475
G1 X72.41 Y103.723 E208.51183
M117 Time Left 0h54m30s
G1 X72.411 Y98.57 E209.12883
G1 X72.499 Y98.372 E209.15477
G1 X72.611 Y98.269 E209.17299
G1 X72.777 Y98.204 E209.19434
G1 X78.908 Y98.198 E209.92844
G1 X79.081 Y98.26 E209.95045
G1 X79.192 Y98.352 E209.96771
G1 X79.301 Y98.605 E210.00069
G1 X79.302 Y103.74 E210.61554
G1 X79.217 Y103.914 E210.63873
M73 P8
G1 X78.978 Y104.096 E210.6747
G1 F2700 E205.6747
G1 F300 Z0.52
G0 F6000 X154.56 Y127.81 Z0.52
;TYPE:SKIN
G1 F300 Z0.32
G1 F2700 E210.6747
G1 F600 X65.442 Y127.808 E221.34537
G1 X65.442 Y92.192 E225.60991
G1 X154.56 Y92.19 E236.28059
G1 X154.56 Y97.314 E236.89412
G1 X154.382 Y97.088 E236.92856
G1 X153.885 Y96.712 E237.00318
G1 X153.34 Y96.508 E237.07286
G1 X152.893 Y96.46 E237.12669
M117 Time Left 0h54m15s
G1 X146.817 Y96.459 E237.85421
G1 X146.472 Y96.49 E237.89568
G1 X146.123 Y96.583 E237.93893
G1 X145.78 Y96.737 E237.98395
