;FLAVOR:Marlin
M73 P0


; Pre-Processed for Cancel-Object support by preprocess_cancellation v0.2.0
; 2 known objects
EXCLUDE_OBJECT_DEFINE NAME=Bigtreetech_Relay_v1_2___Case_and_Mount___Clip_stl_1 CENTER=101.368,110.101 POLYGON=[[97.405,97.876],[97.405,122.125],[104.395,122.125],[104.395,97.876]]
EXCLUDE_OBJECT_DEFINE NAME=Bigtreetech_Relay_v1_2___Case_and_Mount___Clip_stl CENTER=109.815,110.123 POLYGON=[[86.655,87.051],[86.655,132.949],[124.245,132.949],[124.245,87.051]]
M117 Time Left 0h08m35s
;TIME:515
;Filament used: 0.402258m
;Layer height: 0.2
;MINX:84.855
;MINY:85.251
;MINZ:0.32
;MAXX:126.045
;MAXY:134.749
;MAXZ:5.12
;TARGET_MACHINE.NAME:Creality Ender-3
;POSTPROCESSED
;  [InsertAtLayerChange]
;  [MeshPrintSize]
;  [DisplayProgressOnLCD]
;  [DisplayFilenameAndLayerOnLCD]
;Generated with Cura_SteamEngine 5.6.0
M82 ;absolute extrusion mode
;Nozzle diameter = 0.6
;Filament type = PLA
;Filament name = Purple/Pink
START_PRINT PRINT_MIN=84.855,85.251 PRINT_MAX=126.045,134.749 BED_TEMP=65 EXTRUDER_TEMP=200.0
G92 E0
G92 E0
G1 F2700 E-5
;LAYER_COUNT:24
TIMELAPSE_TAKE_FRAME
;LAYER:0
M117 Printing Bigtreetech_Relay_v1.2_-_Case_and_Mount_-_Clip - Layer 0 of 23
M107
G1 F300 Z0.52
G0 F6000 X88.671 Y90.306 Z0.52
;TYPE:SKIRT
G1 F300 Z0.32
G1 F2700 E0
G1 F600 X89.48 Y89.6 E0.12857
G1 X90.346 Y88.969 E0.25686
G1 X91.194 Y88.455 E0.3756
G1 X92.225 Y87.947 E0.51322
G1 X93.213 Y87.566 E0.64001
G1 X94.021 Y87.324 E0.741
G1 X94.891 Y87.097 E0.84866
G1 X95.743 Y86.887 E0.95373
G1 X98.224 Y86.205 E1.26181
G1 X99.803 Y85.739 E1.45894
G1 X100.69 Y85.519 E1.56836
G1 X101.902 Y85.329 E1.71526
G1 X102.845 Y85.265 E1.82843
G1 X103.652 Y85.251 E1.92507
G1 X105.505 Y85.271 E2.14695
G1 X107.264 Y85.32 E2.35765
G1 X109.709 Y85.318 E2.65041
G1 X112.345 Y85.253 E2.96613
G1 X113.968 Y85.262 E3.16046
G1 X114.881 Y85.31 E3.26993
G1 X116.101 Y85.482 E3.41746
G1 X117.141 Y85.729 E3.54545
G1 X118.01 Y86.012 E3.65488
G1 X119.07 Y86.46 E3.79267
G1 X120.085 Y87.006 E3.93067
G1 X120.979 Y87.597 E4.05899
G1 X121.813 Y88.259 E4.18648
G1 X122.537 Y88.94 E4.3055
G1 X123.253 Y89.739 E4.43396
G1 X123.942 Y90.661 E4.57178
M73 P1
G1 X124.424 Y91.437 E4.68116
G1 X124.979 Y92.536 E4.82857
G1 X125.345 Y93.458 E4.94735
G1 X125.675 Y94.561 E5.0852
G1 X125.875 Y95.534 E5.20414
G1 X126.005 Y96.636 E5.33701
G1 X126.032 Y97.166 E5.40055
G1 X126.045 Y97.817 E5.47852
G1 X126.044 Y121.916 E8.36404
G1 X126.034 Y122.682 E8.45577
G1 X125.966 Y123.791 E8.58881
G1 X125.835 Y124.696 E8.6983
G1 X125.554 Y125.894 E8.84564
G1 X125.267 Y126.762 E8.9551
G1 X124.817 Y127.815 E9.09221
G1 X124.308 Y128.76 E9.22074
G1 X123.673 Y129.721 E9.35865
G1 X123.054 Y130.5 E9.47779
G1 X122.261 Y131.335 E9.61567
G1 X121.46 Y132.038 E9.74328
G1 X120.661 Y132.629 E9.86228
G1 X119.749 Y133.19 E9.99048
G1 X118.717 Y133.704 E10.12853
G1 X117.72 Y134.092 E10.25663
G1 X116.844 Y134.353 E10.36607
G1 X115.699 Y134.588 E10.50603
G1 X114.108 Y134.737 E10.69736
G1 X113.337 Y134.749 E10.78969
G1 X111.485 Y134.729 E11.01146
G1 X109.725 Y134.68 E11.22227
G1 X107.28 Y134.682 E11.51503
G1 X104.644 Y134.747 E11.83075
G1 X103.019 Y134.738 E12.02533
G1 X102.031 Y134.683 E12.14381
G1 X100.963 Y134.532 E12.27296
G1 X99.759 Y134.247 E12.42111
G1 X96.657 Y133.339 E12.80811
G1 X93.996 Y132.647 E13.13733
M73 P2
G1 X92.936 Y132.316 E13.2703
G1 X92.089 Y131.972 E13.37976
G1 X90.993 Y131.411 E13.52718
G1 X90.155 Y130.881 E13.6459
G1 X89.242 Y130.186 E13.78329
G1 X88.564 Y129.573 E13.89274
G1 X87.728 Y128.671 E14.03999
G1 X87.124 Y127.888 E14.1584
G1 X86.583 Y127.056 E14.27723
G1 X86.043 Y126.038 E14.41521
G1 X85.598 Y124.973 E14.55341
G1 X85.298 Y124.026 E14.67235
G1 X85.048 Y122.906 E14.80976
G1 X84.925 Y122 E14.91924
G1 X84.87 Y121.157 E15.02039
G1 X84.855 Y120.469 E15.10279
G1 X84.856 Y118.322 E15.35986
G1 X84.868 Y117.565 E15.45051
G1 X84.896 Y116.918 E15.52806
G1 X84.939 Y116.318 E15.60008
G1 X85.084 Y113.752 E15.90782
G1 X85.154 Y111.249 E16.20763
G1 X85.154 Y108.829 E16.4974
G1 X85.082 Y106.272 E16.80368
G1 X84.979 Y104.366 E17.03223
G1 X84.888 Y102.919 E17.20583
G1 X84.867 Y102.394 E17.26875
G1 X84.855 Y101.618 E17.36167
G1 X84.856 Y99.674 E17.59444
G1 X84.867 Y98.983 E17.67719
M117 Time Left 0h08m20s
G1 X84.942 Y97.831 E17.81542
G1 X85.106 Y96.774 E17.94349
G1 X85.361 Y95.732 E18.07194
G1 X85.706 Y94.722 E18.19974
G1 X86.07 Y93.883 E18.30924
G1 X86.658 Y92.801 E18.45669
G1 X87.254 Y91.912 E18.58484
M73 P3
G1 X87.824 Y91.196 E18.69442
G1 X88.671 Y90.306 E18.84154
G0 F6000 X89.265 Y90.982
G1 F600 X90.012 Y90.326 E18.96057
G1 X90.813 Y89.739 E19.07948
G1 X91.661 Y89.225 E19.19821
G1 X92.551 Y88.786 E19.31703
G1 X93.472 Y88.428 E19.43535
G1 X94.248 Y88.195 E19.53236
G1 X95.106 Y87.971 E19.63854
G1 X95.979 Y87.756 E19.74619
G1 X98.463 Y87.072 E20.05469
G1 X100.02 Y86.613 E20.24905
G1 X100.907 Y86.393 E20.35848
G1 X101.964 Y86.227 E20.48659
G1 X102.861 Y86.165 E20.59425
G1 X103.642 Y86.151 E20.68778
G1 X105.48 Y86.171 E20.90787
G1 X107.24 Y86.22 E21.11868
G1 X109.731 Y86.218 E21.41695
G1 X112.34 Y86.153 E21.72944
G1 X113.921 Y86.161 E21.91874
G1 X114.834 Y86.209 E22.02821
G1 X115.895 Y86.358 E22.1565
G1 X116.862 Y86.585 E22.27543
G1 X117.731 Y86.868 E22.38486
G1 X118.646 Y87.254 E22.50377
G1 X119.591 Y87.758 E22.63201
G1 X120.421 Y88.303 E22.7509
G1 X121.199 Y88.917 E22.86957
G1 X121.867 Y89.541 E22.97902
G1 X122.583 Y90.34 E23.10749
G1 X123.177 Y91.136 E23.22641
G1 X123.659 Y91.912 E23.33579
G1 X124.142 Y92.868 E23.46404
G1 X124.508 Y93.79 E23.58281
G1 X124.793 Y94.742 E23.7018
M73 P4
G1 X124.993 Y95.715 E23.82074
G1 X125.106 Y96.682 E23.93731
G1 X125.132 Y97.185 E23.99762
G1 X125.145 Y97.817 E24.07331
G1 X125.144 Y121.904 E26.9574
G1 X125.134 Y122.67 E27.04913
G1 X125.075 Y123.662 E27.16812
G1 X124.944 Y124.567 E27.27761
G1 X124.699 Y125.611 E27.40601
G1 X124.412 Y126.479 E27.51548
G1 X124.023 Y127.391 E27.63419
G1 X123.556 Y128.266 E27.75295
G1 X122.968 Y129.161 E27.88117
G1 X122.349 Y129.94 E28.00031
G1 X121.665 Y130.66 E28.11922
G1 X120.922 Y131.316 E28.2379
G1 X120.189 Y131.862 E28.34734
G1 X119.277 Y132.423 E28.47554
G1 X118.388 Y132.866 E28.59447
G1 X117.463 Y133.229 E28.71345
G1 X116.587 Y133.49 E28.8229
G1 X115.614 Y133.692 E28.94189
G1 X114.094 Y133.837 E29.12471
G1 X113.347 Y133.849 E29.21417
G1 X111.51 Y133.829 E29.43414
G1 X109.749 Y133.78 E29.64507
G1 X107.258 Y133.782 E29.94334
G1 X104.649 Y133.847 E30.25583
G1 X103.066 Y133.839 E30.44537
G1 X102.153 Y133.791 E30.55484
G1 X101.17 Y133.656 E30.67365
G1 X100.012 Y133.383 E30.8161
G1 X96.91 Y132.475 E31.20311
G1 X94.262 Y131.787 E31.5307
G1 X93.275 Y131.482 E31.65439
G1 X92.428 Y131.138 E31.76386
G1 X91.474 Y130.65 E31.89216
G1 X90.636 Y130.12 E32.01088
M73 P5
G1 X89.846 Y129.518 E32.12981
G1 X89.168 Y128.905 E32.23925
G1 X88.439 Y128.119 E32.36761
G1 X87.879 Y127.397 E32.47702
G1 X87.338 Y126.565 E32.59585
G1 X86.839 Y125.618 E32.72402
G1 X86.456 Y124.701 E32.84301
G1 X86.156 Y123.754 E32.96195
G1 X85.94 Y122.785 E33.08082
G1 X85.817 Y121.879 E33.1903
G1 X85.77 Y121.137 E33.27932
G1 X85.755 Y120.469 E33.35933
G1 X85.756 Y118.336 E33.61473
G1 X85.767 Y117.604 E33.70238
G1 X85.794 Y116.982 E33.77693
G1 X85.837 Y116.382 E33.84896
G1 X85.983 Y113.803 E34.15825
G1 X86.054 Y111.274 E34.46118
G1 X86.054 Y108.804 E34.75693
G1 X85.982 Y106.247 E35.06322
G1 X85.878 Y104.318 E35.29453
G1 X85.787 Y102.883 E35.46669
G1 X85.767 Y102.38 E35.52697
G1 X85.755 Y101.618 E35.61822
M117 Time Left 0h08m05s
G1 X85.756 Y99.688 E35.84931
G1 X85.767 Y98.997 E35.93206
G1 X85.832 Y97.966 E36.05575
G1 X85.981 Y96.985 E36.17456
G1 X86.214 Y96.02 E36.29343
G1 X86.532 Y95.08 E36.41225
G1 X86.896 Y94.241 E36.52175
G1 X87.407 Y93.3 E36.64996
G1 X87.958 Y92.473 E36.76895
G1 X88.528 Y91.757 E36.87853
G1 X89.265 Y90.982 E37.00659
G0 F6000 X89.861 Y91.656
G1 F600 X90.546 Y91.05 E37.1161
M73 P6
G1 X91.282 Y90.507 E37.22561
G1 X92.062 Y90.031 E37.33502
G1 X92.88 Y89.624 E37.44442
G1 X93.731 Y89.29 E37.55389
G1 X94.475 Y89.066 E37.64692
G1 X95.321 Y88.845 E37.75162
G1 X96.215 Y88.625 E37.86185
G1 X98.702 Y87.94 E38.17073
G1 X100.237 Y87.487 E38.36236
G1 X101.124 Y87.267 E38.47178
G1 X102.027 Y87.125 E38.58123
G1 X102.878 Y87.065 E38.68338
G1 X103.632 Y87.051 E38.77368
G1 X105.455 Y87.071 E38.99197
G1 X107.216 Y87.12 E39.20291
G1 X109.754 Y87.118 E39.5068
G1 X112.336 Y87.053 E39.81606
G1 X113.874 Y87.06 E40.00022
G1 X114.787 Y87.108 E40.10969
G1 X115.692 Y87.235 E40.21911
G1 X116.583 Y87.441 E40.32861
G1 X117.452 Y87.724 E40.43804
G1 X118.293 Y88.082 E40.54748
G1 X119.1 Y88.512 E40.65697
G1 X119.866 Y89.011 E40.76643
G1 X120.585 Y89.575 E40.87585
G1 X121.253 Y90.199 E40.9853
G1 X121.863 Y90.88 E41.09477
G1 X122.412 Y91.611 E41.20423
G1 X122.894 Y92.387 E41.31361
G1 X123.307 Y93.203 E41.42312
G1 X123.647 Y94.051 E41.53251
G1 X123.912 Y94.926 E41.64198
G1 X124.099 Y95.821 E41.75146
G1 X124.207 Y96.729 E41.86095
G1 X124.232 Y97.204 E41.9179
G1 X124.245 Y97.817 E41.99132
G1 X124.244 Y121.893 E44.87409
M73 P7
G1 X124.235 Y122.62 E44.96115
G1 X124.184 Y123.533 E45.07064
G1 X124.053 Y124.438 E45.18013
G1 X123.844 Y125.328 E45.28959
G1 X123.557 Y126.196 E45.39906
G1 X123.196 Y127.035 E45.50842
G1 X122.763 Y127.84 E45.61787
G1 X122.261 Y128.604 E45.72733
G1 X121.695 Y129.322 E45.8368
G1 X121.067 Y129.987 E45.94632
G1 X120.384 Y130.594 E46.05573
G1 X119.651 Y131.14 E46.16517
G1 X118.873 Y131.619 E46.27456
G1 X118.056 Y132.029 E46.38401
G1 X117.206 Y132.366 E46.4935
G1 X116.33 Y132.627 E46.60294
G1 X115.434 Y132.81 E46.71244
G1 X114.079 Y132.937 E46.87539
G1 X113.357 Y132.949 E46.96186
G1 X111.535 Y132.929 E47.18003
G1 X109.773 Y132.88 E47.39109
G1 X107.235 Y132.882 E47.69498
G1 X104.653 Y132.947 E48.00424
G1 X103.113 Y132.94 E48.18863
G1 X102.2 Y132.892 E48.2981
G1 X101.295 Y132.765 E48.40753
G1 X100.265 Y132.519 E48.53432
G1 X97.163 Y131.611 E48.92133
G1 X94.488 Y130.916 E49.25226
G1 X93.614 Y130.648 E49.36172
G1 X92.767 Y130.304 E49.47118
G1 X91.953 Y129.888 E49.58064
G1 X91.179 Y129.402 E49.69007
G1 X90.45 Y128.85 E49.79956
G1 X89.772 Y128.237 E49.909
G1 X89.15 Y127.567 E50.01846
G1 X88.59 Y126.845 E50.12787
M73 P8
G1 X88.094 Y126.077 E50.23734
G1 X87.668 Y125.268 E50.34681
G1 X87.313 Y124.426 E50.45623
G1 X87.034 Y123.555 E50.56574
G1 X86.832 Y122.664 E50.67513
G1 X86.709 Y121.758 E50.7846
G1 X86.67 Y121.116 E50.86162
G1 X86.655 Y120.469 E50.93911
G1 X86.656 Y118.349 E51.19295
G1 X86.666 Y117.643 E51.27749
G1 X86.692 Y117.046 E51.34904
G1 X86.735 Y116.446 E51.42107
G1 X86.882 Y113.854 E51.73192
G1 X86.954 Y111.299 E52.03797
G1 X86.954 Y108.779 E52.33971
G1 X86.882 Y106.222 E52.646
G1 X86.777 Y104.27 E52.88006
M117 Time Left 0h07m50s
G1 X86.686 Y102.847 E53.05079
G1 X86.667 Y102.366 E53.10843
G1 X86.655 Y101.618 E53.198
G1 X86.656 Y99.702 E53.42742
G1 X86.667 Y99.011 E53.51017
G1 X86.722 Y98.098 E53.61969
G1 X86.856 Y97.194 E53.72911
G1 X87.068 Y96.305 E53.83854
G1 X87.358 Y95.438 E53.94801
G1 X87.722 Y94.599 E54.05751
G1 X88.158 Y93.796 E54.16692
G1 X88.662 Y93.034 E54.27631
G1 X89.232 Y92.318 E54.38589
G1 X89.861 Y91.656 E54.49523
G1 F2700 E49.49523
G1 F300 Z0.52
;MESH:Bigtreetech_Relay_v1.2_-_Case_and_Mount_-_Clip.stl(1)
EXCLUDE_OBJECT_START NAME=Bigtreetech_Relay_v1_2___Case_and_Mount___Clip_stl_1
G0 F6000 X98.693 Y101.835 Z0.52
;TYPE:WALL-INNER
G1 F300 Z0.32
M73 P9
G1 F2700 E54.49523
G1 F579.4 X98.766 Y101.669 E54.51772
G1 X99.13 Y101.429 E54.57178
G1 F603.4 X99.518 Y101.35 E54.61892
G1 F630.8 X103.195 Y101.35 E55.03767
G1 F633.1 X103.369 Y101.407 E55.05845
G1 X103.369 Y100.438 E55.16841
G1 X103.194 Y100.496 E55.18934
G1 X99.69 Y100.496 E55.58698
G1 F628.6 X99.385 Y100.503 E55.62185
G1 F600.7 X98.939 Y100.538 E55.67536
G1 F579.4 X98.473 Y100.538 E55.73314
G1 X98.471 Y101.612 E55.86631
G1 X98.693 Y101.835 E55.90532
G1 F2700 E50.90532
G1 F300 Z0.52
G0 F6000 X103.369 Y119.541 Z0.52
G1 F300 Z0.32
G1 F2700 E55.90532
G1 F633.8 X103.369 Y118.574 E56.01493
G1 X103.194 Y118.632 E56.03583
G1 X99.69 Y118.632 E56.43301
G1 F605.4 X99.129 Y118.552 E56.50026
G1 F579.4 X98.756 Y118.304 E56.5558
G1 X98.686 Y118.143 E56.57757
G1 X98.472 Y118.357 E56.61509
G1 X98.472 Y119.443 E56.74975
G1 X98.938 Y119.443 E56.80753
G1 F605.4 X99.69 Y119.484 E56.8969
G1 F633.8 X103.194 Y119.484 E57.29408
G1 X103.369 Y119.541 E57.31495
G0 F6000 X103.945 Y120.81
;TYPE:WALL-OUTER
G1 F385.7 X104.044 Y120.56 E57.36503
G1 F450 X104.144 Y120.31 E57.40802
G1 F540 X104.244 Y120.06 E57.44384
G1 F600 X104.245 Y118.056 E57.68379
G1 F513.3 X104.093 Y117.746 E57.73211
M73 P10
G1 F397.9 X103.94 Y117.436 E57.79452
G1 X103.703 Y117.551 E57.84208
G1 F513.3 X103.465 Y117.667 E57.87914
G1 F600 X103.194 Y117.756 E57.91329
G1 X99.69 Y117.756 E58.33285
G1 X99.505 Y117.717 E58.35549
G1 X99.382 Y117.635 E58.37319
G1 X99.24 Y117.306 E58.41609
G1 X99.24 Y116.293 E58.53739
G1 X97.556 Y117.978 E58.82263
G1 X97.556 Y120.359 E59.10772
G1 X103.194 Y120.36 E59.78279
G1 X103.465 Y120.449 E59.81695
G1 F514.3 X103.705 Y120.629 E59.85886
G1 F400 X103.945 Y120.81 E59.91284
G1 F360 X103.945 Y121.75 E60.10043
G1 F2700 E55.10043
G1 F300 Z0.52
G0 F6000 X103.94 Y117.436 Z0.52
G1 F300 Z0.32
G1 F2700 E60.10043
G1 F358.8 X103.945 Y102.676 E63.05577
G1 F2700 E58.05577
G1 F300 Z0.52
G0 F6000 X103.94 Y99.3 Z0.52
G1 F300 Z0.32
G1 F2700 E63.05577
G1 F358.8 X103.945 Y98.251 E63.26581
G1 F2700 E58.26581
G1 F300 Z0.52
G0 F6000 X99.24 Y103.677 Z0.52
G1 F300 Z0.32
G1 F2700 E63.26581
G1 F600 X99.24 Y102.676 E63.38566
G1 X99.385 Y102.344 E63.42904
G1 X99.612 Y102.232 E63.45935
G1 X103.195 Y102.226 E63.88837
M73 P11
G1 X103.466 Y102.315 E63.92252
G1 F514.3 X103.705 Y102.495 E63.96432
G1 F400 X103.945 Y102.676 E64.01831
G1 F385.7 X104.045 Y102.426 E64.06846
G1 F450 X104.145 Y102.176 E64.11144
G1 F540 X104.245 Y101.926 E64.14727
G1 F600 X104.245 Y99.92 E64.38746
G1 F513.3 X104.093 Y99.61 E64.43578
G1 F397.9 X103.94 Y99.3 E64.49819
G1 X103.703 Y99.415 E64.54575
G1 F513.3 X103.465 Y99.531 E64.58281
M117 Time Left 0h07m35s
G1 F600 X103.194 Y99.62 E64.61696
G1 X97.556 Y99.621 E65.29203
G1 X97.555 Y101.992 E65.57593
G1 X99.24 Y103.677 E65.86125
G1 F2700 E60.86125
G1 F300 Z0.52
;MESH:Bigtreetech_Relay_v1.2_-_Case_and_Mount_-_Clip.stl
EXCLUDE_OBJECT_END NAME=Bigtreetech_Relay_v1_2___Case_and_Mount___Clip_stl_1
EXCLUDE_OBJECT_START NAME=Bigtreetech_Relay_v1_2___Case_and_Mount___Clip_stl
G0 F6000 X107.793 Y101.835 Z0.52
;TYPE:WALL-INNER
G1 F300 Z0.32
G1 F2700 E65.86125
G1 F579.4 X107.866 Y101.669 E65.88374
G1 X108.23 Y101.429 E65.9378
G1 F603.4 X108.618 Y101.35 E65.98495
G1 F630.8 X112.296 Y101.35 E66.40381
G1 F633.1 X112.469 Y101.407 E66.42448
G1 X112.469 Y100.438 E66.53445
G1 X112.294 Y100.496 E66.55537
G1 X108.79 Y100.496 E66.95301
G1 F628.6 X108.485 Y100.503 E66.98788
G1 F600.7 X108.039 Y100.538 E67.04139
G1 F579.4 X107.573 Y100.538 E67.09917
G1 X107.571 Y101.612 E67.23234
G1 X107.793 Y101.835 E67.27135
G1 F2700 E62.27135
G1 F300 Z0.52
M73 P12
G0 F6000 X112.469 Y119.541 Z0.52
G1 F300 Z0.32
G1 F2700 E67.27135
G1 F633.8 X112.469 Y118.575 E67.38085
G1 X112.296 Y118.632 E67.4015
G1 X108.79 Y118.632 E67.7989
G1 F605.4 X108.229 Y118.552 E67.86615
G1 F579.4 X107.856 Y118.304 E67.92169
G1 X107.786 Y118.143 E67.94346
G1 X107.572 Y118.357 E67.98099
G1 X107.572 Y119.443 E68.11564
G1 X108.038 Y119.443 E68.17342
G1 F605.4 X108.79 Y119.484 E68.2628
G1 F633.8 X112.294 Y119.484 E68.65998
G1 X112.469 Y119.541 E68.68084
G0 F6000 X113.045 Y120.81
;TYPE:WALL-OUTER
G1 F385.7 X113.144 Y120.56 E68.73092
G1 F450 X113.244 Y120.31 E68.77391
G1 F540 X113.344 Y120.06 E68.80973
G1 F600 X113.345 Y118.055 E69.0498
G1 F513.3 X113.193 Y117.746 E69.098
G1 F398.2 X113.041 Y117.436 E69.16029
G1 X112.804 Y117.551 E69.20781
G1 F513.3 X112.567 Y117.667 E69.24474
G1 F600 X112.296 Y117.756 E69.27889
G1 X108.79 Y117.756 E69.69869
G1 X108.605 Y117.717 E69.72133
G1 X108.482 Y117.635 E69.73903
G1 X108.34 Y117.306 E69.78193
G1 X108.34 Y116.293 E69.90323
G1 X106.656 Y117.978 E70.18847
G1 X106.656 Y120.359 E70.47356
G1 X112.294 Y120.36 E71.14863
G1 X112.565 Y120.449 E71.18279
G1 F514.3 X112.805 Y120.629 E71.2247
G1 F400 X113.045 Y120.81 E71.27869
G1 F360 X113.045 Y121.75 E71.46627
M73 P13
G1 F2700 E66.46627
G1 F300 Z0.52
