;FLAVOR:Marlin
;TIME:5155
;Filament used: 6.986m
;Layer height: 0.3
;MINX:50.9
;MINY:65.929
;MINZ:0.42
;MAXX:167.971
;MAXY:153.071
;MAXZ:10.22
;TARGET_MACHINE.NAME:Creality Ender-3
;POSTPROCESSED
;  [InsertAtLayerChange]
;  [MeshPrintSize]
;Generated with Cura_SteamEngine 5.7.0


; Pre-Processed for Cancel-Object support by preprocess_cancellation v0.2.0
; 1 known objects
EXCLUDE_OBJECT_DEFINE NAME=bottom_case_STL CENTER=104.852,109.731 POLYGON=[[52.58,67.609],[52.58,151.391],[166.291,151.391],[166.291,67.609]]
M82 ;absolute extrusion mode
;Nozzle diameter = 0.6
;Filament type = PLA
;Filament name = Purple/Pink
START_PRINT PRINT_MIN=50.9,65.929 PRINT_MAX=167.971,153.071 BED_TEMP=65 EXTRUDER_TEMP=210
G92 E0
G92 E0
G1 F2700 E-5
;LAYER_COUNT:33
TIMELAPSE_TAKE_FRAME
;LAYER:0
M107
G1 F300 Z0.62
G0 F6000 X58.895 Y68.606 Z0.62
;TYPE:SKIRT
G1 F300 Z0.42
G1 F2700 E0
G1 F600 X59.747 Y67.98 E0.15507
G1 X60.525 Y67.502 E0.28901
G1 X61.467 Y67.024 E0.44395
G1 X62.594 Y66.579 E0.62167
G1 X63.612 Y66.283 E0.77717
G1 X64.647 Y66.078 E0.93193
G1 X65.554 Y65.974 E1.06584
G1 X66.256 Y65.941 E1.16892
G1 X67.001 Y65.929 E1.27821
G1 X153.848 Y65.929 E14.01669
G1 X154.774 Y65.942 E14.15252
G1 X155.686 Y65.995 E14.28652
G1 X156.807 Y66.158 E14.45267
G1 X157.912 Y66.424 E14.61938
G1 X158.911 Y66.763 E14.77412
G1 X159.816 Y67.157 E14.91889
G1 X160.748 Y67.662 E15.07438
G1 X161.573 Y68.203 E15.21908
G1 X162.503 Y68.94 E15.39313
G1 X163.01 Y69.41 E15.49454
G1 X164.081 Y70.467 E15.71525
G1 X164.59 Y70.995 E15.82282
G1 X165.265 Y71.762 E15.97268
G1 X165.937 Y72.677 E16.1392
G1 X166.482 Y73.58 E16.2939
G1 X166.889 Y74.397 E16.42779
G1 X167.33 Y75.525 E16.60543
G1 X167.624 Y76.541 E16.76057
G1 X167.815 Y77.507 E16.905
G1 X167.927 Y78.487 E17.04968
G1 X167.958 Y79.123 E17.14308
G1 X167.97 Y79.845 E17.249
G1 X167.971 Y138.926 E25.91483
G1 X167.958 Y139.872 E26.0536
G1 X167.905 Y140.783 E26.18745
G1 X167.743 Y141.902 E26.35329
G1 X167.478 Y143.009 E26.52025
G1 X167.138 Y144.011 E26.67545
G1 X166.712 Y144.981 E26.83085
G1 X166.24 Y145.848 E26.97564
G1 X165.7 Y146.671 E27.12002
G1 X165.011 Y147.546 E27.28338
G1 X164.612 Y147.987 E27.37061
G1 X164.029 Y148.587 E27.49332
G1 X162.963 Y149.635 E27.71258
G1 X162.285 Y150.247 E27.84655
G1 X161.381 Y150.931 E28.01282
G1 X160.418 Y151.53 E28.17917
G1 X159.605 Y151.944 E28.31299
G1 X158.486 Y152.395 E28.48995
G1 X157.613 Y152.661 E28.62381
G1 X156.432 Y152.909 E28.80082
G1 X155.525 Y153.019 E28.93483
G1 X154.742 Y153.059 E29.04982
G1 X153.971 Y153.071 E29.16293
G1 X64.405 Y153.07 E42.30022
G1 X63.63 Y153.058 E42.4139
G1 X62.718 Y153.005 E42.5479
G1 X61.597 Y152.842 E42.71405
G1 X60.492 Y152.576 E42.88076
G1 X59.493 Y152.237 E43.0355
G1 X58.588 Y151.843 E43.18028
G1 X57.656 Y151.338 E43.33576
G1 X56.831 Y150.797 E43.48046
G1 X55.907 Y150.066 E43.65328
G1 X55.477 Y149.671 E43.73892
G1 X54.789 Y148.999 E43.87999
G1 X54.321 Y148.516 E43.97863
G1 X53.571 Y147.665 E44.14501
G1 X53.027 Y146.932 E44.2789
G1 X52.432 Y145.969 E44.44494
G1 X51.989 Y145.087 E44.58971
G1 X51.595 Y144.104 E44.74504
G1 X51.251 Y142.942 E44.92279
G1 X51.047 Y141.904 E45.07796
G1 X50.945 Y140.997 E45.21183
G1 X50.912 Y140.309 E45.31286
G1 X50.9 Y139.538 E45.42596
G1 X50.901 Y113.42 E49.25688
G1 X50.914 Y112.636 E49.37189
G1 X50.968 Y111.724 E49.50589
G1 X51.082 Y110.876 E49.63139
G1 X51.456 Y108.662 E49.96074
G1 X51.819 Y106.115 E50.3381
G1 X52.1 Y103.641 E50.70331
G1 X52.306 Y101.222 E51.05941
G1 X52.449 Y98.713 E51.42802
G1 X52.521 Y96.169 E51.80132
G1 X52.53 Y94.882 E51.99009
G1 X52.529 Y80.547 E54.09271
G1 X52.542 Y79.624 E54.22811
G1 X52.595 Y78.713 E54.36196
G1 X52.758 Y77.592 E54.52811
G1 X53.024 Y76.488 E54.69468
G1 X53.363 Y75.486 E54.84983
G1 X53.758 Y74.582 E54.99453
G1 X54.303 Y73.583 E55.16145
G1 X54.906 Y72.686 E55.31998
G1 X55.69 Y71.73 E55.50133
G1 X56.205 Y71.183 E55.61153
G1 X57.438 Y69.946 E55.86771
G1 X58.07 Y69.332 E55.99695
G1 X58.895 Y68.606 E56.15814
G0 F6000 X59.394 Y69.282
G1 F600 X60.187 Y68.696 E56.30277
G1 X60.965 Y68.218 E56.4367
G1 X61.845 Y67.774 E56.58128
G1 X62.831 Y67.385 E56.73675
G1 X63.777 Y67.107 E56.88137
G1 X64.743 Y66.913 E57.02589
G1 X65.65 Y66.809 E57.1598
G1 X66.27 Y66.781 E57.25083
G1 X67.015 Y66.769 E57.36012
G1 X153.837 Y66.769 E70.09493
G1 X154.725 Y66.781 E70.22519
G1 X155.637 Y66.834 E70.35919
G1 X156.613 Y66.975 E70.50383
G1 X157.644 Y67.22 E70.65926
G1 X158.578 Y67.534 E70.8038
G1 X159.416 Y67.896 E70.93769
G1 X160.348 Y68.401 E71.09317
G1 X161.11 Y68.904 E71.22709
G1 X161.932 Y69.556 E71.38098
G1 X162.42 Y70.008 E71.47855
G1 X163.477 Y71.051 E71.69636
G1 X163.959 Y71.55 E71.79812
G1 X164.634 Y72.317 E71.94798
G1 X165.219 Y73.113 E72.09288
G1 X165.73 Y73.955 E72.23734
G1 X166.137 Y74.772 E72.37123
G1 X166.524 Y75.76 E72.52686
G1 X166.8 Y76.707 E72.67155
G1 X166.98 Y77.602 E72.80545
G1 X167.092 Y78.582 E72.95013
G1 X167.118 Y79.137 E73.03163
G1 X167.13 Y79.845 E73.13549
G1 X167.131 Y138.915 E81.79971
G1 X167.119 Y139.823 E81.9329
G1 X167.066 Y140.734 E82.06675
G1 X166.926 Y141.709 E82.21123
G1 X166.682 Y142.741 E82.36677
G1 X166.368 Y143.675 E82.51131
G1 X165.974 Y144.579 E82.65595
G1 X165.502 Y145.446 E82.80074
G1 X164.999 Y146.208 E82.93466
G1 X164.388 Y146.982 E83.0793
G1 X163.989 Y147.423 E83.16653
G1 X163.44 Y147.988 E83.28209
G1 X162.4 Y149.011 E83.49606
G1 X161.722 Y149.623 E83.63003
G1 X160.935 Y150.219 E83.77483
G1 X160.037 Y150.781 E83.93021
G1 X159.224 Y151.195 E84.06403
G1 X158.241 Y151.591 E84.21948
G1 X157.368 Y151.857 E84.35334
G1 X156.331 Y152.075 E84.50877
G1 X155.424 Y152.185 E84.64278
G1 X154.729 Y152.219 E84.74484
G1 X153.971 Y152.231 E84.85604
G1 X64.418 Y152.23 E97.99142
G1 X63.679 Y152.219 E98.09983
G1 X62.767 Y152.166 E98.23382
G1 X61.791 Y152.025 E98.37846
G1 X60.76 Y151.78 E98.5339
G1 X59.826 Y151.466 E98.67843
G1 X58.988 Y151.104 E98.81232
G1 X58.056 Y150.599 E98.96781
G1 X57.294 Y150.096 E99.10173
G1 X56.475 Y149.447 E99.255
G1 X56.064 Y149.07 E99.33681
G1 X55.392 Y148.414 E99.47455
G1 X54.924 Y147.931 E99.5732
G1 X54.246 Y147.164 E99.72335
G1 X53.702 Y146.431 E99.85724
G1 X53.183 Y145.592 E100.00195
G1 X52.74 Y144.71 E100.14672
G1 X52.376 Y143.794 E100.29129
G1 X52.075 Y142.778 E100.44672
G1 X51.882 Y141.81 E100.5915
G1 X51.78 Y140.903 E100.72537
G1 X51.752 Y140.296 E100.8145
G1 X51.74 Y139.538 E100.9257
G1 X51.741 Y113.433 E104.7547
G1 X51.753 Y112.686 E104.86429
G1 X51.807 Y111.774 E104.99829
G1 X51.91 Y111.016 E105.11049
G1 X52.288 Y108.781 E105.44297
G1 X52.651 Y106.234 E105.82033
G1 X52.935 Y103.736 E106.18909
G1 X53.145 Y101.27 E106.55211
G1 X53.288 Y98.761 E106.92072
G1 X53.361 Y96.193 E107.29754
G1 X53.37 Y94.888 E107.48896
G1 X53.369 Y80.558 E109.59084
G1 X53.381 Y79.673 E109.72066
G1 X53.434 Y78.762 E109.85451
G1 X53.575 Y77.786 E109.99915
G1 X53.82 Y76.755 E110.15459
G1 X54.134 Y75.82 E110.29926
G1 X54.497 Y74.982 E110.43321
G1 X55.002 Y74.049 E110.58882
G1 X55.556 Y73.219 E110.73519
G1 X56.34 Y72.263 E110.91654
G1 X56.8 Y71.776 E111.0148
G1 X58.024 Y70.548 E111.26911
G1 X58.627 Y69.961 E111.39254
G1 X59.394 Y69.282 E111.5428
G0 F6000 X59.895 Y69.956
G1 F600 X60.627 Y69.412 E111.67657
G1 X61.405 Y68.934 E111.8105
G1 X62.221 Y68.525 E111.94438
G1 X63.07 Y68.19 E112.07825
G1 X63.945 Y67.93 E112.21214
G1 X64.839 Y67.748 E112.34596
G1 X65.746 Y67.644 E112.47987
G1 X66.284 Y67.621 E112.55885
G1 X67.029 Y67.609 E112.66814
G1 X153.826 Y67.609 E125.39928
G1 X154.676 Y67.62 E125.52397
G1 X155.588 Y67.673 E125.65796
G1 X156.491 Y67.806 E125.79184
G1 X157.379 Y68.017 E125.92572
G1 X158.245 Y68.305 E126.05958
G1 X159.083 Y68.667 E126.19347
G1 X159.885 Y69.102 E126.3273
G1 X160.647 Y69.605 E126.46122
G1 X161.362 Y70.173 E126.59516
G1 X161.83 Y70.606 E126.68868
G1 X162.873 Y71.635 E126.90358
G1 X163.355 Y72.134 E127.00535
G1 X163.959 Y72.817 E127.13908
G1 X164.502 Y73.551 E127.273
G1 X164.978 Y74.33 E127.4069
G1 X165.385 Y75.147 E127.54078
G1 X165.718 Y75.997 E127.67469
G1 X165.976 Y76.873 E127.80863
G1 X166.156 Y77.768 E127.94254
G1 X166.257 Y78.675 E128.0764
G1 X166.278 Y79.152 E128.14643
G1 X166.29 Y79.845 E128.24809
G1 X166.291 Y138.904 E136.9107
G1 X166.28 Y139.774 E137.03832
G1 X166.227 Y140.685 E137.17217
G1 X166.095 Y141.588 E137.30603
G1 X165.885 Y142.476 E137.43987
G1 X165.597 Y143.342 E137.57373
G1 X165.235 Y144.18 E137.70762
G1 X164.801 Y144.983 E137.84151
G1 X164.298 Y145.745 E137.97543
G1 X163.73 Y146.46 E138.10937
G1 X163.386 Y146.838 E138.18434
G1 X162.851 Y147.389 E138.29698
G1 X161.837 Y148.387 E138.50567
G1 X161.159 Y148.999 E138.63964
G1 X160.43 Y149.548 E138.77349
G1 X159.656 Y150.032 E138.90739
G1 X158.843 Y150.446 E139.04121
G1 X157.996 Y150.787 E139.17514
G1 X157.123 Y151.053 E139.309
G1 X156.23 Y151.241 E139.44285
G1 X155.323 Y151.351 E139.57686
G1 X154.715 Y151.379 E139.66614
G1 X153.971 Y151.391 E139.77528
G1 X64.43 Y151.39 E152.9089
G1 X63.728 Y151.38 E153.01188
G1 X62.816 Y151.327 E153.14588
G1 X61.913 Y151.194 E153.27975
G1 X61.025 Y150.983 E153.41363
G1 X60.159 Y150.695 E153.54749
G1 X59.321 Y150.333 E153.68139
G1 X58.519 Y149.898 E153.81521
G1 X57.757 Y149.395 E153.94913
G1 X57.042 Y148.827 E154.08307
G1 X56.651 Y148.469 E154.16083
G1 X55.995 Y147.829 E154.29526
G1 X55.527 Y147.346 E154.39391
G1 X54.921 Y146.663 E154.52783
G1 X54.377 Y145.93 E154.66172
G1 X53.899 Y145.152 E154.79565
G1 X53.492 Y144.335 E154.92954
G1 X53.157 Y143.486 E155.06341
G1 X52.898 Y142.611 E155.19726
G1 X52.717 Y141.716 E155.33119
G1 X52.615 Y140.809 E155.46506
G1 X52.592 Y140.282 E155.54244
G1 X52.58 Y139.538 E155.65158
G1 X52.581 Y113.446 E159.47868
G1 X52.592 Y112.736 E159.58283
G1 X52.646 Y111.824 E159.71684
G1 X52.738 Y111.156 E159.81574
G1 X53.12 Y108.9 E160.15136
G1 X53.483 Y106.353 E160.52872
G1 X53.77 Y103.831 E160.90103
G1 X53.984 Y101.318 E161.27096
G1 X54.127 Y98.809 E161.63957
G1 X54.201 Y96.217 E162.01991
G1 X54.21 Y94.894 E162.21397
G1 X54.209 Y80.569 E164.31512
G1 X54.22 Y79.722 E164.43937
G1 X54.273 Y78.811 E164.57322
G1 X54.406 Y77.908 E164.7071
G1 X54.617 Y77.02 E164.84097
G1 X54.905 Y76.154 E164.97483
G1 X55.268 Y75.316 E165.10879
G1 X55.702 Y74.513 E165.24267
G1 X56.206 Y73.752 E165.37655
G1 X56.99 Y72.796 E165.5579
G1 X57.395 Y72.369 E165.64422
G1 X58.61 Y71.15 E165.89667
G1 X59.213 Y70.563 E166.0201
G1 X59.895 Y69.956 E166.15402
G1 F2700 E161.15402
G1 F300 Z0.62
;MESH:bottom_case.STL
EXCLUDE_OBJECT_START NAME=bottom_case_STL
G0 F6000 X72.742 Y87.441 Z0.62
;TYPE:WALL-INNER
G1 F300 Z0.42
G1 F2700 E166.15402
G1 F600 X72.213 Y87.507 E166.23221
G1 X71.964 Y87.481 E166.26893
G1 X71.711 Y87.409 E166.30751
G1 X71.218 Y87.21 E166.38549
G1 X70.938 Y87.013 E166.43571
G1 X70.579 Y86.583 E166.51787
G1 X70.409 Y86.316 E166.5643
G1 X70.307 Y85.995 E166.6137
G1 X70.247 Y85.656 E166.6642
G1 X70.222 Y85.364 E166.70719
G1 X70.301 Y84.894 E166.77709
G1 X70.395 Y84.584 E166.82461
G1 X70.555 Y84.322 E166.86963
G1 X70.812 Y84.001 E166.92995
G1 X71.088 Y83.767 E166.98302
G1 X71.376 Y83.587 E167.03284
G1 X71.763 Y83.407 E167.09544
G1 X72.388 Y83.38 E167.1872
G1 X72.746 Y83.431 E167.24024
G1 X73.07 Y83.527 E167.28981
G1 X73.38 Y83.667 E167.3397
G1 X73.625 Y83.867 E167.38609
G1 X73.963 Y84.222 E167.45799
G1 X74.097 Y84.461 E167.49818
G1 X74.284 Y84.868 E167.56387
G1 X74.353 Y85.294 E167.62717
G1 X74.299 Y85.913 E167.71831
G1 X74.166 Y86.309 E167.77958
G1 X73.782 Y86.884 E167.881
G1 X73.502 Y87.114 E167.93415
G1 X73.005 Y87.365 E168.01582
G1 X72.742 Y87.441 E168.05597
G1 F2700 E163.05597
G1 F300 Z0.62
G0 F6000 X98.5 Y89.209 Z0.62
G1 F300 Z0.42
G1 F2700 E168.05597
G1 F378.1 X98.498 Y96.523 E169.7584
G1 F2700 E164.7584
G1 F300 Z0.62
G0 F6000 X103.498 Y96.523 Z0.62
G1 F300 Z0.42
G1 F2700 E169.7584
G1 F378.1 X103.5 Y89.209 E171.46082
G1 F2700 E166.46082
G1 F300 Z0.62
G0 F6000 X108.5 Y89.209 Z0.62
G1 F300 Z0.42
G1 F2700 E171.46082
G1 F378.1 X108.498 Y96.523 E173.16325
G1 F2700 E168.16325
G1 F300 Z0.62
G0 F6000 X112.024 Y98.015 Z0.62
G1 F300 Z0.42
G1 F2700 E173.16325
G1 F600 X111.599 Y98.072 E173.22615
G1 X110.308 Y98.064 E173.41551
G1 X109.996 Y97.995 E173.46238
G1 X109.556 Y97.809 E173.53245
G1 X109.316 Y97.612 E173.57799
G1 X109.063 Y97.332 E173.63334
G1 F584.7 X108.847 Y96.941 E173.70058
G1 F486 X108.598 Y96.685 E173.76525
G1 F397.8 X108.498 Y96.523 E173.80736
G1 X108.398 Y96.685 E173.84948
G1 F486 X108.149 Y96.941 E173.91415
G1 F584.7 X107.933 Y97.332 E173.98139
G1 F600 X107.588 Y97.713 E174.05678
G1 X107.024 Y98.015 E174.15062
G1 X106.599 Y98.072 E174.21351
G1 X105.308 Y98.064 E174.40288
G1 X104.996 Y97.995 E174.44974
G1 X104.556 Y97.809 E174.51981
G1 X104.316 Y97.612 E174.56535
G1 X104.063 Y97.332 E174.62071
G1 F584.7 X103.847 Y96.941 E174.68794
G1 F486 X103.598 Y96.685 E174.75261
G1 F397.8 X103.498 Y96.523 E174.79473
G1 X103.398 Y96.685 E174.83685
G1 F486 X103.149 Y96.941 E174.90151
G1 F584.7 X102.933 Y97.332 E174.96875
G1 F600 X102.588 Y97.713 E175.04414
G1 X102.024 Y98.015 E175.13798
G1 X101.599 Y98.072 E175.20088
G1 X100.308 Y98.064 E175.39024
G1 X99.996 Y97.995 E175.43711
G1 X99.556 Y97.809 E175.50718
G1 X99.316 Y97.612 E175.55272
G1 X99.063 Y97.332 E175.60807
G1 F584.7 X98.847 Y96.941 E175.67531
G1 F486 X98.598 Y96.685 E175.73997
G1 F397.8 X98.498 Y96.523 E175.78209
G1 X98.398 Y96.685 E175.82421
G1 F486 X98.149 Y96.941 E175.88888
G1 F584.7 X97.933 Y97.332 E175.95611
G1 F600 X97.588 Y97.713 E176.0315
G1 X97.146 Y97.95 E176.10507
G1 X96.728 Y98.073 E176.16898
G1 X95.351 Y98.067 E176.37095
G1 X95.054 Y98.02 E176.41506
G1 X94.637 Y97.844 E176.48145
G1 X94.378 Y97.669 E176.5273
G1 X94.147 Y97.438 E176.57521
G1 X93.963 Y97.166 E176.62338
G1 X93.804 Y96.779 E176.68475
G1 X93.747 Y96.484 E176.72882
G1 X93.743 Y88.989 E177.82817
G1 X93.872 Y88.644 E177.88219
G1 X94.062 Y88.282 E177.94216
G1 X94.388 Y87.935 E178.01199
G1 X94.63 Y87.785 E178.05375
G1 X94.999 Y87.614 E178.11341
G1 X95.258 Y87.552 E178.15247
G1 X96.742 Y87.556 E178.37014
G1 X97.037 Y87.641 E178.41517
G1 X97.436 Y87.818 E178.47919
G1 X97.664 Y88.001 E178.52208
G1 X97.906 Y88.255 E178.57353
G1 X98.129 Y88.643 E178.63918
G1 F542.5 X98.311 Y88.879 E178.68752
G1 F430.8 X98.5 Y89.209 E178.76521
G1 X98.691 Y88.879 E178.84311
G1 F542.5 X98.873 Y88.644 E178.89133
G1 F600 X99.092 Y88.254 E178.95693
G1 X99.328 Y88.001 E179.00768
G1 X99.545 Y87.827 E179.04848
G1 X99.932 Y87.638 E179.11165
G1 X100.233 Y87.551 E179.15761
G1 X101.742 Y87.557 E179.37895
G1 X102.037 Y87.641 E179.42394
G1 X102.436 Y87.818 E179.48796
G1 X102.664 Y88.001 E179.53084
G1 X102.906 Y88.255 E179.5823
G1 X103.129 Y88.643 E179.64794
G1 F542.5 X103.311 Y88.879 E179.69629
G1 F430.8 X103.5 Y89.209 E179.77398
G1 X103.691 Y88.879 E179.85188
G1 F542.5 X103.873 Y88.644 E179.9001
G1 F600 X104.092 Y88.254 E179.9657
G1 X104.328 Y88.001 E180.01645
G1 X104.545 Y87.827 E180.05725
G1 X104.932 Y87.638 E180.12042
G1 X105.233 Y87.551 E180.16638
G1 X106.742 Y87.557 E180.38771
G1 X107.037 Y87.641 E180.4327
G1 X107.436 Y87.818 E180.49673
G1 X107.664 Y88.001 E180.53961
G1 X107.906 Y88.255 E180.59107
G1 X108.129 Y88.643 E180.65671
G1 F542.5 X108.311 Y88.879 E180.70505
G1 F430.8 X108.5 Y89.209 E180.78275
G1 X108.691 Y88.879 E180.86064
G1 F542.5 X108.873 Y88.644 E180.90886
G1 F600 X109.092 Y88.254 E180.97447
G1 X109.328 Y88.001 E181.02522
G1 X109.545 Y87.827 E181.06601
G1 X109.932 Y87.638 E181.12919
G1 X110.233 Y87.551 E181.17514
G1 X111.742 Y87.557 E181.39648
G1 X112.037 Y87.641 E181.44147
G1 X112.436 Y87.818 E181.50549
G1 X112.664 Y88.001 E181.54838
G1 X112.906 Y88.255 E181.59983
G1 X113.129 Y88.643 E181.66548
G1 F542.5 X113.311 Y88.879 E181.71382
G1 F430.8 X113.5 Y89.209 E181.79151
G1 X113.691 Y88.879 E181.86941
G1 F542.5 X113.873 Y88.644 E181.91763
G1 F600 X114.092 Y88.254 E181.98323
G1 X114.328 Y88.001 E182.03398
G1 X114.545 Y87.827 E182.07478
G1 X114.932 Y87.638 E182.13795
G1 X115.233 Y87.551 E182.18391
G1 X116.742 Y87.557 E182.40525
G1 X117.037 Y87.641 E182.45024
G1 X117.436 Y87.818 E182.51426
G1 X117.664 Y88.001 E182.55714
G1 X117.906 Y88.255 E182.6086
G1 X118.129 Y88.643 E182.67424
G1 F542.5 X118.311 Y88.879 E182.72259
G1 F430.8 X118.5 Y89.209 E182.80028
G1 X118.691 Y88.879 E182.87818
G1 F542.5 X118.873 Y88.644 E182.9264
