;FLAVOR:Marlin
M73 P0


; Pre-Processed for Cancel-Object support by preprocess_cancellation v0.2.0
; 1 known objects
EXCLUDE_OBJECT_DEFINE NAME=cat_peeking_hairpin_v1_stl CENTER=109.498,117.431 POLYGON=[[73.01,61.037],[73.01,158.956],[146.993,158.956],[146.993,61.037]]
M117 Time Left 0h55m20s
;TIME:3320
;Filament used: 2.28468m
;Layer height: 0.2
;MINX:71.81
;MINY:59.837
;MINZ:0.32
;MAXX:148.191
;MAXY:160.156
;MAXZ:2.72
;TARGET_MACHINE.NAME:Creality Ender-3
;POSTPROCESSED
;  [InsertAtLayerChange]
;  [MeshPrintSize]
;  [DisplayProgressOnLCD]
;  [DisplayFilenameAndLayerOnLCD]
;Generated with Cura_SteamEngine 5.6.0
M82 ;absolute extrusion mode
;Nozzle diameter = 0.4
;Filament type = PLA
;Filament name = Sakura Pink
START_PRINT PRINT_MIN=71.81,59.837 PRINT_MAX=148.191,160.156 BED_TEMP=65 EXTRUDER_TEMP=220.0
G92 E0
G92 E0
G1 F2700 E-5
;LAYER_COUNT:12
TIMELAPSE_TAKE_FRAME
;LAYER:0
M117 Printing cat_peeking_hairpin_v1 - Layer 0 of 11
M107
G1 F300 Z0.52
G0 F6000 X84.106 Y64.638 Z0.52
;TYPE:SKIRT
G1 F300 Z0.32
G1 F2700 E0
G1 F600 X84.829 Y63.782 E0.08944
G1 X85.509 Y63.11 E0.16576
G1 X86.179 Y62.545 E0.23572
G1 X86.552 Y62.256 E0.27338
G1 X87.38 Y61.673 E0.35422
G1 X88.21 Y61.19 E0.43087
G1 X89.127 Y60.757 E0.51182
G1 X90.129 Y60.391 E0.59697
G1 X91.109 Y60.129 E0.67795
G1 X92.129 Y59.954 E0.76056
G1 X93.467 Y59.863 E0.86761
G1 X96.604 Y59.853 E1.11802
G1 X97.746 Y59.837 E1.20919
G1 X98.68 Y59.846 E1.28375
G1 X102.251 Y59.837 E1.5688
G1 X102.936 Y59.847 E1.62349
G1 X106.557 Y59.837 E1.91253
G1 X107.165 Y59.846 E1.96107
G1 X110.731 Y59.837 E2.24573
G1 X111.381 Y59.846 E2.29762
G1 X114.951 Y59.837 E2.58259
G1 X115.636 Y59.847 E2.63728
G1 X119.181 Y59.837 E2.92025
G1 X122.059 Y59.864 E3.15
G1 X123.229 Y59.861 E3.24339
G1 X124.296 Y59.909 E3.32865
G1 X125.299 Y60.044 E3.40944
G1 X126.234 Y60.254 E3.48593
G1 X127.15 Y60.541 E3.56256
G1 X128.049 Y60.908 E3.64007
G1 X128.494 Y61.114 E3.67921
G1 X129.347 Y61.556 E3.7559
G1 X130.246 Y62.128 E3.84096
G1 X131.048 Y62.746 E3.92178
G1 X131.756 Y63.396 E3.9985
G1 X132.475 Y64.185 E4.08371
G1 X133.1 Y65.013 E4.16652
G1 X133.842 Y66.244 E4.28125
G1 X134.042 Y66.632 E4.3161
G1 X134.48 Y67.587 E4.39996
G1 X134.845 Y68.634 E4.48847
G1 X135.056 Y69.368 E4.54944
G1 X143.088 Y99.557 E7.04309
G1 X143.309 Y100.442 E7.1159
G1 X143.559 Y101.796 E7.22581
G1 X143.838 Y104.099 E7.41099
G1 X144.213 Y106.634 E7.61555
G1 X144.64 Y109.038 E7.81045
G1 X145.152 Y111.52 E8.01274
G1 X145.728 Y113.96 E8.21287
G1 X146.374 Y116.382 E8.41296
G1 X147.265 Y119.38 E8.66262
G1 X147.51 Y120.377 E8.74457
G1 X147.684 Y121.57 E8.84081
G1 X147.842 Y123.506 E8.99586
G1 X148.021 Y125.181 E9.13033
G1 X148.143 Y126.45 E9.2321
G1 X148.191 Y127.482 E9.31456
G1 X148.112 Y128.919 E9.42944
G1 X147.943 Y129.995 E9.51639
G1 X147.69 Y131.015 E9.60028
G1 X147.473 Y131.672 E9.65551
G1 X147.24 Y132.307 E9.7095
G1 X146.637 Y133.88 E9.84397
G1 X145.821 Y136.205 E10.04066
G1 X145.052 Y138.615 E10.2426
G1 X144.366 Y140.987 E10.4397
G1 X143.732 Y143.442 E10.6421
G1 X143.181 Y145.855 E10.83967
G1 X142.675 Y148.401 E11.04688
G1 X142.448 Y149.658 E11.14884
G1 X142.328 Y150.227 E11.19526
G1 X142.073 Y151.207 E11.27609
G1 X141.755 Y152.104 E11.35206
G1 X141.466 Y152.765 E11.40965
G1 X141.251 Y153.215 E11.44946
G1 X140.825 Y154.016 E11.52188
G1 X140.213 Y154.955 E11.61135
G1 X139.572 Y155.763 E11.69368
G1 X138.694 Y156.668 E11.79433
G1 X138.296 Y157.033 E11.83744
G1 X137.599 Y157.615 E11.90992
G1 X136.677 Y158.253 E11.99942
G1 X135.84 Y158.728 E12.07624
G1 X134.85 Y159.18 E12.16311
G1 X134.483 Y159.325 E12.19461
G1 X133.525 Y159.656 E12.27552
G1 X132.646 Y159.878 E12.34789
M117 Time Left 0h55m05s
G1 X131.332 Y160.078 E12.45399
G1 X130.993 Y160.109 E12.48116
G1 X129.955 Y160.156 E12.5641
G1 X129.048 Y160.12 E12.63656
G1 X128.302 Y160.036 E12.69649
G1 X127.516 Y159.916 E12.75996
G1 X125.363 Y159.507 E12.93489
G1 X122.926 Y159.107 E13.13203
G1 X120.438 Y158.77 E13.33244
G1 X117.895 Y158.499 E13.53658
G1 X115.407 Y158.303 E13.7358
G1 X112.965 Y158.182 E13.93097
G1 X110.41 Y158.127 E14.13497
G1 X107.942 Y158.144 E14.33198
G1 X105.387 Y158.234 E14.53606
G1 X102.931 Y158.389 E14.7325
G1 X100.445 Y158.616 E14.93177
G1 X97.9 Y158.924 E15.1364
G1 X95.544 Y159.275 E15.32654
G1 X93.199 Y159.708 E15.5169
G1 X91.659 Y159.975 E15.64166
G1 X90.639 Y160.101 E15.7237
G1 X89.358 Y160.136 E15.82599
G1 X88.095 Y160.043 E15.92708
G1 X87.11 Y159.878 E16.00681
G1 X86.314 Y159.684 E16.07221
G1 X85.331 Y159.385 E16.15422
G1 X84.344 Y158.985 E16.23923
G1 X83.535 Y158.573 E16.3117
G1 X82.585 Y157.978 E16.40118
G1 X81.78 Y157.364 E16.482
G1 X81.107 Y156.755 E16.55445
G1 X80.404 Y156.001 E16.63674
G1 X80.059 Y155.594 E16.67933
G1 X79.439 Y154.792 E16.76025
G1 X78.919 Y153.984 E16.83695
G1 X78.434 Y153.061 E16.92018
G1 X78.194 Y152.518 E16.96757
G1 X78.016 Y152.079 E17.00538
G1 X77.686 Y151.146 E17.08438
G1 X77.409 Y150.069 E17.17315
G1 X76.716 Y146.683 E17.44904
G1 X76.159 Y144.323 E17.6426
G1 X75.497 Y141.835 E17.84811
G1 X74.805 Y139.498 E18.04267
G1 X74.025 Y137.121 E18.24237
G1 X73.155 Y134.696 E18.44802
G1 X72.61 Y133.276 E18.56943
G1 X72.291 Y132.312 E18.65049
G1 X72.06 Y131.328 E18.73117
G1 X71.927 Y130.43 E18.80363
G1 X71.861 Y129.363 E18.88897
G1 X71.843 Y128.078 E18.99155
G1 X71.835 Y125.555 E19.19295
G1 X71.81 Y124.36 E19.28836
G1 X71.831 Y123.452 E19.36086
G1 X71.95 Y122.366 E19.44807
G1 X72.045 Y121.84 E19.49074
G1 X72.144 Y121.366 E19.52939
G1 X72.627 Y118.839 E19.73476
G1 X73.02 Y116.407 E19.93141
G1 X73.356 Y113.89 E20.13411
G1 X73.619 Y111.375 E20.33596
G1 X73.804 Y108.945 E20.5305
G1 X73.945 Y105.52 E20.80413
G1 X74.029 Y103.147 E20.99367
G1 X74.074 Y102.432 E21.05086
G1 X74.186 Y101.411 E21.13284
G1 X74.321 Y100.694 E21.19108
G1 X74.471 Y100.027 E21.24566
G1 X81.815 Y69.604 E23.74391
G1 X81.998 Y68.896 E23.80228
G1 X82.262 Y68.028 E23.8747
G1 X82.682 Y66.99 E23.96409
G1 X83.118 Y66.14 E24.04034
G1 X83.584 Y65.381 E24.11144
G1 X84.106 Y64.638 E24.18392
G0 F6000 X84.597 Y64.983
G1 F600 X85.251 Y64.209 E24.26481
G1 X85.931 Y63.537 E24.34112
G1 X86.547 Y63.019 E24.40537
G1 X86.898 Y62.746 E24.44086
G1 X87.683 Y62.191 E24.5176
G1 X88.466 Y61.733 E24.59001
G1 X89.383 Y61.3 E24.67096
G1 X90.285 Y60.97 E24.74763
G1 X91.212 Y60.72 E24.82427
G1 X92.17 Y60.553 E24.9019
G1 X93.508 Y60.462 E25.00895
G1 X96.613 Y60.453 E25.2568
G1 X97.74 Y60.437 E25.34678
G1 X98.676 Y60.446 E25.42149
G1 X102.242 Y60.437 E25.70615
G1 X102.929 Y60.447 E25.76099
G1 X106.548 Y60.437 E26.04988
M117 Time Left 0h54m50s
G1 X107.158 Y60.446 E26.09858
G1 X110.723 Y60.437 E26.38315
G1 X111.375 Y60.446 E26.4352
G1 X114.942 Y60.437 E26.71994
G1 X115.629 Y60.447 E26.77478
G1 X119.175 Y60.437 E27.05784
G1 X122.055 Y60.464 E27.28774
G1 X123.231 Y60.461 E27.38162
G1 X124.217 Y60.504 E27.4604
G1 X125.169 Y60.63 E27.53705
G1 X126.055 Y60.827 E27.60951
G1 X126.971 Y61.114 E27.68613
G1 X127.821 Y61.463 E27.75948
G1 X128.218 Y61.647 E27.79441
G1 X129.071 Y62.089 E27.87109
G1 X129.881 Y62.604 E27.94771
G1 X130.643 Y63.189 E28.0244
G1 X131.313 Y63.801 E28.09683
G1 X131.997 Y64.548 E28.17768
G1 X132.586 Y65.323 E28.25539
G1 X133.309 Y66.52 E28.36701
G1 X133.497 Y66.883 E28.39965
G1 X133.913 Y67.785 E28.47894
G1 X134.278 Y68.832 E28.56744
G1 X134.476 Y69.522 E28.62475
G1 X142.506 Y99.703 E31.11774
G1 X142.719 Y100.551 E31.18753
G1 X142.963 Y101.868 E31.29445
M73 P1
G1 X143.244 Y104.187 E31.48092
G1 X143.622 Y106.739 E31.68685
G1 X144.051 Y109.154 E31.88264
G1 X144.568 Y111.658 E32.08674
G1 X145.148 Y114.115 E32.28826
G1 X145.794 Y116.537 E32.48835
G1 X146.683 Y119.524 E32.73712
G1 X146.916 Y120.464 E32.81443
G1 X147.086 Y121.624 E32.90801
G1 X147.154 Y122.379 E32.96853
G1 X147.245 Y123.57 E33.06387
G1 X147.424 Y125.239 E33.19786
G1 X147.544 Y126.48 E33.29739
G1 X147.592 Y127.45 E33.37491
G1 X147.519 Y128.826 E33.48491
G1 X147.35 Y129.902 E33.57185
G1 X147.12 Y130.827 E33.64793
G1 X146.91 Y131.465 E33.70155
G1 X146.68 Y132.092 E33.75486
G1 X146.077 Y133.665 E33.88934
G1 X145.249 Y136.023 E34.08883
G1 X144.48 Y138.433 E34.29076
G1 X143.785 Y140.837 E34.49052
G1 X143.151 Y143.292 E34.69292
G1 X142.592 Y145.738 E34.8932
G1 X142.087 Y148.284 E35.10039
G1 X141.861 Y149.535 E35.20187
G1 X141.747 Y150.077 E35.24608
G1 X141.507 Y151.007 E35.32275
G1 X141.189 Y151.904 E35.39872
G1 X140.925 Y152.506 E35.45119
G1 X140.721 Y152.933 E35.48896
G1 X140.295 Y153.734 E35.56138
G1 X139.742 Y154.583 E35.64226
G1 X139.141 Y155.345 E35.71973
G1 X138.263 Y156.25 E35.82038
G1 X137.911 Y156.572 E35.85846
G1 X137.214 Y157.154 E35.93095
G1 X136.381 Y157.731 E36.01184
G1 X135.544 Y158.206 E36.08866
G1 X134.629 Y158.622 E36.16889
G1 X134.286 Y158.758 E36.19834
G1 X133.378 Y159.074 E36.27509
G1 X132.499 Y159.296 E36.34746
G1 X131.277 Y159.48 E36.4461
G1 X130.938 Y159.511 E36.47328
G1 X129.979 Y159.556 E36.54991
G1 X129.072 Y159.52 E36.62237
G1 X128.392 Y159.443 E36.677
G1 X127.628 Y159.327 E36.73868
G1 X125.46 Y158.915 E36.91484
G1 X123.006 Y158.512 E37.11335
G1 X120.508 Y158.174 E37.31457
G1 X117.959 Y157.902 E37.5192
G1 X115.449 Y157.705 E37.72017
G1 X112.978 Y157.582 E37.91766
G1 X110.419 Y157.527 E38.12198
G1 X107.921 Y157.544 E38.32139
G1 X105.363 Y157.634 E38.5257
G1 X102.876 Y157.791 E38.72462
G1 X100.39 Y158.018 E38.92389
G1 X97.828 Y158.328 E39.12989
G1 X95.435 Y158.685 E39.32302
G1 X93.096 Y159.117 E39.51289
G1 X91.584 Y159.38 E39.6354
G1 X90.623 Y159.501 E39.71271
G1 X89.342 Y159.536 E39.81501
M117 Time Left 0h54m35s
G1 X88.193 Y159.451 E39.90698
G1 X87.252 Y159.295 E39.98312
G1 X86.456 Y159.101 E40.04852
G1 X85.555 Y158.828 E40.12367
G1 X84.616 Y158.45 E40.20447
G1 X83.807 Y158.038 E40.27694
G1 X82.948 Y157.5 E40.35785
G1 X82.183 Y156.919 E40.43453
G1 X81.51 Y156.31 E40.50698
G1 X80.861 Y155.612 E40.58306
G1 X80.533 Y155.226 E40.62349
G1 X79.944 Y154.467 E40.70018
G1 X79.424 Y153.659 E40.77688
G1 X78.983 Y152.818 E40.85268
G1 X78.75 Y152.291 E40.89868
G1 X78.582 Y151.879 E40.9342
G1 X78.252 Y150.946 E41.01319
G1 X77.997 Y149.949 E41.09534
G1 X77.304 Y146.563 E41.37123
G1 X76.743 Y144.185 E41.56626
G1 X76.077 Y141.681 E41.77309
G1 X75.375 Y139.311 E41.9704
G1 X74.59 Y136.918 E42.17143
G1 X73.72 Y134.493 E42.37709
G1 X73.179 Y133.086 E42.49742
G1 X72.875 Y132.174 E42.57416
G1 X72.654 Y131.24 E42.65077
G1 X72.521 Y130.342 E42.72323
G1 X72.461 Y129.355 E42.80217
G1 X72.443 Y128.076 E42.90427
G1 X72.435 Y125.553 E43.10567
G1 X72.41 Y124.374 E43.1998
G1 X72.431 Y123.466 E43.2723
G1 X72.541 Y122.472 E43.35213
G1 X72.632 Y121.963 E43.39341
G1 X72.731 Y121.489 E43.43206
G1 X73.216 Y118.952 E43.63824
G1 X73.615 Y116.486 E43.83765
G1 X73.951 Y113.969 E44.04035
G1 X74.216 Y111.437 E44.24357
G1 X74.402 Y108.99 E44.43946
G1 X74.545 Y105.541 E44.71501
G1 X74.628 Y103.185 E44.9032
G1 X74.673 Y102.47 E44.96038
G1 X74.776 Y101.521 E45.03658
G1 X74.906 Y100.826 E45.09302
G1 X75.054 Y100.168 E45.14686
G1 X82.396 Y69.754 E47.64437
G1 X82.572 Y69.071 E47.70067
G1 X82.836 Y68.203 E47.7731
G1 X83.216 Y67.264 E47.85396
G1 X83.652 Y66.414 E47.93021
G1 X84.075 Y65.726 E47.99468
G1 X84.597 Y64.983 E48.06716
G0 F6000 X85.088 Y65.328
G1 F600 X85.674 Y64.635 E48.13961
G1 X86.318 Y63.996 E48.21203
G1 X86.916 Y63.492 E48.27445
G1 X87.246 Y63.235 E48.30784
G1 X87.986 Y62.709 E48.38032
G1 X88.769 Y62.251 E48.45272
G1 X89.59 Y61.863 E48.52521
G1 X90.442 Y61.549 E48.59769
G1 X91.317 Y61.311 E48.67008
G1 X92.211 Y61.152 E48.74256
G1 X93.549 Y61.061 E48.84961
G1 X96.622 Y61.053 E49.09491
G1 X97.734 Y61.037 E49.18369
G1 X98.672 Y61.046 E49.25856
G1 X102.233 Y61.037 E49.54282
G1 X102.922 Y61.047 E49.59782
G1 X106.539 Y61.037 E49.88655
G1 X107.151 Y61.046 E49.93541
G1 X110.715 Y61.037 E50.2199
G1 X111.369 Y61.046 E50.27211
G1 X114.933 Y61.037 E50.55661
G1 X115.622 Y61.047 E50.61161
G1 X119.169 Y61.037 E50.89475
G1 X122.051 Y61.064 E51.12481
G1 X123.233 Y61.061 E51.21917
G1 X124.14 Y61.099 E51.29163
G1 X125.039 Y61.216 E51.364
G1 X125.925 Y61.413 E51.43645
G1 X126.791 Y61.686 E51.50893
G1 X127.57 Y62.008 E51.57622
G1 X127.943 Y62.18 E51.60901
G1 X128.75 Y62.596 E51.68148
G1 X129.517 Y63.081 E51.75392
G1 X130.238 Y63.632 E51.82635
G1 X130.908 Y64.244 E51.89879
G1 X131.521 Y64.913 E51.97122
G1 X132.073 Y65.633 E52.04364
G1 X132.776 Y66.796 E52.15212
G1 X132.964 Y67.159 E52.18475
G1 X133.346 Y67.983 E52.25725
G1 X133.711 Y69.03 E52.34576
M117 Time Left 0h54m20s
G1 X133.896 Y69.676 E52.3994
G1 X141.924 Y99.85 E54.89181
G1 X142.129 Y100.661 E54.95858
G1 X142.367 Y101.94 E55.06243
G1 X142.65 Y104.275 E55.25018
G1 X143.031 Y106.844 E55.4575
G1 X143.463 Y109.275 E55.65459
G1 X143.984 Y111.796 E55.86008
G1 X144.568 Y114.27 E56.06299
G1 X145.214 Y116.692 E56.26308
G1 X146.101 Y119.67 E56.51112
G1 X146.322 Y120.551 E56.58363
G1 X146.488 Y121.678 E56.67456
G1 X146.556 Y122.425 E56.73443
G1 X146.648 Y123.634 E56.83122
G1 X146.827 Y125.297 E56.96473
G1 X146.945 Y126.512 E57.06218
G1 X146.993 Y127.419 E57.13468
G1 X146.926 Y128.734 E57.23978
G1 X146.767 Y129.759 E57.32258
G1 X146.55 Y130.64 E57.39501
G1 X146.347 Y131.258 E57.44694
G1 X146.12 Y131.877 E57.49956
G1 X145.517 Y133.45 E57.63404
G1 X144.677 Y135.841 E57.83633
G1 X143.908 Y138.251 E58.03827
G1 X143.204 Y140.687 E58.24068
G1 X142.57 Y143.142 E58.44307
G1 X142.003 Y145.621 E58.64607
G1 X141.498 Y148.167 E58.85326
G1 X141.274 Y149.412 E58.95424
G1 X141.166 Y149.928 E58.99632
G1 X140.941 Y150.807 E59.06875
G1 X140.639 Y151.663 E59.1412
G1 X140.383 Y152.248 E59.19218
G1 X140.191 Y152.651 E59.22781
G1 X139.765 Y153.452 E59.30023
G1 X139.27 Y154.213 E59.3727
G1 X138.71 Y154.927 E59.44513
G1 X137.832 Y155.832 E59.54578
G1 X137.526 Y156.111 E59.57884
G1 X136.829 Y156.693 E59.65132
G1 X136.083 Y157.21 E59.72377
G1 X135.295 Y157.66 E59.79621
G1 X134.406 Y158.065 E59.87419
G1 X134.088 Y158.192 E59.90152
G1 X133.231 Y158.492 E59.974
G1 X132.352 Y158.714 E60.04637
G1 X131.221 Y158.883 E60.13765
G1 X130.909 Y158.912 E60.16267
G1 X130.003 Y158.956 E60.23507
G1 X129.096 Y158.92 E60.30753
G1 X128.482 Y158.85 E60.35686
G1 X127.733 Y158.736 E60.41734
G1 X127.189 Y158.639 E60.46145
M73 P2
G1 X125.567 Y158.325 E60.59333
G1 X123.086 Y157.917 E60.79403
G1 X120.578 Y157.578 E60.99605
G1 X118.023 Y157.305 E61.20116
G1 X115.491 Y157.107 E61.40389
G1 X112.991 Y156.982 E61.6037
G1 X110.428 Y156.927 E61.80834
G1 X107.9 Y156.944 E62.01014
G1 X105.339 Y157.034 E62.2147
G1 X102.838 Y157.192 E62.41474
G1 X100.318 Y157.423 E62.61674
G1 X97.756 Y157.732 E62.82273
G1 X95.326 Y158.095 E63.01885
G1 X92.993 Y158.526 E63.20824
G1 X91.507 Y158.785 E63.32864
G1 X90.607 Y158.901 E63.40108
G1 X89.326 Y158.936 E63.50337
G1 X88.29 Y158.859 E63.5863
G1 X87.394 Y158.712 E63.65878
G1 X86.598 Y158.518 E63.72418
G1 X85.729 Y158.254 E63.79668
G1 X84.888 Y157.915 E63.86906
G1 X84.079 Y157.503 E63.94153
G1 X83.31 Y157.021 E64.01397
G1 X82.586 Y156.474 E64.08641
G1 X81.913 Y155.865 E64.15886
G1 X81.318 Y155.223 E64.22873
G1 X81.006 Y154.857 E64.26712
G1 X80.448 Y154.141 E64.33958
G1 X79.955 Y153.379 E64.41203
G1 X79.532 Y152.576 E64.48448
G1 X79.306 Y152.064 E64.52915
G1 X79.138 Y151.652 E64.56467
G1 X78.833 Y150.797 E64.63713
G1 X78.585 Y149.829 E64.71689
G1 X77.892 Y146.443 E64.99278
G1 X77.327 Y144.047 E65.18929
G1 X76.657 Y141.527 E65.39743
G1 X75.945 Y139.124 E65.59749
G1 X75.155 Y136.715 E65.79987
M117 Time Left 0h54m05s
G1 X74.285 Y134.29 E66.00552
G1 X73.748 Y132.895 E66.12484
G1 X73.459 Y132.035 E66.19726
G1 X73.248 Y131.152 E66.26973
G1 X73.115 Y130.254 E66.3422
G1 X73.061 Y129.347 E66.41473
G1 X73.043 Y128.074 E66.51635
G1 X73.035 Y125.551 E66.71775
G1 X73.01 Y124.388 E66.81061
G1 X73.031 Y123.48 E66.88311
G1 X73.131 Y122.578 E66.95555
G1 X73.22 Y122.084 E66.99562
G1 X73.318 Y121.61 E67.03425
G1 X73.805 Y119.065 E67.24109
G1 X74.21 Y116.565 E67.44326
G1 X74.546 Y114.048 E67.64596
G1 X74.813 Y111.5 E67.85046
G1 X75 Y109.035 E68.04779
G1 X75.145 Y105.562 E68.32527
G1 X75.227 Y103.222 E68.51217
G1 X75.27 Y102.533 E68.56728
G1 X75.366 Y101.631 E68.63968
G1 X75.492 Y100.957 E68.69442
G1 X75.637 Y100.309 E68.74742
G1 X82.977 Y69.903 E71.24428
G1 X83.146 Y69.246 E71.29843
G1 X83.41 Y68.378 E71.37085
G1 X83.75 Y67.537 E71.44326
G1 X84.163 Y66.728 E71.51577
