;FLAVOR:Marlin
M73 P0


; Pre-Processed for Cancel-Object support by preprocess_cancellation v0.2.0
; 1 known objects
EXCLUDE_OBJECT_DEFINE NAME=cat_peeking_hairpin_v2_stl CENTER=109.640,121.196 POLYGON=[[72.86,60.883],[72.86,159.106],[147.143,159.106],[147.143,60.883]]
M117 Time Left 0h29m15s
;TIME:1755
;Filament used: 2.42136m
;Layer height: 0.3
;MINX:71.06
;MINY:59.083
;MINZ:0.42
;MAXX:148.941
;MAXY:160.904
;MAXZ:2.72
;TARGET_MACHINE.NAME:Creality Ender-3
;POSTPROCESSED
;  [InsertAtLayerChange]
;  [MeshPrintSize]
;  [DisplayProgressOnLCD]
;  [DisplayFilenameAndLayerOnLCD]
;Generated with Cura_SteamEngine 5.6.0
M82 ;absolute extrusion mode
;Nozzle diameter = 0.6
;Filament type = PLA
;Filament name = Purple/Pink
START_PRINT PRINT_MIN=71.06,59.083 PRINT_MAX=148.941,160.904 BED_TEMP=65 EXTRUDER_TEMP=200.0
G92 E0
G92 E0
G1 F2700 E-5
;LAYER_COUNT:8
TIMELAPSE_TAKE_FRAME
;LAYER:0
M117 Printing cat_peeking_hairpin_v2 - Layer 0 of 7
M107
G1 F300 Z0.62
G0 F6000 X83.708 Y63.953 Z0.62
;TYPE:SKIRT
G1 F300 Z0.42
G1 F2700 E0
G1 F600 X84.428 Y63.159 E0.16844
G1 X85.192 Y62.449 E0.33235
G1 X86.195 Y61.652 E0.53368
G1 X87.067 Y61.036 E0.70146
G1 X87.854 Y60.571 E0.84512
G1 X88.89 Y60.073 E1.02577
G1 X89.972 Y59.67 E1.20722
G1 X90.929 Y59.407 E1.36319
G1 X92.058 Y59.201 E1.54355
G1 X93.097 Y59.105 E1.70753
G1 X93.72 Y59.091 E1.80546
G1 X96.727 Y59.099 E2.27802
G1 X97.997 Y59.088 E2.47761
G1 X98.516 Y59.095 E2.55919
G1 X100.929 Y59.083 E2.9384
G1 X101.278 Y59.096 E2.99329
G1 X102.23 Y59.088 E3.1429
G1 X102.749 Y59.095 E3.22447
G1 X105.162 Y59.083 E3.60369
G1 X105.511 Y59.096 E3.65858
G1 X106.467 Y59.088 E3.80882
G1 X106.986 Y59.096 E3.89039
G1 X109.394 Y59.083 E4.26883
G1 X109.745 Y59.096 E4.32403
G1 X110.697 Y59.088 E4.47364
G1 X111.216 Y59.095 E4.55521
G1 X113.629 Y59.083 E4.93443
G1 X113.978 Y59.096 E4.98931
G1 X114.93 Y59.088 E5.13893
G1 X115.449 Y59.095 E5.2205
G1 X117.862 Y59.083 E5.59972
G1 X118.214 Y59.096 E5.65507
G1 X119.011 Y59.088 E5.78033
G1 X122.063 Y59.1 E6.25997
G1 X123.108 Y59.091 E6.4242
G1 X124.26 Y59.138 E6.60539
G1 X125.246 Y59.263 E6.76159
G1 X126.215 Y59.467 E6.91721
G1 X127.39 Y59.827 E7.11034
G1 X128.309 Y60.204 E7.26644
G1 X129.263 Y60.693 E7.43492
G1 X130.202 Y61.283 E7.6092
G1 X130.617 Y61.584 E7.68976
G1 X131.221 Y62.043 E7.80898
G1 X131.955 Y62.652 E7.95887
G1 X132.83 Y63.519 E8.15245
G1 X133.469 Y64.279 E8.30849
G1 X134.129 Y65.218 E8.48887
G1 X134.626 Y66.079 E8.6451
G1 X135.123 Y67.15 E8.83065
G1 X135.571 Y68.446 E9.04615
G1 X135.847 Y69.423 E9.2057
G1 X143.811 Y99.357 E14.0736
G1 X144.047 Y100.309 E14.22774
G1 X144.287 Y101.602 E14.43441
G1 X144.57 Y103.926 E14.80233
G1 X144.934 Y106.396 E15.19469
G1 X145.359 Y108.803 E15.57882
G1 X145.876 Y111.319 E15.98248
G1 X146.426 Y113.668 E16.36162
G1 X147.06 Y116.051 E16.74914
G1 X147.972 Y119.118 E17.25199
G1 X148.214 Y120.081 E17.40804
G1 X148.43 Y121.512 E17.63547
G1 X148.503 Y122.326 E17.76391
G1 X148.586 Y123.417 E17.93586
G1 X148.768 Y125.11 E18.20345
G1 X148.889 Y126.364 E18.40144
G1 X148.941 Y127.506 E18.5811
G1 X148.853 Y129.028 E18.82068
G1 X148.663 Y130.214 E19.00945
G1 X148.427 Y131.166 E19.16359
G1 X148.178 Y131.931 E19.29002
G1 X147.94 Y132.575 E19.39791
G1 X147.362 Y134.081 E19.65142
G1 X146.511 Y136.506 E20.0553
G1 X145.782 Y138.791 E20.43223
G1 X145.077 Y141.23 E20.83122
G1 X144.47 Y143.579 E21.21251
G1 X143.915 Y146.004 E21.60346
G1 X143.416 Y148.524 E22.00718
G1 X143.247 Y149.477 E22.15928
G1 X143.066 Y150.362 E22.30124
G1 X142.784 Y151.442 E22.47666
G1 X142.433 Y152.429 E22.64129
G1 X142.168 Y153.035 E22.74523
G1 X141.933 Y153.526 E22.83077
G1 X141.407 Y154.503 E23.00515
G1 X140.909 Y155.27 E23.14887
G1 X140.13 Y156.262 E23.34709
G1 X139.188 Y157.233 E23.55969
G1 X138.812 Y157.577 E23.63978
G1 X137.951 Y158.287 E23.81516
G1 X137.068 Y158.893 E23.98347
G1 X136.13 Y159.423 E24.15278
G1 X135.21 Y159.843 E24.31172
G1 X134.775 Y160.018 E24.3854
G1 X133.798 Y160.356 E24.54787
G1 X132.75 Y160.621 E24.71775
G1 X131.4 Y160.824 E24.9323
G1 X131.011 Y160.859 E24.99368
G1 X130.098 Y160.904 E25.13733
G1 X128.891 Y160.859 E25.32715
G1 X128.191 Y160.778 E25.43789
G1 X127.389 Y160.656 E25.56538
G1 X126.665 Y160.526 E25.68098
G1 X125.18 Y160.238 E25.9187
G1 X122.818 Y159.849 E26.2949
M117 Time Left 0h29m00s
G1 X120.329 Y159.513 E26.6896
G1 X117.805 Y159.243 E27.08852
G1 X115.417 Y159.056 E27.46496
G1 X112.921 Y158.932 E27.8577
G1 X110.399 Y158.877 E28.25413
G1 X107.919 Y158.894 E28.64389
G1 X105.462 Y158.979 E29.03024
G1 X102.961 Y159.138 E29.42408
G1 X100.564 Y159.359 E29.80238
G1 X98.011 Y159.667 E30.2065
G1 X95.633 Y160.02 E30.58431
G1 X93.327 Y160.448 E30.95289
G1 X91.801 Y160.713 E31.1963
G1 X90.673 Y160.85 E31.37487
G1 X89.19 Y160.882 E31.60799
G1 X88.147 Y160.805 E31.77234
G1 X86.951 Y160.611 E31.96276
G1 X86.033 Y160.385 E32.11133
G1 X85.014 Y160.068 E32.27904
G1 X84.166 Y159.727 E32.42268
G1 X83.071 Y159.171 E32.61568
G1 X82.295 Y158.688 E32.75932
M73 P1
G1 X81.31 Y157.946 E32.95313
G1 X80.519 Y157.226 E33.12122
G1 X79.833 Y156.488 E33.27957
G1 X79.495 Y156.09 E33.36163
G1 X78.817 Y155.211 E33.53608
G1 X78.321 Y154.444 E33.67963
G1 X77.759 Y153.384 E33.86818
G1 X77.501 Y152.799 E33.96866
G1 X77.305 Y152.313 E34.05101
G1 X76.948 Y151.295 E34.22055
G1 X76.674 Y150.221 E34.39474
G1 X75.982 Y146.841 E34.93693
G1 X75.44 Y144.539 E35.3086
G1 X74.779 Y142.056 E35.7124
G1 X74.078 Y139.686 E36.10081
G1 X73.316 Y137.362 E36.48516
G1 X72.452 Y134.955 E36.88706
G1 X71.914 Y133.556 E37.12262
G1 X71.566 Y132.501 E37.2972
G1 X71.337 Y131.536 E37.45307
G1 X71.187 Y130.558 E37.60856
G1 X71.111 Y129.375 E37.79486
G1 X71.093 Y128.081 E37.99824
G1 X71.085 Y125.56 E38.39442
G1 X71.06 Y124.346 E38.58525
G1 X71.086 Y123.356 E38.74089
G1 X71.212 Y122.228 E38.91926
G1 X71.889 Y118.703 E39.48335
G1 X72.277 Y116.308 E39.86464
G1 X72.615 Y113.775 E40.26624
G1 X72.871 Y111.319 E40.6543
G1 X73.052 Y108.926 E41.03145
G1 X73.197 Y105.48 E41.57348
G1 X73.281 Y103.1 E41.94774
G1 X73.33 Y102.331 E42.06884
G1 X73.447 Y101.284 E42.2344
G1 X73.593 Y100.512 E42.35788
G1 X73.756 Y99.788 E42.4745
G1 X81.076 Y69.47 E47.37601
G1 X81.277 Y68.683 E47.50366
G1 X81.541 Y67.808 E47.64729
G1 X82 Y66.665 E47.84086
G1 X82.487 Y65.713 E48.00891
G1 X82.969 Y64.937 E48.15247
G1 X83.708 Y63.953 E48.34587
G0 F6000 X84.377 Y64.555
G1 F600 X85.042 Y63.817 E48.50199
G1 X85.753 Y63.153 E48.65487
G1 X86.716 Y62.386 E48.84835
G1 X87.525 Y61.811 E49.00433
G1 X88.312 Y61.346 E49.14798
G1 X89.207 Y60.915 E49.30409
G1 X90.21 Y60.538 E49.47249
G1 X91.167 Y60.275 E49.62846
G1 X92.143 Y60.097 E49.78437
G1 X93.118 Y60.005 E49.93828
G1 X93.718 Y59.991 E50.0326
G1 X96.733 Y59.999 E50.50642
G1 X97.985 Y59.988 E50.70318
G1 X98.508 Y59.995 E50.78538
G1 X100.933 Y59.983 E51.16648
G1 X101.273 Y59.996 E51.21996
G1 X102.218 Y59.988 E51.36847
G1 X102.741 Y59.995 E51.45067
G1 X105.166 Y59.983 E51.83177
G1 X105.506 Y59.996 E51.88525
G1 X106.453 Y59.988 E52.03408
G1 X106.977 Y59.996 E52.11643
G1 X109.399 Y59.983 E52.49707
G1 X109.74 Y59.996 E52.5507
G1 X110.685 Y59.988 E52.69921
G1 X111.208 Y59.995 E52.78141
G1 X113.633 Y59.983 E53.16251
G1 X113.973 Y59.996 E53.21599
G1 X114.918 Y59.988 E53.3645
G1 X115.441 Y59.995 E53.4467
G1 X117.866 Y59.983 E53.8278
G1 X118.21 Y59.996 E53.8819
G1 X119.007 Y59.988 E54.00716
G1 X122.067 Y60 E54.48806
G1 X123.116 Y59.991 E54.65292
G1 X124.147 Y60.031 E54.81507
G1 X125.133 Y60.156 E54.97126
G1 X126.027 Y60.347 E55.11493
G1 X127.051 Y60.661 E55.28325
G1 X127.898 Y61.005 E55.42692
G1 X128.852 Y61.494 E55.59539
G1 X129.674 Y62.012 E55.74808
G1 X130.073 Y62.301 E55.82551
G1 X130.646 Y62.736 E55.93856
G1 X131.38 Y63.345 E56.08845
G1 X132.141 Y64.098 E56.2567
G1 X132.78 Y64.858 E56.41274
M117 Time Left 0h28m45s
G1 X133.351 Y65.671 E56.56887
G1 X133.811 Y66.461 E56.71253
G1 X134.273 Y67.445 E56.88337
G1 X134.705 Y68.69 E57.09047
G1 X134.977 Y69.654 E57.24788
G1 X142.938 Y99.575 E62.11368
G1 X143.162 Y100.473 E62.25913
G1 X143.402 Y101.766 E62.4658
G1 X143.68 Y104.057 E62.82849
G1 X144.048 Y106.552 E63.22483
G1 X144.477 Y108.984 E63.61293
G1 X144.996 Y111.508 E64.01788
G1 X145.556 Y113.899 E64.40381
G1 X146.197 Y116.308 E64.79556
G1 X147.109 Y119.375 E65.29841
G1 X147.341 Y120.3 E65.44828
G1 X147.534 Y121.593 E65.65374
G1 X147.606 Y122.394 E65.78012
G1 X147.691 Y123.513 E65.95649
G1 X147.872 Y125.196 E66.2225
G1 X147.993 Y126.45 E66.42049
G1 X148.042 Y127.457 E66.57893
G1 X147.964 Y128.888 E66.80415
G1 X147.789 Y129.997 E66.98059
G1 X147.553 Y130.949 E67.13473
G1 X147.333 Y131.62 E67.2457
G1 X147.1 Y132.253 E67.35171
G1 X146.513 Y133.783 E67.60924
G1 X145.662 Y136.208 E68.01313
G1 X144.917 Y138.541 E68.39801
G1 X144.212 Y140.98 E68.797
G1 X143.593 Y143.378 E69.18621
G1 X143.032 Y145.829 E69.58135
G1 X142.533 Y148.349 E69.98507
G1 X142.365 Y149.297 E70.13637
G1 X142.184 Y150.182 E70.27833
G1 X141.935 Y151.142 E70.43419
G1 X141.608 Y152.068 E70.58853
G1 X141.343 Y152.674 E70.69247
G1 X141.121 Y153.138 E70.7733
G1 X140.652 Y154.013 E70.92932
G1 X140.154 Y154.78 E71.07304
G1 X139.483 Y155.636 E71.24397
G1 X138.58 Y156.569 E71.44802
G1 X138.204 Y156.913 E71.52811
M73 P2
G1 X137.439 Y157.547 E71.68425
G1 X136.623 Y158.111 E71.84014
G1 X135.756 Y158.604 E71.99688
G1 X134.836 Y159.024 E72.15581
G1 X134.478 Y159.168 E72.21646
G1 X133.577 Y159.483 E72.36646
G1 X132.529 Y159.748 E72.53634
G1 X131.318 Y159.928 E72.72874
G1 X130.967 Y159.96 E72.78413
G1 X130.054 Y160.005 E72.92779
G1 X128.994 Y159.965 E73.09449
G1 X128.326 Y159.888 E73.20016
G1 X127.548 Y159.77 E73.32383
G1 X126.836 Y159.642 E73.43752
G1 X125.351 Y159.354 E73.67524
G1 X122.947 Y158.958 E74.05813
G1 X120.434 Y158.619 E74.45663
G1 X117.901 Y158.348 E74.85698
G1 X115.462 Y158.157 E75.24145
G1 X112.95 Y158.032 E75.63671
G1 X110.413 Y157.977 E76.0355
G1 X107.913 Y157.994 E76.4284
G1 X105.408 Y158.081 E76.82231
G1 X102.893 Y158.241 E77.21835
G1 X100.456 Y158.465 E77.60295
G1 X97.903 Y158.773 E78.00707
G1 X95.476 Y159.134 E78.39268
G1 X93.173 Y159.561 E78.76077
G1 X91.647 Y159.826 E79.00418
G1 X90.651 Y159.95 E79.16191
G1 X89.256 Y159.984 E79.38121
G1 X88.213 Y159.907 E79.54557
G1 X87.165 Y159.737 E79.71242
G1 X86.298 Y159.525 E79.85268
G1 X85.35 Y159.233 E80.00857
G1 X84.502 Y158.892 E80.15221
G1 X83.547 Y158.407 E80.32054
G1 X82.771 Y157.924 E80.46418
G1 X81.914 Y157.279 E80.63275
G1 X81.178 Y156.613 E80.78874
G1 X80.518 Y155.904 E80.94097
G1 X80.206 Y155.538 E81.01655
G1 X79.573 Y154.722 E81.17885
G1 X79.077 Y153.955 E81.32239
G1 X78.582 Y153.021 E81.48851
G1 X78.335 Y152.461 E81.5847
G1 X78.153 Y152.012 E81.66084
G1 X77.82 Y151.072 E81.81756
G1 X77.556 Y150.04 E81.98496
G1 X76.864 Y146.66 E82.52716
G1 X76.31 Y144.307 E82.90706
G1 X75.649 Y141.824 E83.31086
G1 X74.941 Y139.431 E83.70305
G1 X74.163 Y137.058 E84.0955
G1 X73.299 Y134.651 E84.49741
G1 X72.768 Y133.272 E84.72963
G1 X72.442 Y132.293 E84.89179
G1 X72.213 Y131.328 E85.04766
G1 X72.077 Y130.424 E85.19132
G1 X72.011 Y129.362 E85.35854
G1 X71.993 Y128.078 E85.56035
G1 X71.985 Y125.557 E85.95654
G1 X71.96 Y124.37 E86.14312
G1 X71.986 Y123.38 E86.29876
G1 X72.096 Y122.398 E86.45405
G1 X72.773 Y118.873 E87.01814
G1 X73.168 Y116.436 E87.40612
G1 X73.507 Y113.894 E87.80914
G1 X73.766 Y111.412 E88.20132
G1 X73.951 Y108.972 E88.58588
G1 X74.096 Y105.518 E89.12916
M117 Time Left 0h28m30s
G1 X74.179 Y103.157 E89.50043
G1 X74.225 Y102.429 E89.61507
G1 X74.332 Y101.45 E89.76984
G1 X74.471 Y100.71 E89.88817
G1 X74.631 Y99.999 E90.0027
G1 X81.948 Y69.692 E94.90241
G1 X82.139 Y68.943 E95.02389
G1 X82.403 Y68.068 E95.16752
G1 X82.802 Y67.073 E95.33599
G1 X83.252 Y66.188 E95.49202
G1 X83.734 Y65.412 E95.63558
G1 X84.377 Y64.555 E95.80396
G0 F6000 X85.047 Y65.155
G1 F600 X85.657 Y64.474 E95.94764
G1 X86.324 Y63.849 E96.09129
G1 X86.679 Y63.558 E96.16342
G1 X87.24 Y63.118 E96.27547
G1 X87.983 Y62.586 E96.41908
G1 X88.77 Y62.121 E96.56274
G1 X89.595 Y61.727 E96.70642
G1 X90.451 Y61.405 E96.85014
G1 X91.331 Y61.16 E96.9937
G1 X92.23 Y60.993 E97.1374
G1 X93.14 Y60.905 E97.28107
G1 X93.716 Y60.891 E97.37162
G1 X96.739 Y60.899 E97.8467
G1 X97.973 Y60.888 E98.04064
G1 X98.5 Y60.895 E98.12346
G1 X100.937 Y60.883 E98.50645
G1 X101.266 Y60.896 E98.5582
G1 X102.206 Y60.888 E98.70593
G1 X102.733 Y60.895 E98.78876
G1 X105.17 Y60.883 E99.17174
G1 X105.499 Y60.896 E99.22349
G1 X106.439 Y60.888 E99.37122
G1 X106.968 Y60.896 E99.45436
G1 X109.404 Y60.883 E99.8372
G1 X109.733 Y60.896 E99.88894
G1 X110.673 Y60.888 E100.03667
G1 X111.2 Y60.895 E100.1195
G1 X113.637 Y60.883 E100.50249
G1 X113.966 Y60.896 E100.55423
G1 X114.906 Y60.888 E100.70196
G1 X115.433 Y60.895 E100.78479
G1 X117.87 Y60.883 E101.16778
G1 X118.205 Y60.896 E101.22046
G1 X119.003 Y60.888 E101.34588
G1 X122.071 Y60.9 E101.82803
G1 X123.124 Y60.891 E101.99352
G1 X124.037 Y60.924 E102.1371
G1 X124.945 Y61.036 E102.28087
G1 X125.839 Y61.227 E102.42454
G1 X126.712 Y61.495 E102.56806
G1 X127.559 Y61.839 E102.71172
G1 X128.373 Y62.256 E102.85546
G1 X129.147 Y62.742 E102.99909
G1 X129.529 Y63.018 E103.07315
G1 X130.102 Y63.453 E103.18621
G1 X130.805 Y64.037 E103.32983
G1 X131.454 Y64.68 E103.47341
G1 X132.045 Y65.378 E103.61714
G1 X132.573 Y66.124 E103.76077
G1 X133.033 Y66.914 E103.90444
G1 X133.423 Y67.741 E104.04813
G1 X133.839 Y68.934 E104.24669
G1 X134.107 Y69.885 E104.40196
M73 P3
G1 X142.065 Y99.794 E109.26582
G1 X142.277 Y100.637 E109.40243
G1 X142.517 Y101.93 E109.6091
G1 X142.79 Y104.188 E109.96654
G1 X143.162 Y106.708 E110.36686
G1 X143.595 Y109.165 E110.75893
G1 X144.114 Y111.689 E111.16389
G1 X144.686 Y114.131 E111.55805
G1 X145.334 Y116.565 E111.95388
G1 X146.246 Y119.632 E112.45673
G1 X146.468 Y120.519 E112.60043
G1 X146.638 Y121.674 E112.7839
G1 X146.709 Y122.462 E112.90824
G1 X146.796 Y123.609 E113.08901
G1 X146.976 Y125.283 E113.3536
G1 X147.094 Y126.498 E113.54544
G1 X147.143 Y127.411 E113.68913
G1 X147.075 Y128.75 E113.89983
G1 X146.915 Y129.782 E114.06395
G1 X146.697 Y130.67 E114.20765
G1 X146.488 Y131.31 E114.31346
G1 X146.26 Y131.931 E114.41742
G1 X145.664 Y133.485 E114.67898
G1 X144.813 Y135.91 E115.08286
G1 X144.052 Y138.291 E115.4757
G1 X143.347 Y140.73 E115.87469
G1 X142.716 Y143.177 E116.27182
G1 X142.149 Y145.654 E116.67116
G1 X141.65 Y148.174 E117.07488
G1 X141.483 Y149.118 E117.22554
G1 X141.312 Y149.959 E117.36041
G1 X141.086 Y150.844 E117.50395
G1 X140.783 Y151.707 E117.64769
G1 X140.518 Y152.313 E117.75164
G1 X140.326 Y152.716 E117.82179
G1 X139.897 Y153.523 E117.96542
G1 X139.399 Y154.29 E118.10914
G1 X138.836 Y155.01 E118.25277
G1 X137.933 Y155.943 E118.45682
G1 X137.627 Y156.222 E118.5219
G1 X136.925 Y156.808 E118.66561
G1 X136.175 Y157.33 E118.80921
G1 X135.382 Y157.785 E118.95289
G1 X134.462 Y158.205 E119.11183
G1 X134.144 Y158.332 E119.16564
G1 X133.281 Y158.633 E119.30928
G1 X132.395 Y158.858 E119.45294
G1 X131.235 Y159.032 E119.63727
G1 X130.923 Y159.061 E119.68652
M117 Time Left 0h28m15s
G1 X130.01 Y159.106 E119.83017
G1 X129.097 Y159.071 E119.97376
G1 X128.461 Y158.998 E120.07437
G1 X127.707 Y158.884 E120.19421
G1 X127.007 Y158.758 E120.30598
G1 X125.522 Y158.47 E120.54371
G1 X123.072 Y158.067 E120.93391
G1 X120.543 Y157.725 E121.33497
G1 X117.997 Y157.453 E121.73736
G1 X115.507 Y157.258 E122.12987
G1 X112.979 Y157.132 E122.52765
G1 X110.426 Y157.077 E122.92896
G1 X107.907 Y157.094 E123.32484
G1 X105.354 Y157.183 E123.7263
G1 X102.826 Y157.344 E124.12439
G1 X100.348 Y157.571 E124.51545
G1 X97.795 Y157.879 E124.91957
G1 X95.323 Y158.247 E125.31234
G1 X93.018 Y158.674 E125.68074
G1 X91.532 Y158.933 E125.91779
G1 X90.626 Y159.05 E126.06135
G1 X89.322 Y159.086 E126.26636
G1 X88.279 Y159.009 E126.43072
G1 X87.377 Y158.862 E126.57434
G1 X86.56 Y158.664 E126.70645
G1 X85.686 Y158.398 E126.85003
G1 X84.838 Y158.057 E126.99367
G1 X84.023 Y157.643 E127.13732
G1 X83.247 Y157.16 E127.28097
G1 X82.516 Y156.61 E127.42473
G1 X81.836 Y155.999 E127.5684
G1 X81.203 Y155.32 E127.71429
G1 X80.891 Y154.954 E127.78987
G1 X80.329 Y154.233 E127.93353
G1 X79.833 Y153.466 E128.07708
G1 X79.405 Y152.658 E128.22077
G1 X79.168 Y152.121 E128.31302
G1 X79 Y151.709 E128.38294
G1 X78.692 Y150.848 E128.52665
G1 X78.438 Y149.859 E128.68712
