;FLAVOR:Marlin
M73 P0


; Pre-Processed for Cancel-Object support by preprocess_cancellation v0.2.0
; 1 known objects
EXCLUDE_OBJECT_DEFINE NAME=Circle_Adapter_Bottom_stl CENTER=108.992,109.953 POLYGON=[[82.2,79.575],[82.2,140.427],[137.802,140.427],[137.802,79.575]]
M117 Time Left 0h24m31s
;TIME:1471
;Filament used: 1.98503m
;Layer height: 0.3
;MINX:80.4
;MINY:77.775
;MINZ:0.45
;MAXX:139.6
;MAXY:142.227
;MAXZ:10.25
;TARGET_MACHINE.NAME:Creality Ender-3
;POSTPROCESSED
;  [InsertAtLayerChange]
;  [MeshPrintSize]
;  [DisplayProgressOnLCD]
;  [DisplayFilenameAndLayerOnLCD]
;KLIPPERSETTINGSPROCESSED
SET_RETRACTION RETRACT_LENGTH=5 RETRACT_SPEED=20 UNRETRACT_SPEED=20 ;KlipperSettingsPlugin

;Generated with Cura_SteamEngine 5.6.0
M82 ;absolute extrusion mode
;Nozzle diameter = 0.6
;Filament type = PLA
;Filament name = PLA
START_PRINT PRINT_MIN=80.4,77.775 PRINT_MAX=139.6,142.227 BED_TEMP=60.0 EXTRUDER_TEMP=210.0
G92 E0
G92 E0
G10
;LAYER_COUNT:33
TIMELAPSE_TAKE_FRAME
;LAYER:0
M117 Printing Circle_Adapter_Bottom - Layer 0 of 32
M107
G1 F300 Z0.65
G0 F6000 X89.68 Y87.372 Z0.65
;TYPE:SKIRT
G1 F300 Z0.45
G11
G1 F600 X90.321 Y86.741 E0.15145
G1 X90.98 Y86.127 E0.30311
G1 X91.759 Y85.442 E0.47778
G1 X92.378 Y84.929 E0.61315
G1 X93.212 Y84.279 E0.79119
G1 X94.142 Y83.602 E0.98488
G1 X94.949 Y83.054 E1.14913
G1 X95.685 Y82.585 E1.29608
G1 X96.312 Y82.208 E1.41927
G1 X97.333 Y81.633 E1.61657
G1 X98.201 Y81.183 E1.7812
G1 X98.731 Y80.923 E1.8806
G1 X99.587 Y80.53 E2.0392
G1 X100.68 Y80.07 E2.23887
G1 X101.338 Y79.816 E2.35763
G1 X102.2 Y79.508 E2.51176
G1 X103.078 Y79.22 E2.66735
G1 X103.871 Y78.984 E2.80666
G1 X104.904 Y78.713 E2.98648
G1 X105.718 Y78.522 E3.12727
G1 X107.016 Y78.264 E3.3501
G1 X107.882 Y78.123 E3.49783
G1 X108.56 Y78.031 E3.61304
G1 X109.466 Y77.928 E3.76658
G1 X110.414 Y77.849 E3.92675
G1 X111.616 Y77.789 E4.1294
G1 X112.311 Y77.775 E4.24644
G1 X113.458 Y77.785 E4.43958
G1 X114.488 Y77.827 E4.61316
G1 X115.025 Y77.863 E4.70378
G1 X116.331 Y77.986 E4.92466
G1 X117.175 Y78.095 E5.06795
G1 X117.854 Y78.2 E5.18364
G1 X118.782 Y78.369 E5.34246
G1 X120.038 Y78.637 E5.55871
G1 X120.839 Y78.838 E5.69776
G1 X121.491 Y79.017 E5.81161
G1 X122.639 Y79.369 E6.01379
G1 X123.298 Y79.592 E6.13093
G1 X124.444 Y80.018 E6.3368
G1 X125.286 Y80.364 E6.49008
G1 X125.817 Y80.597 E6.58771
G1 X126.712 Y81.015 E6.75404
G1 X127.568 Y81.447 E6.91549
G1 X128.667 Y82.048 E7.1264
G1 X129.383 Y82.472 E7.26651
G1 X130.285 Y83.041 E7.44608
G1 X130.976 Y83.509 E7.58661
G1 X131.792 Y84.091 E7.75537
G1 X132.247 Y84.435 E7.85142
G1 X132.99 Y85.023 E8.01096
G1 X133.924 Y85.813 E8.21694
G1 X134.408 Y86.247 E8.3264
G1 X135.066 Y86.868 E8.47874
G1 X135.753 Y87.581 E8.64546
G1 X135.952 Y87.805 E8.69591
G1 X136.659 Y88.68 E8.88533
G1 X137.033 Y89.217 E8.99551
G1 X137.367 Y89.728 E9.09831
G1 X137.909 Y90.65 E9.27839
G1 X138.329 Y91.523 E9.44151
G1 X138.477 Y91.871 E9.50519
G1 X138.82 Y92.784 E9.66941
G1 X139.002 Y93.384 E9.77498
G1 X139.161 Y93.975 E9.87803
G1 X139.376 Y94.946 E10.04549
G1 X139.526 Y96.061 E10.23492
G1 X139.558 Y96.433 E10.29779
G1 X139.6 Y97.571 E10.48954
G1 X139.566 Y98.426 E10.63361
G1 X139.489 Y99.306 E10.78235
G1 X139.178 Y102.295 E11.28836
G1 X138.993 Y104.787 E11.70911
G1 X138.882 Y107.225 E12.12005
G1 X138.839 Y109.748 E12.54493
G1 X138.867 Y112.22 E12.96119
G1 X138.963 Y114.658 E13.37202
G1 X139.131 Y117.141 E13.79106
G1 X139.378 Y119.704 E14.22462
G1 X139.514 Y120.931 E14.43248
G1 X139.583 Y121.863 E14.58984
G1 X139.596 Y122.909 E14.76598
G1 X139.559 Y123.554 E14.87476
G1 X139.511 Y124.071 E14.96219
G1 X139.379 Y125.044 E15.12753
G1 X139.221 Y125.799 E15.25741
G1 X139.13 Y126.165 E15.32091
G1 X138.856 Y127.104 E15.48561
G1 X138.629 Y127.724 E15.59678
G1 X138.412 Y128.265 E15.69493
G1 X138.003 Y129.167 E15.86169
G1 X137.492 Y130.086 E16.03875
G1 X137.314 Y130.372 E16.09547
G1 X136.801 Y131.129 E16.24944
G1 X136.336 Y131.727 E16.37699
G1 X135.925 Y132.215 E16.48442
G1 X135.032 Y133.166 E16.70408
G1 X134.408 Y133.753 E16.84833
G1 X133.7 Y134.38 E17.00757
G1 X132.933 Y135.024 E17.17621
G1 X132.248 Y135.566 E17.32329
G1 X131.453 Y136.157 E17.49008
G1 X130.785 Y136.623 E17.62723
G1 X130.173 Y137.031 E17.75107
G1 X129.436 Y137.497 E17.8979
G1 X128.583 Y137.999 E18.06455
G1 X127.824 Y138.418 E18.21053
G1 X126.987 Y138.85 E18.36913
G1 X125.865 Y139.381 E18.57814
G1 X124.942 Y139.78 E18.74745
G1 X124.143 Y140.098 E18.89225
G1 X123.222 Y140.435 E19.05738
G1 X122.374 Y140.717 E19.20786
G1 X121.417 Y141.004 E19.37609
G1 X120.58 Y141.228 E19.52198
G1 X119.608 Y141.46 E19.69024
M117 Time Left 0h24m16s
G1 X118.762 Y141.636 E19.83574
G1 X118.101 Y141.757 E19.94889
G1 X116.921 Y141.94 E20.14995
G1 X115.988 Y142.052 E20.30818
G1 X115.062 Y142.134 E20.46471
G1 X114.049 Y142.197 E20.63561
G1 X113.229 Y142.221 E20.77374
G1 X112.541 Y142.227 E20.88959
G1 X111.617 Y142.21 E21.0452
M73 P1
G1 X110.345 Y142.146 E21.25964
G1 X109.416 Y142.066 E21.41665
G1 X108.513 Y141.963 E21.56968
G1 X107.6 Y141.833 E21.72496
G1 X106.666 Y141.671 E21.88458
G1 X106.07 Y141.554 E21.98685
G1 X104.867 Y141.28 E22.19459
G1 X103.977 Y141.044 E22.34963
G1 X103.308 Y140.85 E22.46692
G1 X102.416 Y140.566 E22.62454
G1 X101.613 Y140.287 E22.76768
G1 X100.764 Y139.963 E22.92069
G1 X99.791 Y139.56 E23.09802
G1 X98.774 Y139.099 E23.28603
G1 X97.872 Y138.652 E23.45554
G1 X97.082 Y138.231 E23.60627
G1 X96.234 Y137.747 E23.77067
G1 X95.757 Y137.46 E23.86441
G1 X94.887 Y136.904 E24.03826
G1 X94.147 Y136.402 E24.18882
G1 X93.36 Y135.833 E24.35234
G1 X92.666 Y135.301 E24.49958
G1 X91.962 Y134.73 E24.65221
G1 X91.036 Y133.925 E24.85881
G1 X90.499 Y133.43 E24.98178
G1 X89.621 Y132.568 E25.18896
G1 X88.977 Y131.893 E25.34605
G1 X88.402 Y131.251 E25.49117
G1 X87.745 Y130.479 E25.66186
G1 X87.192 Y129.788 E25.81088
G1 X86.613 Y129.021 E25.97269
G1 X86.091 Y128.289 E26.12407
G1 X85.557 Y127.488 E26.28617
G1 X85.096 Y126.751 E26.43254
G1 X84.571 Y125.859 E26.60682
G1 X84.173 Y125.135 E26.74593
G1 X83.71 Y124.228 E26.9174
G1 X83.334 Y123.436 E27.06502
G1 X82.928 Y122.513 E27.23481
G1 X82.607 Y121.722 E27.37855
G1 X82.363 Y121.075 E27.49498
G1 X82.078 Y120.262 E27.64004
G1 X81.775 Y119.314 E27.80762
G1 X81.457 Y118.186 E28.00495
G1 X81.216 Y117.208 E28.17455
G1 X81.026 Y116.324 E28.3268
G1 X80.852 Y115.379 E28.48859
G1 X80.716 Y114.504 E28.63769
G1 X80.591 Y113.509 E28.80655
G1 X80.512 Y112.686 E28.94576
G1 X80.442 Y111.668 E29.11758
G1 X80.41 Y110.819 E29.26063
G1 X80.4 Y110.108 E29.38036
G1 X80.418 Y108.911 E29.58193
G1 X80.465 Y107.947 E29.74444
G1 X80.509 Y107.353 E29.84474
G1 X80.639 Y106.089 E30.05869
G1 X80.719 Y105.478 E30.16245
G1 X80.868 Y104.534 E30.32337
G1 X81.023 Y103.694 E30.46719
G1 X81.237 Y102.699 E30.63856
G1 X81.51 Y101.62 E30.82597
G1 X81.812 Y100.567 E31.01042
G1 X82.069 Y99.765 E31.15222
G1 X82.401 Y98.817 E31.32135
G1 X82.699 Y98.047 E31.46038
G1 X82.969 Y97.394 E31.57936
G1 X83.451 Y96.313 E31.77865
G1 X83.76 Y95.672 E31.89847
G1 X84.15 Y94.91 E32.0426
G1 X84.61 Y94.072 E32.20356
G1 X85.063 Y93.303 E32.35384
G1 X85.589 Y92.463 E32.52072
G1 X86.077 Y91.732 E32.66871
G1 X86.861 Y90.643 E32.89466
G1 X87.354 Y90.005 E33.03042
G1 X88.033 Y89.174 E33.21111
G1 X88.564 Y88.562 E33.34754
G1 X89.011 Y88.071 E33.45934
G1 X89.68 Y87.372 E33.62226
G0 F6000 X90.312 Y88.013
G1 F600 X90.935 Y87.399 E33.76954
G1 X91.574 Y86.803 E33.91667
G1 X92.334 Y86.135 E34.08705
G1 X92.932 Y85.639 E34.21787
G1 X93.742 Y85.007 E34.39086
G1 X94.672 Y84.33 E34.58455
G1 X95.433 Y83.813 E34.73946
G1 X96.149 Y83.356 E34.88248
G1 X96.754 Y82.992 E35.00137
G1 X97.748 Y82.432 E35.19347
G1 X98.597 Y81.991 E35.35456
G1 X99.107 Y81.741 E35.45019
G1 X99.963 Y81.348 E35.60879
G1 X101.005 Y80.909 E35.79918
G1 X101.641 Y80.663 E35.914
G1 X102.48 Y80.363 E36.06403
G1 X103.335 Y80.083 E36.21552
G1 X104.128 Y79.847 E36.35483
G1 X105.11 Y79.589 E36.52579
G1 X105.893 Y79.405 E36.66122
G1 X107.191 Y79.147 E36.88405
G1 X108.004 Y79.015 E37.02274
G1 X108.662 Y78.925 E37.13456
G1 X109.541 Y78.825 E37.28352
G1 X110.459 Y78.748 E37.43864
G1 X111.635 Y78.689 E37.6369
G1 X112.304 Y78.675 E37.74957
G1 X113.421 Y78.684 E37.93766
G1 X114.428 Y78.725 E38.10736
G1 X114.941 Y78.759 E38.19393
G1 X116.216 Y78.879 E38.40956
G1 X117.06 Y78.988 E38.55285
G1 X117.694 Y79.086 E38.66087
G1 X118.594 Y79.249 E38.81488
M117 Time Left 0h24m01s
G1 X119.819 Y79.51 E39.02577
G1 X120.601 Y79.706 E39.16152
G1 X121.228 Y79.878 E39.27099
G1 X122.35 Y80.221 E39.46855
G1 X122.985 Y80.436 E39.58143
G1 X124.103 Y80.851 E39.78223
G1 X124.925 Y81.188 E39.93182
G1 X125.436 Y81.412 E40.02576
G1 X126.307 Y81.819 E40.18764
G1 X127.137 Y82.237 E40.34412
G1 X128.208 Y82.822 E40.5496
G1 X128.903 Y83.234 E40.68564
G1 X129.781 Y83.787 E40.86036
G1 X130.453 Y84.241 E40.99691
G1 X131.25 Y84.81 E41.1618
G1 X131.689 Y85.141 E41.25438
G1 X132.409 Y85.71 E41.4089
G1 X133.323 Y86.483 E41.61046
M73 P2
G1 X133.79 Y86.902 E41.7161
G1 X134.448 Y87.523 E41.86844
G1 X135.08 Y88.179 E42.02182
G1 X135.279 Y88.403 E42.07227
G1 X135.921 Y89.195 E42.24394
G1 X136.28 Y89.71 E42.34965
G1 X136.592 Y90.186 E42.44548
G1 X137.098 Y91.041 E42.61276
G1 X137.501 Y91.877 E42.76903
G1 X137.634 Y92.188 E42.82598
G1 X137.977 Y93.101 E42.99021
G1 X138.133 Y93.619 E43.0813
G1 X138.282 Y94.17 E43.1774
G1 X138.497 Y95.141 E43.34486
G1 X138.629 Y96.138 E43.5142
G1 X138.661 Y96.51 E43.57707
G1 X138.701 Y97.536 E43.74996
G1 X138.669 Y98.348 E43.88679
G1 X138.594 Y99.213 E44.03298
G1 X138.28 Y102.228 E44.54339
G1 X138.095 Y104.72 E44.96415
G1 X137.982 Y107.21 E45.38384
G1 X137.939 Y109.733 E45.80873
G1 X137.967 Y112.23 E46.2292
G1 X138.065 Y114.719 E46.64862
G1 X138.235 Y117.227 E47.07188
G1 X138.483 Y119.803 E47.50763
G1 X138.619 Y121.03 E47.7155
G1 X138.683 Y121.876 E47.85836
G1 X138.697 Y122.857 E48.02355
G1 X138.66 Y123.502 E48.13234
G1 X138.619 Y123.95 E48.20809
G1 X138.487 Y124.923 E48.37342
G1 X138.347 Y125.584 E48.48719
G1 X138.266 Y125.913 E48.54424
G1 X137.992 Y126.852 E48.70894
G1 X137.793 Y127.39 E48.80553
G1 X137.591 Y127.896 E48.89727
G1 X137.216 Y128.73 E49.05124
G1 X136.726 Y129.613 E49.22127
G1 X136.569 Y129.867 E49.27155
G1 X136.056 Y130.624 E49.42553
G1 X135.646 Y131.149 E49.53769
G1 X135.268 Y131.6 E49.63677
G1 X134.415 Y132.51 E49.84679
G1 X133.791 Y133.097 E49.99104
G1 X133.121 Y133.691 E50.14181
G1 X132.375 Y134.318 E50.30589
G1 X131.71 Y134.844 E50.44866
G1 X130.938 Y135.419 E50.61074
G1 X130.286 Y135.874 E50.74462
G1 X129.692 Y136.27 E50.86482
G1 X128.979 Y136.721 E51.00688
G1 X128.147 Y137.211 E51.16946
G1 X127.411 Y137.618 E51.31107
G1 X126.574 Y138.05 E51.46967
G1 X125.507 Y138.555 E51.66844
G1 X124.609 Y138.944 E51.83322
G1 X123.834 Y139.253 E51.9737
G1 X122.938 Y139.581 E52.13436
G1 X122.115 Y139.855 E52.28042
G1 X121.184 Y140.135 E52.44411
G1 X120.371 Y140.353 E52.58584
G1 X119.424 Y140.579 E52.74978
G1 X118.599 Y140.751 E52.89168
G1 X117.963 Y140.868 E53.00056
G1 X116.814 Y141.046 E53.19634
G1 X115.881 Y141.158 E53.35456
G1 X115.006 Y141.236 E53.50248
G1 X114.022 Y141.297 E53.66848
G1 X113.221 Y141.321 E53.80342
G1 X112.557 Y141.327 E53.91522
G1 X111.662 Y141.311 E54.06595
G1 X110.421 Y141.249 E54.27517
G1 X109.518 Y141.172 E54.42777
G1 X108.64 Y141.072 E54.57656
G1 X107.753 Y140.946 E54.72741
G1 X106.84 Y140.788 E54.88343
G1 X106.27 Y140.676 E54.98124
G1 X105.067 Y140.402 E55.18899
G1 X104.228 Y140.18 E55.33512
G1 X103.58 Y139.992 E55.44873
G1 X102.711 Y139.716 E55.60225
G1 X101.934 Y139.446 E55.74076
G1 X101.085 Y139.122 E55.89377
G1 X100.163 Y138.74 E56.06181
G1 X99.146 Y138.279 E56.24982
G1 X98.295 Y137.857 E56.40976
G1 X97.528 Y137.449 E56.55605
G1 X96.698 Y136.976 E56.7169
G1 X96.241 Y136.701 E56.80671
G1 X95.392 Y136.159 E56.97631
G1 X94.674 Y135.672 E57.12239
G1 X93.907 Y135.118 E57.28171
G1 X93.233 Y134.602 E57.42463
G1 X92.529 Y134.031 E57.57726
G1 X91.646 Y133.264 E57.7742
G1 X91.129 Y132.787 E57.89264
G1 X90.272 Y131.947 E58.0947
G1 X89.647 Y131.292 E58.24714
G1 X89.087 Y130.668 E58.38832
G1 X88.447 Y129.916 E58.55459
G1 X87.91 Y129.246 E58.69917
G1 X87.346 Y128.499 E58.85677
G1 X86.84 Y127.789 E59.00357
G1 X86.32 Y127.01 E59.16128
M117 Time Left 0h23m46s
G1 X85.872 Y126.295 E59.30335
G1 X85.36 Y125.425 E59.47333
G1 X84.962 Y124.701 E59.61244
G1 X84.523 Y123.842 E59.77487
G1 X84.158 Y123.074 E59.91805
G1 X83.762 Y122.174 E60.08361
G1 X83.449 Y121.404 E60.22356
G1 X83.212 Y120.777 E60.33643
G1 X82.935 Y119.988 E60.47723
G1 X82.641 Y119.069 E60.6397
G1 X82.331 Y117.971 E60.8318
G1 X82.096 Y117.018 E60.99708
G1 X81.911 Y116.16 E61.14487
G1 X81.741 Y115.241 E61.30223
G1 X81.609 Y114.392 E61.4469
G1 X81.487 Y113.423 E61.61135
G1 X81.41 Y112.623 E61.74668
G1 X81.341 Y111.634 E61.91361
G1 X81.31 Y110.806 E62.05312
G1 X81.3 Y110.121 E62.16848
G1 X81.317 Y108.955 E62.36483
G1 X81.363 Y108.012 E62.5238
G1 X81.404 Y107.445 E62.61952
G1 X81.531 Y106.206 E62.82923
G1 X81.608 Y105.618 E62.92909
G1 X81.753 Y104.697 E63.08607
G1 X81.903 Y103.883 E63.22544
M73 P3
G1 X82.11 Y102.919 E63.39146
G1 X82.375 Y101.868 E63.57397
G1 X82.669 Y100.841 E63.75384
G1 X82.918 Y100.063 E63.89138
G1 X83.241 Y99.141 E64.05588
G1 X83.531 Y98.39 E64.19143
G1 X83.791 Y97.76 E64.30619
G1 X84.262 Y96.703 E64.50104
G1 X84.561 Y96.082 E64.61709
G1 X84.939 Y95.343 E64.75686
G1 X85.386 Y94.528 E64.91337
G1 X85.825 Y93.781 E65.05926
G1 X86.338 Y92.963 E65.22184
G1 X86.826 Y92.232 E65.36983
G1 X87.573 Y91.193 E65.5853
G1 X88.051 Y90.574 E65.71699
G1 X88.712 Y89.764 E65.89303
G1 X89.23 Y89.168 E66.02599
G1 X89.677 Y88.677 E66.13779
G1 X90.312 Y88.013 E66.29249
G0 F6000 X90.944 Y88.654
G1 F600 X91.549 Y88.057 E66.4356
G1 X92.168 Y87.479 E66.57821
G1 X92.909 Y86.828 E66.74429
G1 X93.507 Y86.332 E66.87511
G1 X94.272 Y85.734 E67.0386
G1 X95.178 Y85.074 E67.22734
G1 X95.917 Y84.572 E67.37777
G1 X96.614 Y84.127 E67.51701
G1 X97.196 Y83.776 E67.63144
G1 X98.163 Y83.231 E67.81835
G1 X98.994 Y82.799 E67.97605
G1 X99.483 Y82.559 E68.06777
G1 X100.313 Y82.177 E68.22161
G1 X101.33 Y81.748 E68.40747
G1 X101.944 Y81.51 E68.51835
G1 X102.76 Y81.218 E68.66428
G1 X103.592 Y80.946 E68.81167
G1 X104.385 Y80.71 E68.95098
G1 X105.316 Y80.465 E69.11308
G1 X106.068 Y80.288 E69.24316
G1 X107.366 Y80.03 E69.46599
G1 X108.127 Y79.907 E69.59579
G1 X108.764 Y79.819 E69.70407
G1 X109.617 Y79.722 E69.84862
G1 X110.504 Y79.647 E69.99851
G1 X111.655 Y79.589 E70.19256
G1 X112.297 Y79.575 E70.30068
G1 X113.384 Y79.583 E70.48371
G1 X114.369 Y79.623 E70.6497
G1 X114.857 Y79.655 E70.73205
G1 X116.101 Y79.772 E70.94244
G1 X116.945 Y79.881 E71.08573
G1 X117.535 Y79.972 E71.18625
G1 X118.407 Y80.129 E71.33544
G1 X119.6 Y80.383 E71.54082
G1 X120.363 Y80.574 E71.67325
G1 X120.965 Y80.739 E71.77836
G1 X122.062 Y81.074 E71.97149
G1 X122.672 Y81.28 E72.0799
G1 X123.762 Y81.684 E72.27564
G1 X124.565 Y82.013 E72.42175
G1 X125.055 Y82.227 E72.51178
G1 X125.903 Y82.623 E72.66937
G1 X126.706 Y83.027 E72.82073
G1 X127.749 Y83.596 E73.02078
G1 X128.424 Y83.996 E73.15289
G1 X129.277 Y84.533 E73.32261
G1 X129.93 Y84.974 E73.45529
G1 X130.709 Y85.53 E73.61644
G1 X131.131 Y85.847 E73.70531
G1 X131.828 Y86.398 E73.85491
G1 X132.722 Y87.153 E74.05194
G1 X133.173 Y87.557 E74.1539
G1 X133.8 Y88.148 E74.29898
G1 X134.407 Y88.777 E74.44616
G1 X134.606 Y89.001 E74.49661
G1 X135.183 Y89.71 E74.65053
G1 X135.528 Y90.204 E74.75199
G1 X135.819 Y90.647 E74.84123
G1 X136.287 Y91.432 E74.99512
G1 X136.69 Y92.268 E75.15139
G1 X136.792 Y92.506 E75.19499
G1 X137.115 Y93.361 E75.34888
G1 X137.271 Y93.879 E75.43997
G1 X137.404 Y94.368 E75.5253
G1 X137.605 Y95.26 E75.67926
G1 X137.732 Y96.215 E75.84148
G1 X137.764 Y96.587 E75.90435
G1 X137.802 Y97.501 E76.05838
G1 X137.772 Y98.271 E76.18813
G1 X137.699 Y99.12 E76.33161
G1 X137.382 Y102.161 E76.84643
G1 X137.197 Y104.653 E77.26718
G1 X137.082 Y107.195 E77.69564
G1 X137.039 Y109.718 E78.12052
G1 X137.067 Y112.24 E78.5452
M117 Time Left 0h23m31s
G1 X137.167 Y114.78 E78.97322
G1 X137.339 Y117.313 E79.40071
G1 X137.587 Y119.889 E79.83646
G1 X137.722 Y121.099 E80.04146
G1 X137.783 Y121.891 E80.17521
G1 X137.798 Y122.805 E80.32913
G1 X137.761 Y123.45 E80.43791
G1 X137.727 Y123.831 E80.50232
G1 X137.606 Y124.737 E80.65623
