;FLAVOR:Marlin
M73 P0


; Pre-Processed for Cancel-Object support by preprocess_cancellation v0.2.0
; 1 known objects
EXCLUDE_OBJECT_DEFINE NAME=Circle_Adapter_Top_stl CENTER=109.979,109.965 POLYGON=[[89.565,89.567],[89.565,130.442],[130.439,130.442],[130.439,89.567]]
M117 Time Left 0h09m14s
;TIME:554
;Filament used: 0.767025m
;Layer height: 0.3
;MINX:87.765
;MINY:87.767
;MINZ:0.45
;MAXX:132.239
;MAXY:132.242
;MAXZ:8.15
;TARGET_MACHINE.NAME:Creality Ender-3
;POSTPROCESSED
;  [InsertAtLayerChange]
;  [MeshPrintSize]
;  [DisplayProgressOnLCD]
;  [DisplayFilenameAndLayerOnLCD]
;KLIPPERSETTINGSPROCESSED
SET_RETRACTION RETRACT_LENGTH=5 RETRACT_SPEED=20 UNRETRACT_SPEED=20 ;KlipperSettingsPlugin

;Generated with Cura_SteamEngine 5.6.0
M82 ;absolute extrusion mode
;Nozzle diameter = 0.6
;Filament type = PLA
;Filament name = PLA
START_PRINT PRINT_MIN=87.765,87.767 PRINT_MAX=132.239,132.242 BED_TEMP=60.0 EXTRUDER_TEMP=210.0
G92 E0
G92 E0
G10
;LAYER_COUNT:26
TIMELAPSE_TAKE_FRAME
;LAYER:0
M117 Printing Circle_Adapter_Top - Layer 0 of 25
M107
G1 F300 Z0.65
G0 F6000 X94.461 Y94.095 Z0.65
;TYPE:SKIRT
G1 F300 Z0.45
G11
G1 F600 X94.963 Y93.62 E0.11637
G1 X95.566 Y93.088 E0.25177
G1 X96.076 Y92.666 E0.36323
G1 X96.871 Y92.053 E0.53226
G1 X97.466 Y91.635 E0.6547
G1 X98.047 Y91.252 E0.77187
G1 X98.687 Y90.858 E0.89842
G1 X99.328 Y90.493 E1.02262
G1 X100.008 Y90.136 E1.15194
G1 X100.558 Y89.869 E1.25488
G1 X101.198 Y89.581 E1.37305
G1 X101.81 Y89.327 E1.48462
G1 X102.44 Y89.09 E1.59796
G1 X103.064 Y88.873 E1.7092
G1 X103.652 Y88.688 E1.81299
G1 X104.272 Y88.514 E1.92142
G1 X104.921 Y88.352 E2.03405
G1 X105.613 Y88.201 E2.15331
G1 X106.298 Y88.075 E2.27059
G1 X106.932 Y87.976 E2.37864
G1 X107.551 Y87.897 E2.48371
G1 X108.073 Y87.845 E2.57204
G1 X108.889 Y87.792 E2.70972
G1 X109.656 Y87.767 E2.83894
G1 X110.421 Y87.767 E2.96775
G1 X111.135 Y87.792 E3.08805
G1 X111.803 Y87.836 E3.20077
G1 X112.453 Y87.898 E3.31071
G1 X113.153 Y87.988 E3.42955
G1 X113.816 Y88.093 E3.54257
G1 X114.413 Y88.205 E3.64485
G1 X115.02 Y88.335 E3.74937
G1 X115.61 Y88.477 E3.85155
G1 X116.409 Y88.705 E3.99146
G1 X117.143 Y88.938 E4.12113
G1 X117.83 Y89.181 E4.24383
G1 X118.364 Y89.389 E4.34032
G1 X119.03 Y89.673 E4.46223
G1 X119.597 Y89.935 E4.5674
G1 X120.36 Y90.316 E4.711
G1 X121.091 Y90.72 E4.85164
G1 X121.612 Y91.035 E4.95415
G1 X122.459 Y91.579 E5.12365
G1 X123.17 Y92.076 E5.26972
G1 X123.713 Y92.489 E5.38459
G1 X124.21 Y92.891 E5.49222
G1 X124.771 Y93.37 E5.61643
G1 X125.431 Y93.982 E5.76798
G1 X126.132 Y94.694 E5.93622
G1 X126.478 Y95.066 E6.02177
G1 X126.934 Y95.586 E6.13822
G1 X127.382 Y96.13 E6.25688
G1 X127.815 Y96.69 E6.37607
G1 X128.253 Y97.298 E6.50225
G1 X128.617 Y97.835 E6.61148
G1 X128.954 Y98.367 E6.71752
G1 X129.283 Y98.92 E6.82587
G1 X129.588 Y99.467 E6.93132
M73 P1
G1 X129.909 Y100.089 E7.04918
G1 X130.202 Y100.704 E7.16388
G1 X130.477 Y101.329 E7.27886
G1 X130.746 Y101.988 E7.39871
G1 X131.011 Y102.711 E7.52836
G1 X131.229 Y103.374 E7.64588
G1 X131.418 Y104.011 E7.75776
G1 X131.551 Y104.51 E7.84471
G1 X131.706 Y105.163 E7.95772
G1 X131.838 Y105.8 E8.06726
G1 X131.966 Y106.551 E8.19553
G1 X132.083 Y107.392 E8.3385
G1 X132.161 Y108.128 E8.46313
G1 X132.202 Y108.711 E8.56153
G1 X132.231 Y109.388 E8.67563
G1 X132.239 Y110.032 E8.78408
G1 X132.226 Y110.738 E8.90297
G1 X132.189 Y111.477 E9.02756
G1 X132.129 Y112.197 E9.14921
G1 X132.058 Y112.822 E9.25513
G1 X131.968 Y113.456 E9.36295
G1 X131.851 Y114.144 E9.48046
G1 X131.712 Y114.82 E9.59666
G1 X131.554 Y115.479 E9.71077
G1 X131.396 Y116.067 E9.81329
G1 X131.234 Y116.609 E9.90854
G1 X131.009 Y117.288 E10.02898
G1 X130.718 Y118.078 E10.17074
G1 X130.426 Y118.797 E10.30141
G1 X130.183 Y119.341 E10.40173
G1 X129.927 Y119.874 E10.50129
G1 X129.656 Y120.405 E10.60167
G1 X129.286 Y121.077 E10.73084
G1 X129.004 Y121.551 E10.82371
G1 X128.677 Y122.073 E10.92742
G1 X128.3 Y122.638 E11.04179
G1 X127.81 Y123.32 E11.18319
G1 X127.411 Y123.836 E11.29302
G1 X126.942 Y124.406 E11.41731
G1 X126.451 Y124.965 E11.54259
G1 X125.993 Y125.455 E11.65552
G1 X125.312 Y126.126 E11.8165
G1 X124.76 Y126.633 E11.9427
G1 X124.147 Y127.164 E12.07926
G1 X123.436 Y127.727 E12.23196
G1 X122.795 Y128.192 E12.3653
G1 X122.165 Y128.617 E12.49326
G1 X121.601 Y128.974 E12.60566
G1 X121.172 Y129.228 E12.6896
G1 X120.641 Y129.524 E12.79196
G1 X119.943 Y129.888 E12.92451
G1 X119.278 Y130.209 E13.04885
G1 X118.636 Y130.493 E13.16705
G1 X117.93 Y130.777 E13.29519
G1 X117.343 Y130.992 E13.40045
G1 X116.839 Y131.162 E13.49001
G1 X116.096 Y131.384 E13.62058
G1 X115.385 Y131.575 E13.74454
G1 X114.543 Y131.77 E13.89007
G1 X113.44 Y131.971 E14.07885
G1 X112.703 Y132.072 E14.20411
G1 X111.959 Y132.149 E14.33005
G1 X111.273 Y132.201 E14.44589
G1 X110.519 Y132.234 E14.57297
G1 X109.761 Y132.242 E14.70061
M73 P2
G1 X108.769 Y132.21 E14.86773
G1 X107.992 Y132.149 E14.99896
G1 X107.338 Y132.079 E15.10971
G1 X106.58 Y131.974 E15.23856
G1 X105.881 Y131.852 E15.35804
G1 X104.974 Y131.664 E15.514
G1 X104.147 Y131.455 E15.65763
G1 X103.416 Y131.24 E15.78593
G1 X102.641 Y130.982 E15.92346
G1 X101.917 Y130.713 E16.05351
G1 X101.209 Y130.423 E16.18234
G1 X100.569 Y130.135 E16.30051
G1 X99.946 Y129.832 E16.41716
G1 X99.349 Y129.518 E16.53074
G1 X98.735 Y129.171 E16.64949
G1 X98.1 Y128.783 E16.77479
G1 X97.51 Y128.398 E16.89341
G1 X97.035 Y128.066 E16.99099
G1 X96.482 Y127.654 E17.10711
G1 X95.966 Y127.246 E17.21787
G1 X95.506 Y126.863 E17.31866
G1 X94.849 Y126.269 E17.4678
G1 X94.221 Y125.664 E17.61462
G1 X93.644 Y125.062 E17.75503
G1 X93.058 Y124.399 E17.90402
G1 X92.567 Y123.802 E18.03417
G1 X92.171 Y123.287 E18.14356
G1 X91.787 Y122.756 E18.2539
G1 X91.432 Y122.233 E18.36033
G1 X91.042 Y121.617 E18.4831
G1 X90.672 Y120.991 E18.60554
G1 X90.279 Y120.273 E18.74336
G1 X90.017 Y119.752 E18.84155
G1 X89.75 Y119.181 E18.94769
G1 X89.48 Y118.562 E19.0614
G1 X89.265 Y118.029 E19.15817
G1 X89.061 Y117.481 E19.25663
G1 X88.878 Y116.949 E19.35136
G1 X88.674 Y116.296 E19.46655
G1 X88.463 Y115.544 E19.59806
G1 X88.326 Y114.972 E19.6971
G1 X88.146 Y114.086 E19.84933
G1 X88.019 Y113.345 E19.97592
M117 Time Left 0h08m59s
G1 X87.921 Y112.627 E20.09794
G1 X87.844 Y111.874 E20.22539
G1 X87.803 Y111.313 E20.3201
G1 X87.767 Y110.402 E20.47361
G1 X87.765 Y109.567 E20.61421
G1 X87.779 Y109.089 E20.69473
G1 X87.807 Y108.566 E20.78292
G1 X87.896 Y107.585 E20.94878
G1 X87.985 Y106.876 E21.0691
G1 X88.069 Y106.324 E21.16311
G1 X88.195 Y105.637 E21.28072
G1 X88.32 Y105.042 E21.38309
G1 X88.532 Y104.197 E21.52978
G1 X88.78 Y103.353 E21.6779
G1 X89.005 Y102.668 E21.7993
G1 X89.305 Y101.871 E21.94269
G1 X89.523 Y101.336 E22.03997
G1 X89.78 Y100.752 E22.1474
G1 X90.064 Y100.154 E22.25887
G1 X90.331 Y99.627 E22.35835
G1 X90.563 Y99.197 E22.44062
G1 X90.927 Y98.573 E22.56225
M73 P3
G1 X91.338 Y97.916 E22.69274
G1 X91.733 Y97.326 E22.81229
G1 X92.147 Y96.747 E22.93214
G1 X92.628 Y96.123 E23.06481
G1 X93.093 Y95.56 E23.18776
G1 X93.539 Y95.051 E23.30171
G1 X93.949 Y94.611 E23.40297
G1 X94.461 Y94.095 E23.52537
G0 F6000 X95.08 Y94.749
G1 F600 X95.582 Y94.274 E23.64174
G1 X96.14 Y93.781 E23.76711
G1 X96.626 Y93.379 E23.87331
G1 X97.421 Y92.766 E24.04235
G1 X97.961 Y92.386 E24.15353
G1 X98.519 Y92.018 E24.26608
G1 X99.133 Y91.64 E24.38748
G1 X99.747 Y91.29 E24.50648
G1 X100.401 Y90.946 E24.63091
G1 X100.951 Y90.679 E24.73385
G1 X101.543 Y90.412 E24.8432
G1 X102.128 Y90.169 E24.94986
G1 X102.735 Y89.94 E25.0591
G1 X103.334 Y89.732 E25.16587
G1 X103.922 Y89.547 E25.26966
G1 X104.491 Y89.387 E25.36919
G1 X105.114 Y89.231 E25.47732
G1 X105.776 Y89.086 E25.59143
G1 X106.437 Y88.964 E25.70461
G1 X107.046 Y88.869 E25.8084
G1 X107.64 Y88.793 E25.90923
G1 X108.162 Y88.741 E25.99756
G1 X108.918 Y88.692 E26.12512
G1 X109.685 Y88.667 E26.25434
G1 X110.421 Y88.667 E26.37826
G1 X111.076 Y88.69 E26.48862
G1 X111.718 Y88.732 E26.59695
G1 X112.339 Y88.791 E26.70198
G1 X113.012 Y88.877 E26.81623
G1 X113.651 Y88.978 E26.92516
G1 X114.225 Y89.085 E27.02347
G1 X114.81 Y89.21 E27.1242
G1 X115.364 Y89.343 E27.22013
G1 X116.137 Y89.563 E27.35545
G1 X116.843 Y89.787 E27.48017
G1 X117.503 Y90.02 E27.59802
G1 X118.037 Y90.228 E27.69452
G1 X118.653 Y90.49 E27.80723
G1 X119.195 Y90.74 E27.90773
G1 X119.925 Y91.104 E28.04508
G1 X120.625 Y91.49 E28.17968
G1 X121.126 Y91.793 E28.27827
G1 X121.943 Y92.317 E28.4417
G1 X122.654 Y92.814 E28.58776
G1 X123.148 Y93.189 E28.69219
G1 X123.626 Y93.575 E28.79564
G1 X124.16 Y94.031 E28.91388
G1 X124.79 Y94.614 E29.05841
G1 X125.474 Y95.308 E29.22248
G1 X125.802 Y95.66 E29.3035
G1 X126.239 Y96.158 E29.41506
G1 X126.67 Y96.681 E29.52917
G1 X127.103 Y97.241 E29.64836
G1 X127.508 Y97.803 E29.765
G1 X127.872 Y98.34 E29.87424
G1 X128.181 Y98.828 E29.97149
M73 P4
G1 X128.497 Y99.358 E30.07539
G1 X128.788 Y99.88 E30.17602
G1 X129.096 Y100.476 E30.28898
G1 X129.389 Y101.091 E30.40369
G1 X129.644 Y101.669 E30.51006
G1 X129.901 Y102.299 E30.62463
G1 X130.156 Y102.992 E30.74896
G1 X130.366 Y103.63 E30.86206
G1 X130.548 Y104.243 E30.96973
G1 X130.681 Y104.742 E31.05668
G1 X130.825 Y105.346 E31.16124
G1 X130.951 Y105.952 E31.26546
G1 X131.075 Y106.675 E31.38897
G1 X131.188 Y107.487 E31.52701
G1 X131.263 Y108.192 E31.64639
G1 X131.303 Y108.75 E31.74059
G1 X131.331 Y109.4 E31.85014
G1 X131.339 Y110.016 E31.95387
G1 X131.327 Y110.694 E32.06805
G1 X131.292 Y111.403 E32.18757
G1 X131.235 Y112.096 E32.30465
G1 X131.167 Y112.696 E32.40633
G1 X131.081 Y113.305 E32.50989
G1 X130.969 Y113.963 E32.62228
G1 X130.83 Y114.639 E32.73848
G1 X130.685 Y115.246 E32.84356
G1 X130.534 Y115.81 E32.94187
G1 X130.38 Y116.326 E33.03254
G1 X130.164 Y116.978 E33.1482
G1 X129.884 Y117.74 E33.28489
G1 X129.604 Y118.43 E33.41027
G1 X129.371 Y118.952 E33.50652
G1 X129.125 Y119.465 E33.60232
G1 X128.854 Y119.996 E33.7027
G1 X128.512 Y120.617 E33.82207
G1 X128.241 Y121.073 E33.91139
G1 X127.928 Y121.573 E34.01072
G1 X127.551 Y122.138 E34.12508
G1 X127.097 Y122.77 E34.25611
G1 X126.716 Y123.264 E34.36116
G1 X126.265 Y123.812 E34.48066
G1 X125.793 Y124.35 E34.60117
G1 X125.335 Y124.84 E34.7141
G1 X124.702 Y125.464 E34.86377
G1 X124.171 Y125.953 E34.98531
G1 X123.588 Y126.458 E35.11519
G1 X122.877 Y127.021 E35.26789
G1 X122.291 Y127.446 E35.38978
G1 X121.683 Y127.857 E35.51335
G1 X121.142 Y128.2 E35.62121
G1 X120.734 Y128.442 E35.70108
G1 X120.224 Y128.726 E35.79937
G1 X119.551 Y129.078 E35.92726
G1 X118.914 Y129.386 E36.0464
G1 X118.299 Y129.658 E36.15963
G1 X117.62 Y129.932 E36.28291
G1 X117.055 Y130.139 E36.38423
G1 X116.551 Y130.309 E36.47379
G1 X115.862 Y130.515 E36.59488
G1 X115.182 Y130.698 E36.71345
G1 X114.34 Y130.893 E36.85898
G1 X113.317 Y131.079 E37.03406
G1 X112.609 Y131.177 E37.1544
G1 X111.891 Y131.252 E37.27596
G1 X111.233 Y131.302 E37.38707
G1 X110.509 Y131.334 E37.5091
M73 P5
G1 X109.79 Y131.342 E37.63017
G1 X108.798 Y131.31 E37.79729
G1 X108.087 Y131.254 E37.91738
G1 X107.462 Y131.188 E38.0232
G1 X106.734 Y131.087 E38.14695
G1 X106.064 Y130.971 E38.26145
G1 X105.157 Y130.783 E38.41741
G1 X104.4 Y130.591 E38.54891
G1 X103.7 Y130.386 E38.67173
G1 X102.954 Y130.138 E38.8041
G1 X102.258 Y129.88 E38.92908
G1 X101.578 Y129.602 E39.05278
G1 X100.962 Y129.325 E39.16651
G1 X100.365 Y129.035 E39.27826
G1 X99.792 Y128.734 E39.38724
G1 X99.178 Y128.387 E39.506
G1 X98.592 Y128.029 E39.62162
G1 X98.026 Y127.66 E39.73539
G1 X97.551 Y127.328 E39.83297
G1 X97.04 Y126.948 E39.9402
M117 Time Left 0h08m44s
G1 X96.541 Y126.554 E40.04725
G1 X96.109 Y126.195 E40.14183
G1 X95.473 Y125.621 E40.28608
G1 X94.871 Y125.041 E40.42684
G1 X94.294 Y124.439 E40.56725
G1 X93.753 Y123.827 E40.70478
G1 X93.28 Y123.253 E40.83002
G1 X92.9 Y122.759 E40.93496
G1 X92.531 Y122.25 E41.04082
G1 X92.192 Y121.751 E41.1424
G1 X91.817 Y121.159 E41.26039
G1 X91.447 Y120.533 E41.38283
G1 X91.083 Y119.868 E41.51048
G1 X90.832 Y119.37 E41.60438
G1 X90.575 Y118.821 E41.70645
G1 X90.315 Y118.225 E41.81594
G1 X90.1 Y117.692 E41.91271
G1 X89.912 Y117.187 E42.00344
G1 X89.737 Y116.68 E42.09376
G1 X89.54 Y116.052 E42.20458
G1 X89.338 Y115.334 E42.33017
G1 X89.208 Y114.792 E42.42402
G1 X89.033 Y113.934 E42.57146
G1 X88.911 Y113.223 E42.69293
G1 X88.813 Y112.505 E42.81495
G1 X88.742 Y111.808 E42.93292
G1 X88.701 Y111.247 E43.02763
G1 X88.667 Y110.4 E43.17036
G1 X88.665 Y109.593 E43.30624
G1 X88.678 Y109.137 E43.38305
G1 X88.706 Y108.614 E43.47124
G1 X88.789 Y107.697 E43.62628
G1 X88.875 Y107.01 E43.74286
G1 X88.954 Y106.486 E43.83209
G1 X89.076 Y105.821 E43.94593
G1 X89.193 Y105.261 E44.04226
G1 X89.405 Y104.416 E44.18895
G1 X89.635 Y103.634 E44.3262
G1 X89.86 Y102.949 E44.4476
G1 X90.138 Y102.211 E44.58039
G1 X90.347 Y101.698 E44.67366
G1 X90.593 Y101.138 E44.77665
G1 X90.867 Y100.56 E44.88435
G1 X91.123 Y100.054 E44.97984
M73 P6
G1 X91.341 Y99.65 E45.05713
G1 X91.69 Y99.05 E45.17401
G1 X92.086 Y98.416 E45.29987
G1 X92.465 Y97.849 E45.41471
G1 X92.86 Y97.296 E45.52914
G1 X93.322 Y96.696 E45.65664
G1 X93.77 Y96.153 E45.77518
G1 X94.198 Y95.664 E45.8846
G1 X94.588 Y95.245 E45.98098
G1 X95.08 Y94.749 E46.09862
G0 F6000 X95.699 Y95.403
G1 F600 X96.201 Y94.928 E46.21498
G1 X96.714 Y94.474 E46.33033
G1 X97.176 Y94.091 E46.43138
G1 X97.939 Y93.502 E46.59368
G1 X98.457 Y93.137 E46.70038
G1 X98.991 Y92.784 E46.80816
G1 X99.579 Y92.422 E46.92443
G1 X100.193 Y92.072 E47.04343
G1 X100.795 Y91.755 E47.15799
G1 X101.321 Y91.499 E47.25649
G1 X101.888 Y91.243 E47.36124
G1 X102.447 Y91.011 E47.46315
G1 X103.03 Y90.79 E47.56813
G1 X103.604 Y90.591 E47.67042
G1 X104.192 Y90.406 E47.77421
G1 X104.71 Y90.26 E47.86483
G1 X105.307 Y90.11 E47.96848
G1 X105.941 Y89.971 E48.07777
G1 X106.575 Y89.853 E48.18635
G1 X107.161 Y89.762 E48.28621
G1 X107.729 Y89.689 E48.38263
G1 X108.251 Y89.637 E48.47096
G1 X108.947 Y89.592 E48.5884
G1 X109.714 Y89.567 E48.71761
G1 X110.421 Y89.567 E48.83666
G1 X111.018 Y89.588 E48.93724
G1 X111.633 Y89.628 E49.04101
G1 X112.226 Y89.684 E49.14131
G1 X112.872 Y89.766 E49.25095
G1 X113.487 Y89.863 E49.35579
G1 X114.037 Y89.965 E49.44998
G1 X114.6 Y90.085 E49.5469
G1 X115.154 Y90.218 E49.64283
G1 X115.865 Y90.421 E49.76734
G1 X116.544 Y90.636 E49.88726
G1 X117.177 Y90.859 E50.00027
G1 X117.686 Y91.057 E50.09223
G1 X118.276 Y91.307 E50.20012
G1 X118.794 Y91.546 E50.29618
G1 X119.491 Y91.893 E50.42728
G1 X120.16 Y92.261 E50.55584
G1 X120.641 Y92.551 E50.65041
G1 X121.428 Y93.055 E50.80777
G1 X122.11 Y93.531 E50.94781
G1 X122.583 Y93.89 E51.0478
G1 X123.042 Y94.26 E51.14707
G1 X123.549 Y94.692 E51.25922
G1 X124.179 Y95.275 E51.40375
G1 X124.816 Y95.922 E51.55663
G1 X125.126 Y96.254 E51.63312
G1 X125.545 Y96.731 E51.74002
G1 X125.958 Y97.231 E51.84922
G1 X126.373 Y97.768 E51.96349
G1 X126.763 Y98.308 E52.07565
M73 P7
G1 X127.112 Y98.823 E52.1804
G1 X127.408 Y99.289 E52.27336
G1 X127.711 Y99.797 E52.37295
G1 X127.988 Y100.293 E52.46861
G1 X128.296 Y100.889 E52.58157
G1 X128.566 Y101.455 E52.68716
G1 X128.811 Y102.009 E52.78916
G1 X129.056 Y102.61 E52.89844
G1 X129.301 Y103.275 E53.01777
G1 X129.503 Y103.886 E53.12613
G1 X129.678 Y104.475 E53.22959
G1 X129.811 Y104.974 E53.31654
G1 X129.944 Y105.53 E53.4128
G1 X130.064 Y106.105 E53.51171
G1 X130.184 Y106.799 E53.6303
G1 X130.293 Y107.582 E53.76341
G1 X130.365 Y108.258 E53.87788
G1 X130.404 Y108.789 E53.96753
G1 X130.431 Y109.412 E54.07253
G1 X130.439 Y110.001 E54.17171
G1 X130.428 Y110.65 E54.281
G1 X130.395 Y111.33 E54.39564
G1 X130.341 Y111.995 E54.50798
G1 X130.276 Y112.571 E54.60558
G1 X130.194 Y113.154 E54.70471
G1 X130.087 Y113.782 E54.81198
G1 X129.948 Y114.458 E54.92818
G1 X129.815 Y115.014 E55.02444
G1 X129.671 Y115.554 E55.11855
G1 X129.526 Y116.043 E55.20443
G1 X129.319 Y116.668 E55.31529
G1 X129.05 Y117.402 E55.44692
G1 X128.782 Y118.063 E55.56701
G1 X128.559 Y118.563 E55.6592
G1 X128.323 Y119.056 E55.75123
G1 X128.052 Y119.587 E55.85161
G1 X127.737 Y120.159 E55.96156
G1 X127.479 Y120.595 E56.04687
G1 X127.179 Y121.073 E56.14189
G1 X126.802 Y121.638 E56.25626
G1 X126.384 Y122.22 E56.37691
G1 X126.003 Y122.714 E56.48196
G1 X125.588 Y123.219 E56.59202
G1 X125.135 Y123.736 E56.70776
G1 X124.703 Y124.199 E56.81438
G1 X124.07 Y124.823 E56.96405
G1 X123.581 Y125.273 E57.07594
G1 X123.029 Y125.752 E57.199
