;FLAVOR:Marlin
M73 P0


; Pre-Processed for Cancel-Object support by preprocess_cancellation v0.2.0
; 1 known objects
EXCLUDE_OBJECT_DEFINE NAME=Dremel_Welder_Tip_stl CENTER=109.981,109.998 POLYGON=[[105.474,105.472],[105.474,114.529],[114.528,114.529],[114.528,105.472]]
M117 Time Left 0h08m20s
;TIME:500
;Filament used: 0.406738m
;Layer height: 0.3
;MINX:100.847
;MINY:100.848
;MINZ:0.45
;MAXX:119.189
;MAXY:119.186
;MAXZ:39.05
;TARGET_MACHINE.NAME:Creality Ender-3
;POSTPROCESSED
;  [InsertAtLayerChange]
;  [MeshPrintSize]
;  [DisplayProgressOnLCD]
;  [DisplayFilenameAndLayerOnLCD]
;KLIPPERSETTINGSPROCESSED
SET_RETRACTION RETRACT_LENGTH=5 RETRACT_SPEED=45 UNRETRACT_SPEED=45 ;KlipperSettingsPlugin

;Generated with Cura_SteamEngine 5.6.0
M82 ;absolute extrusion mode
;Nozzle diameter = 0.6
;Filament type = PLA
;Filament name = PLA
START_PRINT PRINT_MIN=100.847,100.848 PRINT_MAX=119.189,119.186 BED_TEMP=60.0 EXTRUDER_TEMP=200.0
G92 E0
G92 E0
G10
;LAYER_COUNT:129
TIMELAPSE_TAKE_FRAME
;LAYER:0
M117 Printing Dremel_Welder_Tip - Layer 0 of 128
M107
G1 F300 Z0.65
G0 F6000 X103.125 Y103.88 Z0.65
;TYPE:SKIRT
G1 F300 Z0.45
G11
G1 F600 X104.571 Y102.564 E0.32921
G1 X106.111 Y101.675 E0.62862
G1 X107.292 Y101.222 E0.84161
G1 X109.013 Y100.848 E1.13815
G1 X110.947 Y100.848 E1.4638
G1 X112.826 Y101.241 E1.78703
G1 X114.573 Y102.016 E2.10883
G1 X116.126 Y103.134 E2.43104
G1 X117.443 Y104.579 E2.76024
G1 X118.329 Y106.119 E3.0594
G1 X118.783 Y107.302 E3.27275
G1 X119.118 Y108.875 E3.54355
G1 X119.189 Y110.104 E3.75084
G1 X119.021 Y111.75 E4.02943
G1 X118.693 Y112.98 E4.24377
G1 X118.051 Y114.427 E4.51032
G1 X117.375 Y115.477 E4.72059
G1 X116.192 Y116.818 E5.0217
G1 X114.639 Y117.949 E5.34518
G1 X113.037 Y118.672 E5.64113
G1 X111.808 Y119.006 E5.85557
G1 X110.19 Y119.186 E6.12969
G1 X108.919 Y119.127 E6.34393
G1 X107.358 Y118.799 E6.61251
G1 X106.178 Y118.352 E6.82498
G1 X104.632 Y117.478 E7.12401
G1 X103.167 Y116.172 E7.45447
G1 X102.055 Y114.631 E7.77445
G1 X101.263 Y112.894 E8.09589
G1 X100.848 Y111.013 E8.42023
G1 X100.847 Y109.076 E8.74638
G1 X101.254 Y107.153 E9.07735
G1 X101.997 Y105.463 E9.3882
G1 X103.125 Y103.88 E9.71549
G0 F6000 X103.8 Y104.483
G1 F600 X105.108 Y103.293 E10.01324
G1 X106.5 Y102.489 E10.28391
G1 X107.551 Y102.086 E10.47344
G1 X109.107 Y101.748 E10.74155
G1 X110.854 Y101.748 E11.03571
G1 X112.547 Y102.102 E11.32694
G1 X114.125 Y102.802 E11.61761
M73 P1
G1 X115.524 Y103.81 E11.90795
G1 X116.711 Y105.112 E12.20461
G1 X117.515 Y106.509 E12.47601
G1 X117.917 Y107.557 E12.66501
G1 X118.224 Y108.998 E12.91309
G1 X118.287 Y110.083 E13.09609
G1 X118.134 Y111.582 E13.3498
G1 X117.841 Y112.68 E13.54115
G1 X117.256 Y113.999 E13.78411
G1 X116.656 Y114.931 E13.97075
G1 X115.582 Y116.148 E14.24405
G1 X114.18 Y117.169 E14.53608
G1 X112.731 Y117.823 E14.80376
G1 X111.639 Y118.12 E14.99431
G1 X110.164 Y118.284 E15.2442
G1 X109.035 Y118.231 E15.43451
G1 X107.61 Y117.932 E15.67968
G1 X106.558 Y117.534 E15.86907
G1 X105.161 Y116.744 E16.1393
G1 X103.84 Y115.566 E16.43732
G1 X102.836 Y114.175 E16.72617
G1 X102.122 Y112.608 E17.01612
G1 X101.748 Y110.914 E17.30823
G1 X101.747 Y109.167 E17.60239
G1 X102.114 Y107.433 E17.90082
G1 X102.784 Y105.909 E18.18114
G1 X103.8 Y104.483 E18.47596
G0 F6000 X104.475 Y105.086
G1 F600 X105.645 Y104.022 E18.74224
G1 X106.887 Y103.305 E18.98371
G1 X107.806 Y102.952 E19.14948
G1 X109.206 Y102.648 E19.3907
G1 X110.761 Y102.648 E19.65253
G1 X112.268 Y102.963 E19.91176
G1 X113.677 Y103.588 E20.1713
G1 X114.92 Y104.484 E20.42931
G1 X115.981 Y105.647 E20.69438
G1 X116.701 Y106.899 E20.93757
G1 X117.051 Y107.812 E21.1022
G1 X117.329 Y109.114 E21.32638
G1 X117.384 Y110.068 E21.48728
G1 X117.246 Y111.417 E21.71561
G1 X116.99 Y112.379 E21.88322
G1 X116.461 Y113.571 E22.10281
G1 X115.935 Y114.388 E22.26642
G1 X114.975 Y115.476 E22.51074
G1 X113.721 Y116.389 E22.77192
G1 X112.425 Y116.974 E23.01134
G1 X111.47 Y117.234 E23.178
G1 X110.139 Y117.382 E23.40349
M73 P2
G1 X109.15 Y117.335 E23.57021
G1 X107.862 Y117.065 E23.79179
G1 X106.938 Y116.716 E23.9581
G1 X105.69 Y116.01 E24.19953
G1 X104.513 Y114.96 E24.46512
G1 X103.617 Y113.719 E24.72285
G1 X102.981 Y112.322 E24.9813
G1 X102.648 Y110.815 E25.24117
G1 X102.647 Y109.258 E25.50334
G1 X102.974 Y107.713 E25.76925
G1 X103.571 Y106.355 E26.01903
G1 X104.475 Y105.086 E26.28137
G0 F6000 X105.152 Y105.686
G1 F600 X106.176 Y104.755 E26.5144
G1 X107.279 Y104.119 E26.72879
G1 X108.067 Y103.816 E26.87094
G1 X109.3 Y103.548 E27.0834
G1 X110.668 Y103.548 E27.31375
G1 X111.989 Y103.824 E27.54098
G1 X113.229 Y104.374 E27.76938
G1 X114.318 Y105.159 E27.99542
G1 X115.249 Y106.18 E28.22808
G1 X115.887 Y107.289 E28.44351
G1 X116.185 Y108.067 E28.58379
G1 X116.434 Y109.231 E28.78422
G1 X116.481 Y110.052 E28.92268
G1 X116.358 Y111.252 E29.1258
G1 X116.139 Y112.078 E29.26968
G1 X115.666 Y113.143 E29.4659
G1 X115.214 Y113.845 E29.60648
G1 X114.368 Y114.804 E29.82181
G1 X113.262 Y115.609 E30.05214
G1 X112.121 Y116.124 E30.26293
G1 X111.3 Y116.348 E30.40622
G1 X110.114 Y116.48 E30.60715
G1 X109.266 Y116.439 E30.7501
G1 X108.111 Y116.197 E30.94881
G1 X107.323 Y115.9 E31.0906
M117 Time Left 0h08m05s
G1 X106.218 Y115.274 E31.30444
G1 X105.186 Y114.354 E31.53723
G1 X104.398 Y113.263 E31.76384
G1 X103.84 Y112.036 E31.9908
G1 X103.548 Y110.716 E32.21844
G1 X103.547 Y109.349 E32.44861
G1 X103.834 Y107.993 E32.68199
G1 X104.358 Y106.801 E32.90124
G1 X105.152 Y105.686 E33.13172
G0 F6000 X105.827 Y106.289
G1 F600 X106.711 Y105.485 E33.33292
M73 P3
G1 X107.666 Y104.935 E33.51849
G1 X108.325 Y104.681 E33.6374
G1 X109.399 Y104.448 E33.82245
G1 X110.575 Y104.448 E34.02047
G1 X111.71 Y104.685 E34.2157
G1 X112.781 Y105.16 E34.41297
G1 X113.716 Y105.834 E34.60705
G1 X114.517 Y106.713 E34.80729
G1 X115.07 Y107.674 E34.99398
G1 X115.32 Y108.327 E35.11171
G1 X115.539 Y109.349 E35.2877
G1 X115.578 Y110.036 E35.40357
G1 X115.47 Y111.089 E35.5818
G1 X115.288 Y111.776 E35.70147
G1 X114.871 Y112.715 E35.87446
G1 X114.493 Y113.302 E35.99202
G1 X113.761 Y114.132 E36.17836
G1 X112.804 Y114.829 E36.37771
G1 X111.817 Y115.274 E36.56001
G1 X111.129 Y115.462 E36.6801
G1 X110.089 Y115.578 E36.85631
G1 X109.38 Y115.543 E36.97583
G1 X108.361 Y115.33 E37.15112
G1 X107.708 Y115.084 E37.26861
G1 X106.746 Y114.538 E37.45487
G1 X105.859 Y113.748 E37.65487
G1 X105.178 Y112.805 E37.85072
G1 X104.7 Y111.753 E38.04529
G1 X104.448 Y110.616 E38.24138
G1 X104.447 Y109.44 E38.4394
G1 X104.694 Y108.273 E38.64025
G1 X105.145 Y107.247 E38.82896
G1 X105.827 Y106.289 E39.02697
G0 F6000 X106.505 Y106.889
G1 F600 X107.243 Y106.217 E39.19503
G1 X108.058 Y105.748 E39.35336
G1 X108.578 Y105.547 E39.44723
G1 X109.497 Y105.348 E39.60555
G1 X110.482 Y105.348 E39.77141
G1 X111.431 Y105.546 E39.93464
G1 X112.333 Y105.946 E40.10078
G1 X113.114 Y106.509 E40.26289
G1 X113.785 Y107.246 E40.43072
G1 X114.256 Y108.064 E40.58965
G1 X114.454 Y108.581 E40.68287
G1 X114.644 Y109.467 E40.83545
G1 X114.675 Y110.019 E40.92854
G1 X114.582 Y110.924 E41.08172
G1 X114.436 Y111.475 E41.1777
G1 X114.076 Y112.287 E41.32726
M73 P4
G1 X113.772 Y112.759 E41.42179
G1 X113.154 Y113.46 E41.57915
G1 X112.349 Y114.046 E41.7468
G1 X111.508 Y114.425 E41.90213
G1 X110.962 Y114.575 E41.99747
G1 X110.059 Y114.675 E42.15044
G1 X109.494 Y114.647 E42.2457
G1 X108.611 Y114.463 E42.39757
G1 X108.093 Y114.268 E42.49076
G1 X107.274 Y113.803 E42.64934
G1 X106.529 Y113.139 E42.81738
G1 X105.962 Y112.355 E42.98029
G1 X105.558 Y111.465 E43.14487
G1 X105.348 Y110.516 E43.30853
G1 X105.347 Y109.531 E43.47438
G1 X105.554 Y108.553 E43.6427
G1 X105.932 Y107.693 E43.80088
G1 X106.505 Y106.889 E43.96712
G0 F6000 X107.182 Y107.489
G1 F600 X107.776 Y106.949 E44.10229
G1 X108.447 Y106.563 E44.23263
G1 X108.836 Y106.412 E44.30289
G1 X109.595 Y106.248 E44.43364
G1 X110.389 Y106.248 E44.56734
G1 X111.152 Y106.407 E44.69857
G1 X111.885 Y106.732 E44.83358
G1 X112.512 Y107.184 E44.96373
G1 X113.053 Y107.779 E45.09913
G1 X113.439 Y108.449 E45.22933
G1 X113.589 Y108.841 E45.3
G1 X113.749 Y109.585 E45.42814
G1 X113.772 Y110.002 E45.49846
G1 X113.694 Y110.761 E45.62694
G1 X113.585 Y111.173 E45.69869
G1 X113.281 Y111.859 E45.82504
G1 X113.051 Y112.216 E45.89654
G1 X112.544 Y112.791 E46.02562
G1 X111.896 Y113.263 E46.16061
G1 X111.203 Y113.575 E46.28858
G1 X110.793 Y113.688 E46.36019
G1 X110.03 Y113.772 E46.48944
G1 X109.608 Y113.751 E46.56058
G1 X108.864 Y113.596 E46.68854
G1 X108.475 Y113.45 E46.7585
G1 X107.802 Y113.068 E46.88881
G1 X107.199 Y112.53 E47.02488
G1 X106.744 Y111.901 E47.15559
G1 X106.418 Y111.183 E47.28837
G1 X106.248 Y110.415 E47.42081
G1 X106.247 Y109.622 E47.55434
M73 P5
G1 X106.414 Y108.833 E47.69013
G1 X106.719 Y108.139 E47.81777
G1 X107.182 Y107.489 E47.95215
G10
G1 F300 Z0.65
G0 F6000 X108.532 Y108.695 Z0.65
G1 F300 Z0.45
G11
G1 F600 X108.845 Y108.411 E48.02331
G1 X109.286 Y108.157 E48.109
G1 X109.79 Y108.048 E48.19583
G1 X110.203 Y108.048 E48.26537
G1 X110.596 Y108.13 E48.33297
G1 X110.981 Y108.301 E48.4039
G1 X111.309 Y108.537 E48.47194
G1 X111.591 Y108.847 E48.5425
G1 X111.844 Y109.287 E48.62796
G1 X111.974 Y109.892 E48.73216
G1 X111.911 Y110.506 E48.83609
G1 X111.661 Y111.07 E48.93996
G1 X111.322 Y111.453 E49.02609
G1 X110.986 Y111.698 E49.0961
G1 X110.525 Y111.906 E49.18126
G1 X109.904 Y111.974 E49.28645
G1 X109.301 Y111.849 E49.39014
G1 X108.855 Y111.596 E49.47648
G1 X108.543 Y111.317 E49.54696
M117 Time Left 0h07m50s
G1 X108.306 Y110.99 E49.61496
G1 X108.137 Y110.618 E49.68376
G1 X108.048 Y110.214 E49.75341
G1 X108.047 Y109.804 E49.82245
G1 X108.134 Y109.393 E49.89318
G1 X108.293 Y109.031 E49.95976
G1 X108.532 Y108.695 E50.02919
G0 F6000 X107.857 Y108.092
M104 S190
G1 F600 X108.31 Y107.681 E50.13218
G1 X108.837 Y107.377 E50.23462
G1 X109.096 Y107.277 E50.28137
G1 X109.692 Y107.148 E50.38405
G1 X110.296 Y107.148 E50.48575
G1 X110.875 Y107.269 E50.58534
G1 X111.433 Y107.516 E50.68809
G1 X111.911 Y107.861 E50.78735
G1 X112.321 Y108.312 E50.88998
G1 X112.624 Y108.838 E50.99219
G1 X112.724 Y109.098 E51.0391
G1 X112.854 Y109.703 E51.14329
G1 X112.869 Y109.984 E51.19067
M73 P6
G1 X112.806 Y110.598 E51.2946
G1 X112.734 Y110.871 E51.34214
G1 X112.484 Y111.435 E51.44602
G1 X112.335 Y111.667 E51.49245
G1 X111.934 Y112.121 E51.59444
G1 X111.441 Y112.48 E51.69713
G1 X110.895 Y112.726 E51.79796
G1 X110.623 Y112.801 E51.84547
G1 X110.002 Y112.869 E51.95066
G1 X109.721 Y112.855 E51.99803
G1 X109.118 Y112.73 E52.10172
G1 X108.857 Y112.632 E52.14867
G1 X108.327 Y112.331 E52.2513
G1 X107.871 Y111.924 E52.35421
G1 X107.526 Y111.447 E52.45334
G1 X107.278 Y110.901 E52.55431
G1 X107.148 Y110.314 E52.65554
G1 X107.147 Y109.713 E52.75674
G1 X107.274 Y109.113 E52.86001
G1 X107.506 Y108.585 E52.95711
G1 X107.857 Y108.092 E53.05901
G10
G1 F300 Z0.65
;MESH:Dremel_Welder_Tip.stl
EXCLUDE_OBJECT_START NAME=Dremel_Welder_Tip_stl
G0 F6000 X109.948 Y111.063 Z0.65
;TYPE:WALL-OUTER
G1 F300 Z0.45
G11
G1 F600 X109.623 Y110.995 E53.11492
G1 X109.382 Y110.858 E53.1616
G1 X109.214 Y110.707 E53.19964
G1 X108.994 Y110.327 E53.27357
G1 X108.948 Y110.118 E53.3096
G1 X108.992 Y109.677 E53.38423
G1 X109.211 Y109.295 E53.45837
G1 X109.374 Y109.148 E53.49533
G1 X109.622 Y109.004 E53.54361
G1 X109.882 Y108.948 E53.5884
G1 X110.321 Y108.997 E53.66277
G1 X110.528 Y109.085 E53.70065
G1 X110.854 Y109.376 E53.77423
G1 X110.996 Y109.623 E53.8222
G1 X111.063 Y109.933 E53.8756
G1 X111.028 Y110.276 E53.93366
G1 X110.895 Y110.577 E53.98907
G1 X110.637 Y110.867 E54.05442
G1 X110.284 Y111.026 E54.11961
G1 X109.948 Y111.063 E54.17653
;MESH:NONMESH
EXCLUDE_OBJECT_END NAME=Dremel_Welder_Tip_stl
G0 F300 X109.948 Y111.063 Z0.75
M73 P7
G0 F6000 X110.042 Y110.625
;TIME_ELAPSED:38.064112
TIMELAPSE_TAKE_FRAME
;LAYER:1
M117 Printing Dremel_Welder_Tip - Layer 1 of 128
M140 S50
M106 S255
;TYPE:WALL-INNER
;MESH:Dremel_Welder_Tip.stl
EXCLUDE_OBJECT_START NAME=Dremel_Welder_Tip_stl
G1 F600 X110.313 Y110.537 E54.19785
G1 X110.526 Y110.338 E54.21967
G1 X110.601 Y110.167 E54.23364
G1 X110.623 Y109.957 E54.24944
G1 X110.582 Y109.769 E54.26384
G1 X110.386 Y109.507 E54.28833
G1 X110.22 Y109.414 E54.30257
G1 X109.927 Y109.382 E54.32462
G1 X109.772 Y109.417 E54.33652
G1 X109.531 Y109.593 E54.35885
G1 X109.412 Y109.802 E54.37685
G1 X109.382 Y109.946 E54.38785
G1 X109.411 Y110.199 E54.40691
G1 X109.539 Y110.417 E54.42583
G1 X109.753 Y110.569 E54.44547
G1 X110.042 Y110.625 E54.4675
G10
G1 F300 Z0.95
G0 F7500 X109.859 Y108.782 Z0.95
;TYPE:WALL-OUTER
G1 F300 Z0.75
G11
G1 F600 X110.122 Y108.782 E54.48718
G1 X110.432 Y108.844 E54.51084
G1 X110.764 Y109.031 E54.53936
G1 X110.993 Y109.281 E54.56473
G1 X111.149 Y109.549 E54.58794
G1 X111.229 Y109.922 E54.61648
G1 X111.19 Y110.321 E54.64649
G1 X111.038 Y110.668 E54.67484
G1 X110.829 Y110.901 E54.69826
G1 X110.619 Y111.057 E54.71784
G1 X110.4 Y111.157 E54.73585
G1 X110.082 Y111.232 E54.7603
G1 X109.768 Y111.201 E54.78392
G1 X109.517 Y111.125 E54.80354
G1 X109.292 Y110.999 E54.82284
G1 X109.004 Y110.745 E54.85158
G1 X108.841 Y110.396 E54.8804
G1 X108.783 Y110.144 E54.89975
G1 X108.781 Y109.886 E54.91906
G1 X108.861 Y109.503 E54.94834
G1 X109.077 Y109.195 E54.9765
G1 X109.276 Y109.012 E54.99673
G1 X109.55 Y108.852 E55.02047
G1 X109.859 Y108.782 E55.04418
G0 F7500 X110.049 Y109.923
;TYPE:SKIN
G1 F501.4 X109.961 Y109.923 E55.05206
G1 X109.916 Y110 E55.06005
G1 X109.961 Y110.077 E55.06804
G1 X110.049 Y110.077 E55.07592
G1 X110.094 Y110 E55.0839
;MESH:NONMESH
EXCLUDE_OBJECT_END NAME=Dremel_Welder_Tip_stl
G0 F300 X110.094 Y110 Z1.05
G0 F7500 X109.644 Y109.469
;TIME_ELAPSED:39.987122
TIMELAPSE_TAKE_FRAME
;LAYER:2
M117 Printing Dremel_Welder_Tip - Layer 2 of 128
;TYPE:WALL-INNER
;MESH:Dremel_Welder_Tip.stl
EXCLUDE_OBJECT_START NAME=Dremel_Welder_Tip_stl
G1 F600 X109.922 Y109.37 E55.10599
G1 X110.219 Y109.4 E55.12833
G1 X110.403 Y109.505 E55.14418
G1 X110.532 Y109.645 E55.15843
G1 X110.636 Y109.954 E55.18283
G1 X110.615 Y110.172 E55.19922
G1 X110.438 Y110.461 E55.22458
G1 X110.184 Y110.612 E55.24669
G1 X109.864 Y110.619 E55.27064
G1 X109.637 Y110.52 E55.28918
G1 X109.434 Y110.3 E55.31158
G1 X109.371 Y110.11 E55.32656
G1 X109.368 Y109.906 E55.34183
G1 X109.496 Y109.608 E55.3661
G1 X109.644 Y109.469 E55.38129
G10
G1 F300 Z1.25
G0 F9000 X110.007 Y111.238 Z1.25
;TYPE:WALL-OUTER
G1 F300 Z1.05
G11
G1 F600 X110.351 Y111.197 E55.40722
G1 X110.626 Y111.068 E55.42995
G1 X110.846 Y110.906 E55.4504
G1 X111.05 Y110.674 E55.47351
G1 X111.204 Y110.326 E55.50199
G1 X111.242 Y109.918 E55.53266
G1 X111.176 Y109.61 E55.55623
G1 X111.038 Y109.309 E55.58101
G1 X110.782 Y109.031 E55.60929
G1 X110.432 Y108.83 E55.6395
G1 X110.122 Y108.769 E55.66314
G1 X109.854 Y108.77 E55.6832
G1 X109.598 Y108.828 E55.70284
G1 X109.304 Y108.966 E55.72714
G1 X109.018 Y109.232 E55.75637
G1 X108.863 Y109.511 E55.78026
G1 X108.766 Y109.818 E55.80435
G1 X108.772 Y110.212 E55.83384
G1 X108.896 Y110.583 E55.86311
G1 X109.084 Y110.833 E55.88652
G1 X109.29 Y111.014 E55.90704
G1 X109.627 Y111.198 E55.93578
G1 X110.007 Y111.238 E55.96437
G0 F9000 X110.049 Y109.922
;TYPE:SKIN
G1 F474.9 X109.957 Y109.922 E55.97307
G1 X109.909 Y110.003 E55.98197
G1 X109.956 Y110.084 E55.99083
G1 X110.049 Y110.084 E55.99962
G1 X110.097 Y110.003 E56.00852
;MESH:NONMESH
EXCLUDE_OBJECT_END NAME=Dremel_Welder_Tip_stl
G0 F300 X110.097 Y110.003 Z1.35
G0 F9000 X110.104 Y110.645
;TIME_ELAPSED:41.935284
M73 P8
TIMELAPSE_TAKE_FRAME
;LAYER:3
M117 Printing Dremel_Welder_Tip - Layer 3 of 128
;TYPE:WALL-INNER
;MESH:Dremel_Welder_Tip.stl
EXCLUDE_OBJECT_START NAME=Dremel_Welder_Tip_stl
G1 F600 X110.307 Y110.575 E56.02459
G1 X110.549 Y110.356 E56.04901
G1 X110.629 Y110.173 E56.06396
G1 X110.65 Y109.942 E56.08132
G1 X110.558 Y109.674 E56.10252
G1 X110.388 Y109.481 E56.12177
G1 X110.255 Y109.406 E56.1332
G1 X109.961 Y109.348 E56.15562
G1 X109.64 Y109.454 E56.18092
G1 X109.486 Y109.6 E56.1968
G1 X109.355 Y109.901 E56.22137
G1 X109.39 Y110.215 E56.24501
G1 X109.518 Y110.432 E56.26386
G1 X109.767 Y110.61 E56.28677
G1 X110.104 Y110.645 E56.31213
G10
G1 F300 Z1.55
G0 F9000 X109.923 Y108.74 Z1.55
;TYPE:WALL-OUTER
G1 F300 Z1.35
G11
G1 F600 X110.238 Y108.773 E56.33583
G1 X110.494 Y108.851 E56.35585
