;FLAVOR:Marlin
M73 P0


; Pre-Processed for Cancel-Object support by preprocess_cancellation v0.2.0
; 1 known objects
EXCLUDE_OBJECT_DEFINE NAME=floater_stl CENTER=108.689,109.708 POLYGON=[[80.55,48.718],[80.55,171.282],[139.45,171.282],[139.45,48.718]]
M117 Time Left 0h52m35s
;TIME:3155
;Filament used: 5.63646m
;Layer height: 0.3
;MINX:78.75
;MINY:46.918
;MINZ:0.45
;MAXX:141.25
;MAXY:173.082
;MAXZ:6.05
;TARGET_MACHINE.NAME:Creality Ender-3
;POSTPROCESSED
;  [InsertAtLayerChange]
;  [MeshPrintSize]
;  [DisplayProgressOnLCD]
;  [DisplayFilenameAndLayerOnLCD]
;KLIPPERSETTINGSPROCESSED
SET_RETRACTION RETRACT_LENGTH=5 RETRACT_SPEED=20 UNRETRACT_SPEED=20 ;KlipperSettingsPlugin

;Generated with Cura_SteamEngine 5.6.0
M82 ;absolute extrusion mode
;Nozzle diameter = 0.6
;Filament type = PLA
;Filament name = PLA
START_PRINT PRINT_MIN=78.75,46.918 PRINT_MAX=141.25,173.082 BED_TEMP=65 EXTRUDER_TEMP=215
G92 E0
G92 E0
G10
;LAYER_COUNT:19
TIMELAPSE_TAKE_FRAME
;LAYER:0
M117 Printing floater - Layer 0 of 18
M107
G1 F300 Z0.65
G0 F6000 X80.494 Y52.895 Z0.65
;TYPE:SKIRT
G1 F300 Z0.45
G11
G1 F600 X81.131 Y51.935 E0.19399
G1 X81.802 Y51.098 E0.37462
G1 X82.543 Y50.325 E0.55492
G1 X83.346 Y49.62 E0.73485
G1 X84.08 Y49.075 E0.88878
G1 X85.13 Y48.432 E1.0961
G1 X86.091 Y47.959 E1.27645
G1 X87.092 Y47.571 E1.45721
G1 X88.124 Y47.273 E1.63808
G1 X89.208 Y47.064 E1.82397
G1 X90.678 Y46.931 E2.0725
M117 Time Left 0h52m20s
G1 X91.292 Y46.918 E2.1759
G1 X128.317 Y46.918 E8.41015
G1 X129.165 Y46.929 E8.55295
G1 X130.317 Y47.002 E8.74731
G1 X131.374 Y47.163 E8.92734
G1 X132.263 Y47.374 E9.08119
G1 X133.432 Y47.763 E9.28864
G1 X134.342 Y48.16 E9.45581
G1 X135.35 Y48.709 E9.64908
G1 X136.113 Y49.213 E9.80305
G1 X137.075 Y49.977 E10.0099
G1 X137.849 Y50.717 E10.1902
G1 X138.505 Y51.463 E10.35747
G1 X139.142 Y52.324 E10.53781
G1 X139.663 Y53.167 E10.70467
G1 X140.212 Y54.27 E10.91213
G1 X140.598 Y55.266 E11.09199
G1 X140.858 Y56.142 E11.24585
G1 X141.105 Y57.385 E11.45924
M73 P1
M117 Time Left 0h52m05s
G1 X141.237 Y58.847 E11.70641
G1 X141.25 Y59.498 E11.81605
G1 X141.249 Y86.655 E16.38873
G1 X141.239 Y87.356 E16.50677
G1 X141.164 Y88.524 E16.70385
G1 X140.969 Y89.745 E16.91204
G1 X140.569 Y91.559 E17.22482
G1 X140.079 Y94.008 E17.64535
G1 X139.66 Y96.453 E18.06304
G1 X139.311 Y98.915 E18.48174
G1 X139.038 Y101.335 E18.8918
G1 X138.825 Y103.842 E19.31545
G1 X138.685 Y106.32 E19.73336
G1 X138.616 Y108.825 E20.15531
G1 X138.616 Y111.244 E20.56262
G1 X138.687 Y113.742 E20.9834
G1 X138.831 Y116.248 E21.40606
G1 X139.042 Y118.726 E21.82481
M117 Time Left 0h51m50s
G1 X139.316 Y121.139 E22.23372
G1 X139.669 Y123.621 E22.65584
G1 X140.093 Y126.084 E23.07666
G1 X140.584 Y128.533 E23.49723
G1 X140.96 Y130.215 E23.78743
G1 X141.132 Y131.2 E23.9558
G1 X141.235 Y132.456 E24.16799
G1 X141.25 Y133.143 E24.2837
G1 X141.249 Y160.248 E28.84762
G1 X141.239 Y161.014 E28.97661
G1 X141.171 Y162.123 E29.16369
G1 X141.04 Y163.028 E29.31767
G1 X140.759 Y164.226 E29.52486
G1 X140.472 Y165.094 E29.67879
G1 X140.022 Y166.147 E29.87161
G1 X139.513 Y167.092 E30.05234
G1 X138.878 Y168.053 E30.24629
G1 X138.259 Y168.832 E30.41382
G1 X137.466 Y169.667 E30.60772
M73 P2
M117 Time Left 0h51m35s
G1 X136.665 Y170.37 E30.78717
G1 X135.866 Y170.961 E30.95451
G1 X134.954 Y171.522 E31.1348
G1 X133.922 Y172.036 E31.32893
G1 X132.925 Y172.424 E31.50907
G1 X132.049 Y172.685 E31.66297
G1 X130.905 Y172.92 E31.85962
G1 X129.321 Y173.069 E32.12751
G1 X128.67 Y173.082 E32.23715
G1 X91.548 Y173.081 E38.48773
G1 X90.811 Y173.071 E38.61184
G1 X89.701 Y173.001 E38.79911
G1 X88.641 Y172.84 E38.97964
G1 X87.601 Y172.589 E39.15978
G1 X86.733 Y172.302 E39.31372
G1 X85.677 Y171.85 E39.50713
G1 X84.664 Y171.3 E39.70122
G1 X83.836 Y170.752 E39.8684
M117 Time Left 0h51m20s
G1 X82.995 Y170.086 E40.04904
G1 X82.274 Y169.408 E40.21568
G1 X81.456 Y168.489 E40.42284
G1 X80.866 Y167.69 E40.59008
G1 X80.267 Y166.708 E40.78377
G1 X79.794 Y165.747 E40.96412
G1 X79.407 Y164.752 E41.14388
G1 X79.146 Y163.875 E41.29795
G1 X78.911 Y162.731 E41.4946
G1 X78.763 Y161.142 E41.76331
G1 X78.75 Y160.49 E41.87312
G1 X78.751 Y59.676 E58.84812
G1 X78.761 Y58.972 E58.96667
G1 X78.831 Y57.86 E59.15428
G1 X78.993 Y56.799 E59.335
G1 X79.245 Y55.763 E59.51453
G1 X79.532 Y54.895 E59.66846
G1 X80.02 Y53.768 E59.87525
G1 X80.494 Y52.895 E60.04252
M73 P3
M117 Time Left 0h51m05s
G0 F6000 X81.246 Y53.39
G1 F600 X81.835 Y52.496 E60.22278
G1 X82.454 Y51.719 E60.39005
G1 X83.139 Y51 E60.55727
G1 X83.883 Y50.343 E60.72439
G1 X84.617 Y49.798 E60.87833
G1 X85.53 Y49.238 E61.05867
G1 X86.419 Y48.797 E61.22577
G1 X87.345 Y48.435 E61.39318
G1 X88.298 Y48.156 E61.56038
G1 X89.29 Y47.96 E61.73064
G1 X90.697 Y47.831 E61.96854
G1 X91.311 Y47.818 E62.07195
G1 X128.305 Y47.818 E68.30098
G1 X129.153 Y47.829 E68.44378
G1 X130.184 Y47.892 E68.6177
G1 X131.166 Y48.039 E68.78489
G1 X132.055 Y48.25 E68.93874
M117 Time Left 0h50m50s
G1 X133.072 Y48.588 E69.11919
G1 X133.982 Y48.985 E69.28636
G1 X134.854 Y49.46 E69.45356
G1 X135.617 Y49.964 E69.60753
G1 X136.455 Y50.629 E69.78767
G1 X137.175 Y51.314 E69.955
G1 X137.781 Y51.998 E70.10887
G1 X138.418 Y52.859 E70.28921
G1 X138.896 Y53.638 E70.4431
G1 X139.374 Y54.597 E70.62352
G1 X139.735 Y55.522 E70.79072
G1 X139.995 Y56.398 E70.94458
G1 X140.209 Y57.467 E71.12814
G1 X140.337 Y58.865 E71.36452
G1 X140.35 Y59.498 E71.47113
G1 X140.349 Y86.642 E76.04162
G1 X140.339 Y87.343 E76.15967
G1 X140.275 Y88.383 E76.33511
G1 X140.089 Y89.556 E76.53509
M73 P4
M117 Time Left 0h50m35s
G1 X139.875 Y90.555 E76.70712
G1 X139.686 Y91.382 E76.84996
G1 X139.196 Y93.831 E77.27049
G1 X138.773 Y96.301 E77.69244
G1 X138.42 Y98.789 E78.11557
G1 X138.141 Y101.259 E78.53411
G1 X137.926 Y103.791 E78.96198
G1 X137.786 Y106.269 E79.37989
G1 X137.716 Y108.8 E79.80622
G1 X137.716 Y111.27 E80.22212
G1 X137.788 Y113.794 E80.64728
G1 X137.932 Y116.302 E81.07027
G1 X138.145 Y118.802 E81.49275
G1 X138.425 Y121.266 E81.9103
G1 X138.782 Y123.774 E82.33686
G1 X139.206 Y126.237 E82.75767
G1 X139.706 Y128.73 E83.1858
G1 X140.073 Y130.37 E83.46878
M117 Time Left 0h50m20s
G1 X140.245 Y131.355 E83.63714
G1 X140.335 Y132.476 E83.8265
G1 X140.35 Y133.143 E83.93884
G1 X140.349 Y160.236 E88.50074
G1 X140.339 Y161.002 E88.62973
G1 X140.28 Y161.994 E88.79706
G1 X140.149 Y162.899 E88.95103
G1 X139.904 Y163.943 E89.13159
G1 X139.617 Y164.811 E89.28553
G1 X139.228 Y165.723 E89.45248
G1 X138.761 Y166.598 E89.61948
G1 X138.173 Y167.493 E89.79979
G1 X137.554 Y168.272 E89.96733
G1 X136.87 Y168.992 E90.13455
G1 X136.127 Y169.648 E90.30144
G1 X135.394 Y170.194 E90.45534
G1 X134.482 Y170.755 E90.63562
G1 X133.593 Y171.198 E90.80287
G1 X132.668 Y171.561 E90.97018
M73 P5
M117 Time Left 0h50m05s
G1 X131.792 Y171.822 E91.12409
G1 X130.819 Y172.024 E91.29142
G1 X129.303 Y172.169 E91.54785
G1 X128.67 Y172.182 E91.65445
G1 X91.56 Y172.181 E97.90301
G1 X90.823 Y172.171 E98.02712
G1 X89.833 Y172.111 E98.19412
G1 X88.85 Y171.965 E98.36146
G1 X87.884 Y171.734 E98.5287
G1 X87.016 Y171.447 E98.68263
G1 X86.104 Y171.058 E98.84958
G1 X85.161 Y170.549 E99.03001
G1 X84.333 Y170.001 E99.1972
G1 X83.556 Y169.382 E99.36447
G1 X82.892 Y168.754 E99.51836
G1 X82.18 Y167.954 E99.69869
G1 X81.59 Y167.155 E99.86593
G1 X81.073 Y166.308 E100.03301
M117 Time Left 0h49m50s
G1 X80.632 Y165.419 E100.20011
G1 X80.27 Y164.495 E100.36721
G1 X80.009 Y163.618 E100.52128
G1 X79.807 Y162.646 E100.68844
G1 X79.663 Y161.124 E100.94585
G1 X79.65 Y160.49 E101.05263
G1 X79.651 Y59.689 E118.02545
G1 X79.661 Y58.985 E118.144
G1 X79.721 Y57.993 E118.31133
G1 X79.868 Y57.01 E118.47869
G1 X80.1 Y56.046 E118.64564
G1 X80.387 Y55.178 E118.79958
G1 X80.812 Y54.195 E118.9799
G1 X81.246 Y53.39 E119.13389
G0 F6000 X82.038 Y53.817
G1 F600 X82.541 Y53.054 E119.28777
G1 X83.108 Y52.337 E119.44169
G1 X83.736 Y51.673 E119.59558
G1 X84.42 Y51.066 E119.74956
M73 P6
M117 Time Left 0h49m35s
G1 X85.154 Y50.521 E119.90349
G1 X85.933 Y50.043 E120.05738
G1 X86.75 Y49.634 E120.21123
G1 X87.601 Y49.298 E120.36528
G1 X88.477 Y49.038 E120.51914
G1 X89.373 Y48.856 E120.67309
G1 X90.716 Y48.731 E120.9002
G1 X91.33 Y48.718 E121.00361
G1 X128.293 Y48.718 E127.22742
G1 X129.141 Y48.729 E127.37022
G1 X130.053 Y48.782 E127.52404
G1 X130.958 Y48.915 E127.67806
G1 X131.847 Y49.126 E127.8319
G1 X132.715 Y49.414 E127.98589
G1 X133.554 Y49.777 E128.13982
G1 X134.358 Y50.211 E128.29366
G1 X135.121 Y50.715 E128.44763
G1 X135.837 Y51.283 E128.60152
M117 Time Left 0h49m20s
G1 X136.501 Y51.911 E128.75541
G1 X137.107 Y52.595 E128.90928
G1 X137.651 Y53.33 E129.06325
G1 X138.129 Y54.109 E129.21714
G1 X138.537 Y54.927 E129.37106
G1 X138.872 Y55.778 E129.52505
G1 X139.132 Y56.654 E129.67891
G1 X139.313 Y57.55 E129.83283
G1 X139.437 Y58.884 E130.05841
G1 X139.45 Y59.498 E130.16182
G1 X139.449 Y86.629 E134.73012
G1 X139.439 Y87.33 E134.84817
G1 X139.386 Y88.243 E135.00216
G1 X139.209 Y89.368 E135.19392
G1 X138.998 Y90.354 E135.3637
G1 X138.809 Y91.181 E135.50654
G1 X138.309 Y93.679 E135.93549
G1 X137.886 Y96.149 E136.35744
G1 X137.529 Y98.662 E136.78483
M73 P7
M117 Time Left 0h49m05s
G1 X137.244 Y101.183 E137.21202
G1 X137.027 Y103.74 E137.64411
G1 X136.887 Y106.218 E138.06202
G1 X136.816 Y108.775 E138.49273
G1 X136.816 Y111.296 E138.91722
G1 X136.889 Y113.845 E139.34659
G1 X137.033 Y116.361 E139.77093
G1 X137.248 Y118.879 E140.19645
G1 X137.534 Y121.393 E140.62249
G1 X137.895 Y123.927 E141.05347
G1 X138.319 Y126.39 E141.47429
G1 X138.828 Y128.927 E141.90998
G1 X139.187 Y130.528 E142.18625
G1 X139.348 Y131.428 E142.3402
G1 X139.435 Y132.497 E142.52079
G1 X139.45 Y133.143 E142.62959
G1 X139.449 Y160.225 E147.18964
G1 X139.44 Y160.952 E147.31206
M117 Time Left 0h48m50s
G1 X139.389 Y161.865 E147.46603
G1 X139.258 Y162.77 E147.62001
G1 X139.049 Y163.66 E147.77394
G1 X138.762 Y164.528 E147.92788
G1 X138.401 Y165.367 E148.08167
G1 X137.968 Y166.172 E148.23558
G1 X137.466 Y166.936 E148.3895
G1 X136.9 Y167.654 E148.54345
G1 X136.272 Y168.319 E148.69746
G1 X135.589 Y168.926 E148.85131
G1 X134.856 Y169.472 E149.00521
G1 X134.078 Y169.951 E149.15905
G1 X133.261 Y170.361 E149.31297
G1 X132.411 Y170.698 E149.46693
G1 X131.535 Y170.959 E149.62084
G1 X130.639 Y171.142 E149.77482
G1 X129.284 Y171.269 E150.00397
G1 X128.67 Y171.282 E150.10738
G1 X91.572 Y171.281 E156.35392
M73 P8
M117 Time Left 0h48m35s
G1 X90.874 Y171.272 E156.47146
G1 X89.962 Y171.22 E156.62527
G1 X89.057 Y171.089 E156.77924
G1 X88.167 Y170.879 E156.93322
G1 X87.299 Y170.592 E157.08715
G1 X86.46 Y170.231 E157.24094
G1 X85.655 Y169.797 E157.39493
G1 X84.891 Y169.295 E157.54886
G1 X84.174 Y168.728 E157.70278
G1 X83.51 Y168.1 E157.85666
G1 X82.902 Y167.417 E158.01063
G1 X82.357 Y166.684 E158.16443
G1 X81.878 Y165.905 E158.31841
G1 X81.469 Y165.088 E158.47225
G1 X81.133 Y164.238 E158.62615
G1 X80.872 Y163.361 E158.78022
G1 X80.689 Y162.466 E158.93404
G1 X80.563 Y161.105 E159.16418
M117 Time Left 0h48m20s
G1 X80.55 Y160.49 E159.26776
G1 X80.551 Y59.701 E176.23855
G1 X80.56 Y59.036 E176.35054
G1 X80.612 Y58.123 E176.50452
G1 X80.744 Y57.218 E176.65851
G1 X80.955 Y56.329 E176.81236
G1 X81.242 Y55.461 E176.9663
G1 X81.604 Y54.622 E177.12015
G1 X82.038 Y53.817 E177.27414
G10
G1 F300 Z0.65
;MESH:floater.stl
EXCLUDE_OBJECT_START NAME=floater_stl
G0 F6000 X92.351 Y60.519 Z0.65
;TYPE:WALL-INNER
G1 F300 Z0.45
G11
G1 F600 X127.65 Y60.518 E183.21777
G1 X127.65 Y85.837 E187.48097
G1 X118.904 Y85.84 E188.95362
M73 P9
M117 Time Left 0h48m05s
G1 X118.59 Y85.9 E189.00744
G1 X118.32 Y86.02 E189.05719
G1 X118.008 Y86.248 E189.12226
G1 X117.775 Y86.617 E189.19574
G1 X117.652 Y86.979 E189.26012
G1 X117.652 Y132.888 E196.99025
G1 X117.719 Y133.294 E197.05954
G1 X117.958 Y133.673 E197.13498
G1 X118.201 Y133.902 E197.1912
G1 X118.45 Y134.047 E197.23972
G1 X118.806 Y134.16 E197.30261
G1 X127.65 Y134.163 E198.79176
G1 X127.65 Y159.482 E203.05496
G1 X92.351 Y159.481 E208.99858
G1 X92.351 Y60.519 E225.66175
G10
G1 F300 Z0.65
G0 F6000 X128.55 Y160.382 Z0.65
M117 Time Left 0h47m50s
;TYPE:WALL-OUTER
G1 F300 Z0.45
G11
G1 F600 X128.55 Y133.263 E230.22803
G1 X118.933 Y133.262 E231.84733
G1 X118.816 Y133.225 E231.868
G1 X118.652 Y133.1 E231.90272
G1 X118.552 Y132.863 E231.94603
G1 X118.55 Y87.162 E239.64114
G1 X118.613 Y86.955 E239.67757
G1 X118.733 Y86.824 E239.70749
G1 X118.968 Y86.738 E239.74962
G1 X128.55 Y86.737 E241.36303
G1 X128.55 Y59.618 E245.92931
G1 X91.451 Y59.619 E252.17602
G1 X91.451 Y160.381 E269.14227
G1 X128.55 Y160.382 E275.38898
G10
G1 F300 Z0.65
M73 P10
M117 Time Left 0h47m35s
G0 F6000 X126.81 Y158.642 Z0.65
;TYPE:SKIN
G1 F300 Z0.45
G11
G1 F600 X93.192 Y158.641 E281.04956
G1 X93.192 Y61.359 E297.42985
G1 X126.81 Y61.358 E303.09043
G1 X126.81 Y84.997 E307.07075
G1 X118.669 Y85.002 E308.44153
G1 X118.094 Y85.193 E308.54355
G1 X117.727 Y85.404 E308.61483
G1 X117.392 Y85.698 E308.68988
G1 X117.048 Y86.154 E308.78605
G1 X116.866 Y86.695 E308.88216
G1 X116.813 Y87.057 E308.94377
G1 X116.813 Y132.943 E316.67003
G1 X116.866 Y133.305 E316.73163
G1 X117.006 Y133.721 E316.80554
M117 Time Left 0h47m20s
G1 X117.242 Y134.127 E316.88461
G1 X117.546 Y134.453 E316.95966
G1 X117.982 Y134.772 E317.05063
G1 X118.455 Y134.934 E317.13481
G1 X118.836 Y134.998 E317.19986
G1 X126.81 Y135.003 E318.54252
G1 X126.81 Y158.642 E322.52284
G10
G1 F300 Z0.65
G0 F6000 X94.55 Y158.19 Z0.65
G1 F300 Z0.45
G11
G1 F600 X93.641 Y157.281 E322.7393
G0 F6000 X93.641 Y156.008
G1 F600 X95.823 Y158.19 E323.25889
G0 F6000 X97.096 Y158.19
G1 F600 X93.641 Y154.735 E324.08161
G0 F6000 X93.641 Y153.462
G1 F600 X98.369 Y158.19 E325.20746
M73 P11
M117 Time Left 0h47m05s
G0 F6000 X99.641 Y158.19
G1 F600 X93.641 Y152.189 E326.63633
G0 F6000 X93.641 Y150.917
G1 F600 X100.914 Y158.19 E328.3682
G0 F6000 X102.187 Y158.19
G1 F600 X93.641 Y149.644 E330.40322
G0 F6000 X93.641 Y148.371
G1 F600 X103.46 Y158.19 E332.74136
G0 F6000 X104.733 Y158.19
G1 F600 X93.641 Y147.098 E335.38264
G0 F6000 X93.641 Y145.825
G1 F600 X106.005 Y158.19 E338.32693
G0 F6000 X107.278 Y158.19
G1 F600 X93.641 Y144.553 E341.57423
G0 F6000 X93.641 Y143.28
G1 F600 X108.551 Y158.19 E345.12467
G0 F6000 X109.824 Y158.19
G1 F600 X93.641 Y142.007 E348.97824
M117 Time Left 0h46m50s
G0 F6000 X93.641 Y140.734
G1 F600 X111.097 Y158.19 E353.13494
G0 F6000 X112.369 Y158.19
G1 F600 X93.641 Y139.461 E357.59465
G0 F6000 X93.641 Y138.189
G1 F600 X113.642 Y158.19 E362.35738
G0 F6000 X114.915 Y158.19
G1 F600 X93.641 Y136.916 E367.42324
G0 F6000 X93.641 Y135.643
G1 F600 X116.188 Y158.19 E372.79223
G0 F6000 X117.461 Y158.19
G1 F600 X93.641 Y134.37 E378.46436
G0 F6000 X93.641 Y133.098
G1 F600 X118.733 Y158.19 E384.43938
G0 F6000 X120.006 Y158.19
G1 F600 X93.641 Y131.825 E390.71753
G0 F6000 X93.641 Y130.552
G1 F600 X121.279 Y158.19 E397.29881
G0 F6000 X122.552 Y158.19
M73 P12
M117 Time Left 0h46m35s
G1 F600 X93.641 Y129.279 E404.18323
G0 F6000 X93.641 Y128.006
G1 F600 X123.825 Y158.19 E411.37078
G0 F6000 X125.097 Y158.19
G1 F600 X93.641 Y126.734 E418.86122
G0 F6000 X93.641 Y125.461
G1 F600 X126.359 Y158.179 E426.65218
G0 F6000 X126.359 Y156.906
G1 F600 X93.641 Y124.188 E434.44313
G0 F6000 X93.641 Y122.915
G1 F600 X126.359 Y155.634 E442.23421
G0 F6000 X126.359 Y154.361
G1 F600 X93.641 Y121.642 E450.02529
G0 F6000 X93.641 Y120.37
G1 F600 X126.359 Y153.088 E457.81624
G0 F6000 X126.359 Y151.815
G1 F600 X93.641 Y119.097 E465.6072
G0 F6000 X93.641 Y117.824
M117 Time Left 0h46m20s
G1 F600 X126.359 Y150.543 E473.39828
G0 F6000 X126.359 Y149.27
G1 F600 X93.641 Y116.551 E481.18935
G0 F6000 X93.641 Y115.278
G1 F600 X126.359 Y147.997 E488.98043
G0 F6000 X126.359 Y146.724
G1 F600 X93.641 Y114.006 E496.77138
G0 F6000 X93.641 Y112.733
G1 F600 X126.359 Y145.451 E504.56234
G0 F6000 X126.359 Y144.179
G1 F600 X93.641 Y111.46 E512.35342
G0 F6000 X93.641 Y110.187
G1 F600 X116.364 Y132.91 E517.76432
G0 F6000 X116.364 Y131.637
G1 F600 X93.641 Y108.914 E523.17522
G0 F6000 X93.641 Y107.642
G1 F600 X116.364 Y130.365 E528.58612
G0 F6000 X116.364 Y129.092
G1 F600 X93.641 Y106.369 E533.99703
M73 P13
M117 Time Left 0h46m05s
G0 F6000 X93.641 Y105.096
G1 F600 X116.364 Y127.819 E539.40793
G0 F6000 X116.364 Y126.546
G1 F600 X93.641 Y103.823 E544.81883
