;FLAVOR:Marlin
M73 P0


; Pre-Processed for Cancel-Object support by preprocess_cancellation v0.2.0
; 1 known objects
EXCLUDE_OBJECT_DEFINE NAME=floater_indicator_stl CENTER=111.015,117.176 POLYGON=[[107.47,97.8],[107.47,122.2],[112.53,122.2],[112.53,97.8]]
M117 Time Left 0h32m54s
;TIME:1974
;Filament used: 2.26455m
;Layer height: 0.3
;MINX:99.52
;MINY:89.85
;MINZ:0.45
;MAXX:120.48
;MAXY:130.15
;MAXZ:158.45
;TARGET_MACHINE.NAME:Creality Ender-3
;POSTPROCESSED
;  [InsertAtLayerChange]
;  [MeshPrintSize]
;  [DisplayProgressOnLCD]
;  [DisplayFilenameAndLayerOnLCD]
;KLIPPERSETTINGSPROCESSED
SET_RETRACTION RETRACT_LENGTH=5 RETRACT_SPEED=20 UNRETRACT_SPEED=20 ;KlipperSettingsPlugin

;Generated with Cura_SteamEngine 5.6.0
M82 ;absolute extrusion mode
;Nozzle diameter = 0.6
;Filament type = PLA
;Filament name = PLA
START_PRINT PRINT_MIN=99.52,89.85 PRINT_MAX=120.48,130.15 BED_TEMP=65 EXTRUDER_TEMP=215
G92 E0
G92 E0
G10
;LAYER_COUNT:527
TIMELAPSE_TAKE_FRAME
;LAYER:0
M117 Printing floater_indicator - Layer 0 of 526
M107
G1 F300 Z0.65
G0 F6000 X101.467 Y92.36 Z0.65
;TYPE:SKIRT
G1 F300 Z0.45
G11
G1 F600 X102.698 Y91.271 E0.27674
G1 X103.803 Y90.602 E0.49424
G1 X105.157 Y90.088 E0.7381
G1 X106.464 Y89.85 E0.96179
G1 X110.905 Y89.873 E1.70958
G1 X111.963 Y89.963 E1.88837
G1 X113.439 Y90.316 E2.1439
G1 X115.021 Y90.969 E2.43208
G1 X116.374 Y91.824 E2.70157
G1 X117.46 Y92.751 E2.94199
G1 X118.512 Y93.95 E3.21057
G1 X119.414 Y95.423 E3.5014
G1 X119.991 Y96.82 E3.7559
G1 X120.391 Y98.478 E4.04309
G1 X120.48 Y100.002 E4.30013
G1 X120.457 Y120.576 E7.76437
G1 X120.364 Y121.67 E7.94924
G1 X119.95 Y123.301 E8.23258
G1 X119.372 Y124.653 E8.48016
G1 X118.58 Y125.945 E8.73533
G1 X117.5 Y127.214 E9.01591
G1 X116.379 Y128.173 E9.26431
G1 X115.012 Y129.037 E9.5366
G1 X113.394 Y129.705 E9.83135
G1 X111.815 Y130.061 E10.10389
G1 X110.823 Y130.135 E10.27139
G1 X106.681 Y130.15 E10.96882
G1 X105.08 Y129.892 E11.24187
G1 X104.856 Y129.825 E11.28124
G1 X103.275 Y129.118 E11.57285
G1 X102.051 Y128.222 E11.82827
G1 X100.939 Y126.973 E12.10985
G1 X100.271 Y125.861 E12.32827
G1 X99.757 Y124.513 E12.57119
G1 X99.52 Y123.235 E12.79005
G1 X99.52 Y97.006 E17.20647
G1 X99.798 Y95.291 E17.49901
G1 X100.556 Y93.598 E17.81135
G1 X101.467 Y92.36 E18.07016
G0 F6000 X102.136 Y92.971
G1 F600 X103.235 Y91.998 E18.31731
G1 X104.202 Y91.413 E18.50761
G1 X105.398 Y90.959 E18.72301
G1 X106.541 Y90.75 E18.91866
G1 X110.829 Y90.77 E19.64068
G1 X111.822 Y90.854 E19.80848
G1 X113.161 Y91.175 E20.04032
G1 X114.604 Y91.77 E20.30314
G1 X115.839 Y92.551 E20.54918
G1 X116.827 Y93.394 E20.76787
G1 X117.783 Y94.484 E21.01199
G1 X118.609 Y95.833 E21.27833
G1 X119.133 Y97.101 E21.50935
G1 X119.498 Y98.614 E21.77142
G1 X119.58 Y100.001 E22.00537
G1 X119.56 Y120.5 E25.45698
M117 Time Left 0h32m39s
G1 X119.473 Y121.524 E25.63002
G1 X119.097 Y123.006 E25.88746
G1 X118.569 Y124.241 E26.11362
G1 X117.847 Y125.418 E26.34612
G1 X116.863 Y126.574 E26.60173
G1 X115.844 Y127.446 E26.82756
G1 X114.597 Y128.234 E27.07594
G1 X113.12 Y128.844 E27.34501
G1 X111.685 Y129.168 E27.59272
G1 X110.756 Y129.237 E27.74957
G1 X106.754 Y129.25 E28.42343
G1 X105.223 Y129.003 E28.68455
G1 X103.729 Y128.335 E28.96011
G1 X102.658 Y127.551 E29.1836
G1 X101.669 Y126.44 E29.43405
G1 X101.084 Y125.466 E29.62536
G1 X100.627 Y124.268 E29.84126
G1 X100.42 Y123.152 E30.03237
G1 X100.42 Y97.076 E34.42304
M73 P1
G1 X100.667 Y95.555 E34.6825
G1 X101.339 Y94.053 E34.95956
G1 X102.136 Y92.971 E35.18584
G0 F6000 X102.804 Y93.581
G1 F600 X103.769 Y92.727 E35.40281
G1 X104.599 Y92.225 E35.56614
G1 X105.641 Y91.829 E35.75384
G1 X106.619 Y91.65 E35.92125
G1 X110.753 Y91.667 E36.61733
G1 X111.682 Y91.746 E36.77432
G1 X112.879 Y92.032 E36.98155
G1 X114.189 Y92.573 E37.22019
G1 X115.305 Y93.278 E37.44246
G1 X116.193 Y94.037 E37.63916
G1 X117.057 Y95.022 E37.85977
G1 X117.802 Y96.238 E38.09989
G1 X118.275 Y97.382 E38.30834
G1 X118.605 Y98.75 E38.54529
G1 X118.68 Y100 E38.75614
G1 X118.663 Y120.424 E42.19512
G1 X118.582 Y121.377 E42.35617
G1 X118.243 Y122.712 E42.58809
G1 X117.764 Y123.833 E42.79335
G1 X117.119 Y124.885 E43.00113
G1 X116.223 Y125.937 E43.2338
G1 X115.309 Y126.719 E43.43634
G1 X114.182 Y127.431 E43.6608
G1 X112.846 Y127.983 E43.9042
G1 X111.554 Y128.275 E44.12724
G1 X110.69 Y128.339 E44.27312
G1 X106.822 Y128.35 E44.92441
G1 X105.485 Y128.134 E45.15245
G1 X104.183 Y127.552 E45.39259
G1 X103.265 Y126.88 E45.58415
G1 X102.396 Y125.904 E45.80419
G1 X101.898 Y125.075 E45.96703
G1 X101.497 Y124.023 E46.15659
G1 X101.32 Y123.069 E46.31997
G1 X101.32 Y97.146 E50.68487
G1 X101.536 Y95.816 E50.91175
G1 X102.121 Y94.509 E51.15286
G1 X102.804 Y93.581 E51.34687
G0 F6000 X103.472 Y94.191
G1 F600 X104.303 Y93.456 E51.53367
G1 X104.996 Y93.037 E51.67003
M117 Time Left 0h32m24s
G1 X105.885 Y92.699 E51.83017
G1 X106.697 Y92.55 E51.96918
G1 X110.677 Y92.564 E52.63934
G1 X111.541 Y92.637 E52.78533
G1 X112.601 Y92.891 E52.96887
G1 X113.772 Y93.374 E53.18215
G1 X114.771 Y94.005 E53.38111
G1 X115.559 Y94.679 E53.55571
G1 X116.331 Y95.56 E53.75295
G1 X116.995 Y96.643 E53.96685
G1 X117.417 Y97.663 E54.15271
G1 X117.712 Y98.886 E54.36455
G1 X117.78 Y99.999 E54.5523
G1 X117.766 Y120.348 E57.97865
G1 X117.691 Y121.231 E58.12787
G1 X117.39 Y122.417 E58.3339
G1 X116.959 Y123.425 E58.51849
G1 X116.391 Y124.352 E58.70155
G1 X115.583 Y125.3 E58.91128
G1 X114.774 Y125.992 E59.09054
G1 X113.765 Y126.63 E59.29155
G1 X112.575 Y127.121 E59.5083
G1 X111.422 Y127.382 E59.70736
G1 X110.624 Y127.441 E59.84209
G1 X106.891 Y127.45 E60.47065
G1 X105.747 Y127.265 E60.66578
G1 X104.637 Y126.769 E60.87049
G1 X103.872 Y126.209 E61.03013
G1 X103.125 Y125.37 E61.21928
G1 X102.71 Y124.68 E61.35486
G1 X102.368 Y123.781 E61.51681
G1 X102.22 Y122.985 E61.65314
G1 X102.22 Y97.216 E65.99211
G1 X102.405 Y96.077 E66.18641
G1 X102.903 Y94.965 E66.39156
G1 X103.472 Y94.191 E66.55332
G0 F6000 X104.141 Y94.802
M73 P2
G1 F600 X104.84 Y94.183 E66.71053
G1 X105.39 Y93.85 E66.81879
G1 X106.131 Y93.569 E66.95223
G1 X106.777 Y93.45 E67.06283
G1 X110.601 Y93.461 E67.70672
G1 X111.401 Y93.529 E67.84191
G1 X112.321 Y93.749 E68.00118
G1 X113.358 Y94.177 E68.19008
G1 X114.234 Y94.73 E68.36451
G1 X114.925 Y95.321 E68.51761
G1 X115.605 Y96.098 E68.69147
G1 X116.19 Y97.052 E68.8799
G1 X116.558 Y97.94 E69.04175
G1 X116.819 Y99.022 E69.22917
G1 X116.88 Y99.999 E69.39399
G1 X116.869 Y120.272 E72.80755
G1 X116.8 Y121.085 E72.94493
G1 X116.537 Y122.122 E73.12507
G1 X116.156 Y123.013 E73.28824
G1 X115.658 Y123.825 E73.44863
G1 X114.947 Y124.66 E73.63329
G1 X114.24 Y125.265 E73.78997
G1 X113.35 Y125.827 E73.9672
G1 X112.302 Y126.26 E74.15813
G1 X111.29 Y126.489 E74.33284
G1 X110.558 Y126.543 E74.45643
G1 X106.96 Y126.55 E75.06226
M117 Time Left 0h32m09s
G1 X106.009 Y126.396 E75.22448
G1 X105.091 Y125.986 E75.39376
G1 X104.479 Y125.538 E75.52147
G1 X103.854 Y124.836 E75.67973
G1 X103.522 Y124.285 E75.78805
G1 X103.238 Y123.538 E75.92261
G1 X103.12 Y122.902 E76.03153
G1 X103.12 Y97.287 E80.34457
G1 X103.274 Y96.341 E80.50595
G1 X103.686 Y95.42 E80.67584
G1 X104.141 Y94.802 E80.80506
G0 F6000 X104.809 Y95.412
G1 F600 X105.374 Y94.912 E80.9321
G1 X105.787 Y94.662 E81.01339
G1 X106.374 Y94.439 E81.11912
G1 X106.857 Y94.35 E81.20181
G1 X110.525 Y94.358 E81.81943
G1 X111.26 Y94.42 E81.94363
G1 X112.042 Y94.608 E82.07905
G1 X112.944 Y94.98 E82.24334
G1 X113.697 Y95.455 E82.39325
G1 X114.291 Y95.963 E82.52485
G1 X114.879 Y96.635 E82.67521
G1 X115.385 Y97.461 E82.83831
G1 X115.699 Y98.218 E82.9763
G1 X115.926 Y99.158 E83.13913
G1 X115.98 Y99.999 E83.28103
G1 X115.972 Y120.196 E86.68179
G1 X115.909 Y120.938 E86.80717
G1 X115.683 Y121.828 E86.96179
G1 X115.351 Y122.605 E87.10406
G1 X114.93 Y123.292 E87.23973
G1 X114.307 Y124.023 E87.40145
G1 X113.703 Y124.54 E87.53532
G1 X112.938 Y125.023 E87.68766
G1 X112.029 Y125.399 E87.85329
G1 X111.158 Y125.596 E88.00366
G1 X110.492 Y125.645 E88.1161
G1 X107.029 Y125.65 E88.6992
G1 X106.271 Y125.527 E88.8285
G1 X105.545 Y125.203 E88.96236
G1 X105.086 Y124.867 E89.05815
G1 X104.584 Y124.303 E89.18528
G1 X104.333 Y123.887 E89.26709
G1 X104.108 Y123.295 E89.37373
G1 X104.02 Y122.819 E89.45523
G1 X104.02 Y97.358 E93.74234
G1 X104.143 Y96.603 E93.87114
G1 X104.469 Y95.874 E94.00561
G1 X104.809 Y95.412 E94.10219
G0 F6000 X105.477 Y96.022
G1 F600 X105.908 Y95.641 E94.19905
G1 X106.184 Y95.474 E94.25337
G1 X106.617 Y95.309 E94.33139
G1 X106.938 Y95.25 E94.38635
M73 P3
G1 X110.45 Y95.255 E94.9777
G1 X111.116 Y95.311 E95.09024
G1 X111.764 Y95.467 E95.20246
G1 X112.53 Y95.783 E95.34199
G1 X113.16 Y96.18 E95.46737
G1 X113.656 Y96.604 E95.57724
G1 X114.153 Y97.173 E95.70445
G1 X114.579 Y97.868 E95.84171
M117 Time Left 0h31m54s
G1 X114.841 Y98.498 E95.9566
G1 X115.033 Y99.294 E96.09447
G1 X115.08 Y99.999 E96.21344
G1 X115.075 Y120.12 E99.6014
G1 X115.018 Y120.792 E99.71496
G1 X114.83 Y121.533 E99.84368
G1 X114.548 Y122.193 E99.96453
G1 X114.197 Y122.765 E100.07753
G1 X113.671 Y123.383 E100.21418
G1 X113.166 Y123.815 E100.32608
G1 X112.526 Y124.219 E100.45352
G1 X111.755 Y124.538 E100.59401
G1 X111.026 Y124.703 E100.71986
G1 X110.426 Y124.747 E100.82116
G1 X107.099 Y124.75 E101.38136
G1 X106.533 Y124.658 E101.47791
G1 X106 Y124.42 E101.5762
G1 X105.695 Y124.197 E101.63982
G1 X105.312 Y123.767 E101.73678
G1 X105.143 Y123.487 E101.79185
G1 X104.979 Y123.055 E101.86965
G1 X104.92 Y122.736 E101.92428
G1 X104.92 Y97.429 E106.18546
G1 X105.012 Y96.865 E106.28168
G1 X105.252 Y96.328 E106.38072
G1 X105.477 Y96.022 E106.44467
G10
G1 F300 Z0.65
G0 F6000 X106.871 Y97.163 Z0.65
G1 F300 Z0.45
G11
G1 F600 X107.073 Y97.05 E106.48364
G1 X110.374 Y97.052 E107.03946
G1 X110.827 Y97.093 E107.11605
G1 X111.207 Y97.184 E107.18184
G1 X111.699 Y97.387 E107.27146
G1 X112.091 Y97.634 E107.34948
G1 X112.389 Y97.889 E107.41552
G1 X112.695 Y98.24 E107.49392
G1 X112.973 Y98.692 E107.58327
G1 X113.123 Y99.054 E107.64925
G1 X113.248 Y99.572 E107.73898
G1 X113.28 Y99.999 E107.81108
G1 X113.278 Y120.044 E111.18624
G1 X113.237 Y120.497 E111.26283
G1 X113.124 Y120.943 E111.3403
G1 X112.942 Y121.369 E111.4183
G1 X112.737 Y121.703 E111.48429
G1 X112.391 Y122.109 E111.57411
G1 X112.092 Y122.365 E111.64039
G1 X111.702 Y122.611 E111.71803
G1 X111.207 Y122.816 E111.80824
G1 X110.757 Y122.918 E111.88593
G1 X110.36 Y122.949 E111.95298
G1 X107.17 Y122.95 E112.49011
G1 X106.986 Y122.91 E112.52182
G1 X106.833 Y122.799 E112.55364
G1 X106.72 Y122.598 E112.59247
G1 X106.72 Y97.5 E116.81846
G1 X106.76 Y97.316 E116.85016
G1 X106.871 Y97.163 E116.88199
G0 F6000 X106.073 Y96.696
G1 F600 X106.504 Y96.315 E116.97885
G1 X106.937 Y96.15 E117.05687
M117 Time Left 0h31m39s
G1 X110.375 Y96.152 E117.63576
G1 X110.972 Y96.202 E117.73664
G1 X111.486 Y96.326 E117.82567
G1 X112.112 Y96.584 E117.93967
G1 X112.628 Y96.909 E118.04236
G1 X113.021 Y97.245 E118.12942
G1 X113.425 Y97.708 E118.23288
G1 X113.776 Y98.28 E118.34588
G1 X113.982 Y98.776 E118.43632
M73 P4
G1 X114.14 Y99.43 E118.5496
G1 X114.18 Y99.999 E118.64565
G1 X114.178 Y120.044 E122.02081
G1 X114.127 Y120.646 E122.12254
G1 X113.977 Y121.238 E122.22537
G1 X113.745 Y121.781 E122.3248
G1 X113.467 Y122.234 E122.41429
G1 X113.031 Y122.746 E122.52753
G1 X112.629 Y123.09 E122.61661
G1 X112.114 Y123.415 E122.71915
G1 X111.481 Y123.677 E122.83451
G1 X110.894 Y123.81 E122.93585
G1 X110.36 Y123.849 E123.026
G1 X107.17 Y123.85 E123.56313
G1 X106.795 Y123.789 E123.62711
G1 X106.367 Y123.598 E123.70602
G1 X105.984 Y123.168 E123.80298
G1 X105.82 Y122.736 E123.88079
G1 X105.82 Y97.5 E128.13001
G1 X105.881 Y97.125 E128.19398
G1 X106.073 Y96.696 E128.27312
G10
G1 F300 Z0.65
;MESH:floater_indicator.stl
EXCLUDE_OBJECT_START NAME=floater_indicator_stl
G0 F6000 X108.521 Y121.149 Z0.65
;TYPE:WALL-INNER
G1 F300 Z0.45
G11
G1 F600 X108.521 Y98.851 E132.02765
G1 X110.281 Y98.852 E132.32399
G1 X110.676 Y98.909 E132.39119
G1 X111.003 Y99.073 E132.45279
G1 X111.143 Y99.194 E132.48395
G1 X111.35 Y99.483 E132.5438
G1 X111.479 Y99.87 E132.61249
G1 X111.479 Y119.951 E135.99372
G1 X111.422 Y120.342 E136.06025
G1 X111.248 Y120.682 E136.12456
G1 X111.003 Y120.927 E136.1829
G1 X110.677 Y121.091 E136.24435
G1 X110.268 Y121.15 E136.31393
G1 X108.521 Y121.149 E136.60809
G0 F6000 X107.621 Y122.049
;TYPE:WALL-OUTER
G1 F600 X110.304 Y122.05 E137.05985
G1 X110.654 Y122.022 E137.11897
G1 X110.955 Y121.95 E137.17108
G1 X111.261 Y121.823 E137.22687
G1 X111.534 Y121.657 E137.28067
G1 X111.783 Y121.442 E137.33606
G1 X111.98 Y121.212 E137.38705
G1 X112.153 Y120.927 E137.44319
G1 X112.281 Y120.622 E137.49888
G1 X112.351 Y120.325 E137.55026
G1 X112.379 Y119.987 E137.60737
M117 Time Left 0h31m24s
G1 X112.379 Y100.013 E140.97058
G1 X112.352 Y99.671 E141.02835
G1 X112.281 Y99.378 E141.07911
G1 X112.154 Y99.073 E141.13474
G1 X111.98 Y98.788 E141.19096
G1 X111.783 Y98.558 E141.24195
G1 X111.534 Y98.343 E141.29735
G1 X111.261 Y98.177 E141.35115
G1 X110.955 Y98.05 E141.40693
G1 X110.655 Y97.979 E141.45884
G1 X110.317 Y97.952 E141.51593
G1 X107.621 Y97.951 E141.96988
G1 X107.621 Y122.049 E146.02749
G10
G1 F300 Z0.65
G0 F6000 X109.455 Y120.215 Z0.65
M104 S200
;TYPE:SKIN
G1 F300 Z0.45
G11
G1 F495.9 X109.455 Y120.215
G1 X109.455 Y99.786 E150.18968
G1 X110.235 Y99.786 E150.3486
G1 X110.451 Y99.838 E150.39386
G1 X110.545 Y99.974 E150.42754
G1 X110.545 Y120.024 E154.51251
G1 X110.439 Y120.176 E154.55027
G1 X110.32 Y120.215 E154.57578
M73 P5
G1 X109.455 Y120.215 E154.75202
G10
G1 F300 Z0.65
;MESH:NONMESH
EXCLUDE_OBJECT_END NAME=floater_indicator_stl
G0 F6000 X108.07 Y121.6 Z0.65
;TIME_ELAPSED:98.844298
TIMELAPSE_TAKE_FRAME
;LAYER:1
M117 Printing floater_indicator - Layer 1 of 526
M140 S60
M106 S63.8
;MESH:floater_indicator.stl
EXCLUDE_OBJECT_START NAME=floater_indicator_stl
G0 F7500 X108.07 Y121.6 Z0.95
;TYPE:WALL-INNER
G1 F300 Z0.75
G11
G1 F1200 X110.278 Y121.6 E154.91725
G1 X110.706 Y121.565 E154.94939
G1 X111.174 Y121.373 E154.98724
G1 X111.553 Y121.046 E155.0247
G1 X111.752 Y120.722 E155.05316
G1 X111.895 Y120.376 E155.08118
G1 X111.928 Y119.986 E155.11047
G1 X111.929 Y100.031 E156.6038
G1 X111.897 Y99.625 E156.63428
G1 X111.752 Y99.278 E156.66243
G1 X111.553 Y98.954 E156.69088
G1 X111.176 Y98.628 E156.72818
G1 X110.707 Y98.434 E156.76616
G1 X110.315 Y98.402 E156.79559
G1 X108.071 Y98.401 E156.96352
G1 X108.07 Y121.6 E158.69963
G10
G1 F300 Z0.95
G0 F7500 X110.339 Y97.802 Z0.95
;TYPE:WALL-OUTER
G1 F300 Z0.75
G11
G1 F1200 X110.679 Y97.83 E158.72516
G1 X111.002 Y97.907 E158.75001
G1 X111.329 Y98.043 E158.77651
G1 X111.622 Y98.221 E158.80217
G1 X111.89 Y98.452 E158.82864
G1 X112.102 Y98.7 E158.85306
G1 X112.288 Y99.004 E158.87973
G1 X112.424 Y99.331 E158.90623
G1 X112.5 Y99.647 E158.93056
G1 X112.529 Y100.007 E158.95758
G1 X112.528 Y120.01 E160.45452
G1 X112.5 Y120.349 E160.47997
G1 X112.424 Y120.668 E160.50451
G1 X112.288 Y120.996 E160.53108
G1 X112.102 Y121.3 E160.55775
G1 X111.89 Y121.548 E160.58217
G1 X111.622 Y121.779 E160.60865
G1 X111.329 Y121.957 E160.6343
G1 X111.002 Y122.093 E160.66081
G1 X110.678 Y122.17 E160.68573
G1 X110.301 Y122.2 E160.71403
G1 X107.47 Y122.2 E160.92589
G1 X107.471 Y97.801 E162.7518
M117 Time Left 0h31m09s
G1 X110.339 Y97.802 E162.96642
G10
G1 F300 Z0.95
G0 F7500 X110.587 Y121.032 Z0.95
;TYPE:SKIN
G1 F300 Z0.75
G11
G1 F1200 X110.949 Y120.85 E162.99675
G1 X111.241 Y120.556 E163.02776
G1 X111.388 Y120.108 E163.06304
G1 X111.388 Y99.886 E164.57636
G1 X111.269 Y99.529 E164.60452
G1 X111.026 Y99.189 E164.6358
G1 X110.645 Y98.997 E164.66772
G1 X110.288 Y98.943 E164.69474
G1 X108.612 Y98.943 E164.82017
G1 X108.61 Y121.06 E166.4753
G1 X110.249 Y121.06 E166.59795
G1 X110.587 Y121.032 E166.62334
G0 F7500 X111.087 Y119.712
G1 F1200 X110.039 Y120.759 E166.7342
G0 F7500 X109.191 Y120.759
G1 F1200 X111.087 Y118.863 E166.93486
G0 F7500 X111.087 Y118.015
G1 F1200 X108.91 Y120.191 E167.1652
G0 F7500 X108.91 Y119.343
G1 F1200 X111.087 Y117.166 E167.3956
G0 F7500 X111.087 Y116.318
G1 F1200 X108.91 Y118.494 E167.62595
G0 F7500 X108.91 Y117.646
G1 F1200 X111.087 Y115.469 E167.85634
G0 F7500 X111.087 Y114.621
G1 F1200 X108.91 Y116.797 E168.08669
G0 F7500 X108.91 Y115.949
G1 F1200 X111.087 Y113.772 E168.31709
