;FLAVOR:Marlin
M73 P0


; Pre-Processed for Cancel-Object support by preprocess_cancellation v0.2.0
; 1 known objects
EXCLUDE_OBJECT_DEFINE NAME=Frame_stl CENTER=109.306,122.163 POLYGON=[[5.386,59.705],[5.386,160.295],[214.614,160.295],[214.614,59.705]]
M117 Time Left 0h38m52s
;TIME:2332
;Filament used: 3.36265m
;Layer height: 0.3
;MINX:1.012
;MINY:55.355
;MINZ:0.45
;MAXX:218.976
;MAXY:164.645
;MAXZ:5.15
;TARGET_MACHINE.NAME:Creality Ender-3
;POSTPROCESSED
;  [InsertAtLayerChange]
;  [MeshPrintSize]
;  [DisplayProgressOnLCD]
;  [DisplayFilenameAndLayerOnLCD]
;KLIPPERSETTINGSPROCESSED
SET_RETRACTION RETRACT_LENGTH=5 RETRACT_SPEED=20 UNRETRACT_SPEED=20 ;KlipperSettingsPlugin

;Generated with Cura_SteamEngine 5.6.0
M82 ;absolute extrusion mode
;Nozzle diameter = 0.6
;Filament type = PLA
;Filament name = PLA
START_PRINT PRINT_MIN=1.012,55.355 PRINT_MAX=218.976,164.645 BED_TEMP=60.0 EXTRUDER_TEMP=210.0
G92 E0
G92 E0
G10
;LAYER_COUNT:16
TIMELAPSE_TAKE_FRAME
;LAYER:0
M117 Printing Frame - Layer 0 of 15
M107
G1 F300 Z0.65
G0 F6000 X5.069 Y55.355 Z0.65
;TYPE:SKIRT
G1 F300 Z0.45
G11
G1 F600 X10.283 Y55.355 E0.87793
G1 X11.233 Y55.509 E1.03998
G1 X12.15 Y55.919 E1.20911
G1 X12.763 Y56.369 E1.33716
G1 X13.381 Y57.064 E1.49375
G1 X13.723 Y57.628 E1.60481
G1 X13.986 Y58.325 E1.73025
G1 X14.099 Y58.859 E1.82216
G1 X14.28 Y62.202 E2.38587
G1 X14.524 Y65.142 E2.88261
G1 X14.852 Y67.981 E3.36382
G1 X15.294 Y70.999 E3.87741
G1 X15.791 Y73.802 E4.35674
G1 X16.383 Y76.64 E4.84489
G1 X17.103 Y79.614 E5.36011
G1 X17.876 Y82.427 E5.85132
G1 X18.72 Y85.173 E6.33504
G1 X19.698 Y88.037 E6.84462
G1 X20.707 Y90.725 E7.32806
G1 X21.855 Y93.512 E7.83559
G1 X23.022 Y96.117 E8.31622
G1 X24.343 Y98.838 E8.82552
G1 X25.686 Y101.407 E9.31363
G1 X27.108 Y103.933 E9.80172
G1 X28.631 Y106.453 E10.2975
G1 X30.288 Y109.014 E10.81111
G1 X31.937 Y111.395 E11.29879
G1 X33.676 Y113.755 E11.79239
G1 X35.471 Y116.037 E12.28126
G1 X37.354 Y118.288 E12.77541
G1 X39.375 Y120.557 E13.28704
G1 X41.33 Y122.621 E13.76572
G1 X43.466 Y124.742 E14.27258
G1 X45.558 Y126.694 E14.75435
G1 X47.863 Y128.716 E15.27063
G1 X50.033 Y130.508 E15.7445
G1 X52.458 Y132.386 E16.26095
G1 X54.738 Y134.043 E16.73553
G1 X57.261 Y135.762 E17.24958
G1 X59.659 Y137.289 E17.72827
G1 X62.258 Y138.833 E18.23729
G1 X64.82 Y140.255 E18.73067
G1 X67.373 Y141.567 E19.21398
G1 X70.114 Y142.872 E19.72515
M117 Time Left 0h38m37s
G1 X72.767 Y144.038 E20.2131
G1 X75.482 Y145.132 E20.70597
G1 X78.247 Y146.148 E21.20197
G1 X81.102 Y147.101 E21.70877
G1 X83.802 Y147.91 E22.18337
G1 X86.765 Y148.7 E22.6997
G1 X89.546 Y149.352 E23.18066
G1 X92.463 Y149.939 E23.68167
G1 X95.383 Y150.438 E24.18047
G1 X98.214 Y150.83 E24.6617
G1 X101.234 Y151.155 E25.17314
G1 X104.078 Y151.373 E25.65342
G1 X107.044 Y151.51 E26.15336
G1 X110.001 Y151.557 E26.65132
G1 X112.954 Y151.51 E27.14861
G1 X115.923 Y151.373 E27.64906
G1 X118.766 Y151.155 E28.12917
G1 X121.785 Y150.83 E28.64044
G1 X124.618 Y150.438 E29.12201
G1 X127.559 Y149.935 E29.6244
G1 X130.454 Y149.352 E30.12165
G1 X133.212 Y148.707 E30.59857
G1 X136.198 Y147.91 E31.11895
G1 X138.899 Y147.101 E31.5937
G1 X141.739 Y146.154 E32.09779
G1 X144.501 Y145.137 E32.59337
G1 X147.277 Y144.018 E33.09734
G1 X149.885 Y142.872 E33.577
M73 P1
G1 X152.627 Y141.567 E34.08832
G1 X155.209 Y140.239 E34.57721
G1 X157.73 Y138.841 E35.06259
G1 X160.34 Y137.289 E35.57389
G1 X162.739 Y135.762 E36.05272
G1 X165.249 Y134.052 E36.56411
G1 X167.542 Y132.386 E37.04135
G1 X169.966 Y130.509 E37.55757
G1 X172.205 Y128.662 E38.04629
G1 X174.397 Y126.737 E38.5375
G1 X176.592 Y124.687 E39.04321
G1 X178.599 Y122.693 E39.51958
G1 X180.624 Y120.557 E40.01518
G1 X182.653 Y118.279 E40.52883
G1 X184.5 Y116.073 E41.01328
G1 X186.356 Y113.711 E41.51909
G1 X188.051 Y111.412 E42.00003
G1 X189.767 Y108.932 E42.50783
G1 X191.313 Y106.544 E42.98683
G1 X192.892 Y103.932 E43.50075
G1 X194.327 Y101.383 E43.99329
G1 X195.645 Y98.862 E44.47229
G1 X196.978 Y96.117 E44.9861
M117 Time Left 0h38m22s
G1 X198.145 Y93.511 E45.46689
G1 X199.299 Y90.71 E45.97698
G1 X200.294 Y88.062 E46.45328
G1 X201.28 Y85.174 E46.96712
G1 X202.128 Y82.415 E47.45313
G1 X202.897 Y79.614 E47.94221
G1 X203.616 Y76.64 E48.4574
G1 X204.209 Y73.802 E48.94558
G1 X204.706 Y70.999 E49.42491
G1 X205.148 Y67.981 E49.9385
G1 X205.476 Y65.141 E50.41988
G1 X205.72 Y62.206 E50.91578
G1 X205.896 Y58.983 E51.45927
G1 X206.095 Y58.047 E51.6204
G1 X206.501 Y57.261 E51.76936
G1 X206.997 Y56.589 E51.90999
G1 X207.764 Y55.976 E52.07532
G1 X208.337 Y55.668 E52.18485
G1 X209.042 Y55.442 E52.30951
G1 X209.599 Y55.355 E52.40443
G1 X215.142 Y55.355 E53.33776
G1 X216.092 Y55.509 E53.49981
G1 X217.009 Y55.919 E53.66895
G1 X217.625 Y56.372 E53.79769
G1 X218.254 Y57.081 E53.95728
G1 X218.62 Y57.713 E54.08026
G1 X218.929 Y58.65 E54.24639
G1 X218.976 Y59.612 E54.40856
G1 X218.809 Y62.859 E54.95601
G1 X218.542 Y66.094 E55.50257
G1 X218.183 Y69.325 E56.04995
G1 X217.729 Y72.53 E56.595
G1 X217.174 Y75.744 E57.14418
G1 X216.526 Y78.929 E57.69145
G1 X215.785 Y82.092 E58.23846
G1 X214.95 Y85.23 E58.78522
G1 X214.045 Y88.268 E59.31897
G1 X212.998 Y91.431 E59.87997
G1 X211.884 Y94.483 E60.42703
G1 X210.682 Y97.502 E60.97417
G1 X209.388 Y100.483 E61.52136
G1 X208.019 Y103.398 E62.06362
G1 X206.54 Y106.322 E62.61536
G1 X205.012 Y109.131 E63.15379
G1 X203.346 Y111.984 E63.71008
G1 X201.626 Y114.738 E64.25681
G1 X199.824 Y117.442 E64.80395
G1 X197.941 Y120.092 E65.35133
G1 X195.983 Y122.683 E65.89816
G1 X194.015 Y125.132 E66.42717
G1 X191.833 Y127.686 E66.99278
G1 X189.652 Y130.089 E67.5392
M117 Time Left 0h38m07s
G1 X187.473 Y132.354 E68.06842
G1 X185.071 Y134.703 E68.63412
G1 X182.681 Y136.906 E69.18142
M73 P2
G1 X180.226 Y139.034 E69.72847
G1 X177.712 Y141.087 E70.27499
G1 X175.134 Y143.07 E70.82264
G1 X172.499 Y144.97 E71.36963
G1 X169.809 Y146.794 E71.91688
G1 X167.135 Y148.493 E72.45032
G1 X164.271 Y150.192 E73.01103
G1 X161.43 Y151.769 E73.55815
G1 X158.539 Y153.259 E74.10578
G1 X155.609 Y154.66 E74.65263
G1 X152.639 Y155.973 E75.19941
G1 X149.629 Y157.201 E75.74679
G1 X146.581 Y158.337 E76.2945
G1 X143.507 Y159.379 E76.84102
G1 X140.399 Y160.334 E77.38849
G1 X137.266 Y161.194 E77.93554
G1 X134.213 Y161.935 E78.46453
G1 X130.929 Y162.63 E79.02973
G1 X127.732 Y163.205 E79.57668
G1 X124.519 Y163.687 E80.12374
G1 X121.398 Y164.06 E80.65299
G1 X118.058 Y164.357 E81.21759
G1 X114.812 Y164.552 E81.76514
G1 X111.685 Y164.645 E82.29189
G1 X108.316 Y164.645 E82.85916
G1 X105.173 Y164.551 E83.38862
G1 X101.826 Y164.348 E83.95322
G1 X98.585 Y164.059 E84.5011
G1 X95.364 Y163.669 E85.04741
G1 X92.145 Y163.187 E85.59547
G1 X89.003 Y162.617 E86.13315
G1 X85.772 Y161.932 E86.68928
G1 X82.612 Y161.163 E87.23689
G1 X79.532 Y160.314 E87.77484
G1 X76.376 Y159.343 E88.33083
G1 X73.299 Y158.296 E88.8781
G1 X70.259 Y157.156 E89.42478
G1 X67.261 Y155.934 E89.96991
G1 X64.28 Y154.61 E90.51913
G1 X61.398 Y153.229 E91.05723
G1 X58.474 Y151.717 E91.6115
G1 X55.693 Y150.173 E92.1471
G1 X52.832 Y148.469 E92.7078
G1 X50.09 Y146.726 E93.25488
G1 X47.423 Y144.915 E93.7977
G1 X44.768 Y142.994 E94.34949
G1 X42.193 Y141.014 E94.89642
G1 X39.719 Y138.99 E95.43464
M117 Time Left 0h37m52s
G1 X37.23 Y136.825 E95.9901
G1 X34.839 Y134.619 E96.53787
G1 X32.518 Y132.344 E97.08511
G1 X30.268 Y130.001 E97.63207
G1 X28.084 Y127.591 E98.1797
G1 X25.977 Y125.122 E98.72624
G1 X24.008 Y122.672 E99.25548
G1 X21.987 Y119.993 E99.82053
G1 X20.123 Y117.365 E100.36304
G1 X18.307 Y114.635 E100.91513
G1 X16.588 Y111.878 E101.46219
G1 X14.968 Y109.094 E102.00455
G1 X13.404 Y106.214 E102.55637
G1 X11.94 Y103.314 E103.10337
G1 X10.562 Y100.37 E103.65069
G1 X9.273 Y97.389 E104.19754
G1 X8.071 Y94.369 E104.74485
G1 X6.961 Y91.314 E105.29215
G1 X5.943 Y88.228 E105.83931
G1 X5.018 Y85.112 E106.38661
G1 X4.188 Y81.974 E106.93315
G1 X3.448 Y78.81 E107.48028
G1 X2.803 Y75.624 E108.02762
G1 X2.255 Y72.42 E108.57495
G1 X1.804 Y69.208 E109.12109
G1 X1.444 Y65.976 E109.66865
G1 X1.183 Y62.749 E110.21379
G1 X1.012 Y59.399 E110.77859
G1 X1.115 Y58.454 E110.93865
G1 X1.431 Y57.639 E111.08584
G1 X1.856 Y56.913 E111.22749
G1 X2.573 Y56.205 E111.39715
M73 P3
G1 X3.184 Y55.811 E111.51957
G1 X4.112 Y55.452 E111.68711
G1 X5.069 Y55.355 E111.84907
G0 F6000 X5.069 Y56.255
G1 F600 X10.213 Y56.255 E112.71522
G1 X10.971 Y56.378 E112.84452
G1 X11.696 Y56.702 E112.97823
G1 X12.155 Y57.039 E113.07411
G1 X12.654 Y57.6 E113.20053
G1 X12.91 Y58.022 E113.28364
G1 X13.119 Y58.576 E113.38334
G1 X13.204 Y58.978 E113.45253
G1 X13.381 Y62.257 E114.00545
G1 X13.628 Y65.224 E114.50676
G1 X13.961 Y68.111 E114.99609
G1 X14.403 Y71.129 E115.50968
G1 X14.91 Y73.986 E115.99826
G1 X15.508 Y76.852 E116.49122
G1 X16.229 Y79.83 E117.00715
M117 Time Left 0h37m37s
G1 X17.012 Y82.68 E117.50481
G1 X17.868 Y85.464 E117.99523
G1 X18.855 Y88.353 E118.50929
G1 X19.869 Y91.053 E118.99492
G1 X21.025 Y93.86 E119.50607
G1 X22.212 Y96.51 E119.99499
G1 X23.545 Y99.255 E120.50881
G1 X24.889 Y101.825 E120.99714
G1 X26.338 Y104.399 E121.49451
G1 X27.875 Y106.942 E121.99483
G1 X29.532 Y109.503 E122.50844
G1 X31.212 Y111.929 E123.00531
G1 X32.951 Y114.289 E123.49892
G1 X34.781 Y116.615 E123.99725
G1 X36.682 Y118.887 E124.49606
G1 X38.703 Y121.156 E125.00769
G1 X40.696 Y123.26 E125.49566
G1 X42.838 Y125.387 E126.00394
G1 X44.964 Y127.371 E126.49358
G1 X47.269 Y129.393 E127.00987
G1 X49.482 Y131.22 E127.49307
G1 X51.907 Y133.098 E128.00952
G1 X54.231 Y134.787 E128.49326
G1 X56.754 Y136.506 E129.00731
G1 X59.199 Y138.063 E129.49539
G1 X61.804 Y139.611 E130.00562
G1 X64.383 Y141.042 E130.50224
G1 X66.986 Y142.38 E130.99504
G1 X69.727 Y143.685 E131.50621
G1 X72.419 Y144.868 E132.00132
G1 X75.159 Y145.972 E132.49872
G1 X77.959 Y147.001 E133.00101
G1 X80.817 Y147.955 E133.50834
G1 X83.57 Y148.78 E133.99226
G1 X86.533 Y149.57 E134.5086
G1 X89.358 Y150.232 E134.99715
G1 X92.303 Y150.825 E135.50298
G1 X95.23 Y151.325 E136.00297
G1 X98.118 Y151.725 E136.49389
G1 X101.138 Y152.05 E137.00533
G1 X104.032 Y152.272 E137.49406
G1 X107.022 Y152.41 E137.99805
G1 X110.001 Y152.457 E138.49971
G1 X112.978 Y152.41 E139.00104
G1 X115.967 Y152.272 E139.50486
G1 X118.862 Y152.05 E139.99375
G1 X121.881 Y151.725 E140.50502
G1 X124.77 Y151.325 E140.99611
G1 X127.719 Y150.821 E141.49986
G1 X130.642 Y150.232 E142.00193
G1 X133.444 Y149.577 E142.48645
G1 X136.43 Y148.78 E143.00683
M117 Time Left 0h37m22s
G1 X139.184 Y147.955 E143.49091
G1 X142.041 Y147.002 E143.99802
G1 X144.826 Y145.977 E144.49771
G1 X147.614 Y144.853 E145.00387
G1 X150.272 Y143.685 E145.49273
G1 X153.014 Y142.38 E146.00405
G1 X155.629 Y141.035 E146.49919
M73 P4
G1 X158.19 Y139.615 E146.99226
G1 X160.8 Y138.063 E147.50355
G1 X163.246 Y136.506 E147.99177
G1 X165.756 Y134.796 E148.50316
G1 X168.093 Y133.098 E148.98957
G1 X170.517 Y131.221 E149.50578
G1 X172.786 Y129.349 E150.00108
G1 X175.003 Y127.402 E150.49789
G1 X177.206 Y125.345 E151.00539
G1 X179.25 Y123.314 E151.49058
G1 X181.296 Y121.156 E151.99129
G1 X183.325 Y118.878 E152.50495
G1 X185.202 Y116.637 E152.99716
G1 X187.064 Y114.267 E153.50465
G1 X188.788 Y111.929 E153.99377
G1 X190.507 Y109.444 E154.50255
G1 X192.083 Y107.01 E154.9908
G1 X193.662 Y104.398 E155.50472
G1 X195.111 Y101.824 E156.00208
G1 X196.455 Y99.255 E156.49027
G1 X197.788 Y96.51 E157.00409
G1 X198.975 Y93.859 E157.49316
G1 X200.131 Y91.053 E158.00416
G1 X201.146 Y88.353 E158.48985
G1 X202.132 Y85.465 E159.00369
G1 X202.993 Y82.665 E159.49694
G1 X203.771 Y79.83 E159.99194
G1 X204.491 Y76.852 E160.50782
G1 X205.09 Y73.986 E161.00083
G1 X205.597 Y71.129 E161.4894
G1 X206.039 Y68.111 E162.00299
G1 X206.372 Y65.223 E162.49249
G1 X206.619 Y62.261 E162.99296
G1 X206.791 Y59.099 E163.52617
G1 X206.95 Y58.354 E163.65443
G1 X207.27 Y57.734 E163.77191
G1 X207.65 Y57.219 E163.87968
G1 X208.261 Y56.731 E164.01135
G1 X208.691 Y56.5 E164.09354
G1 X209.252 Y56.32 E164.19274
G1 X209.668 Y56.255 E164.26364
G1 X215.072 Y56.255 E165.17356
G1 X215.83 Y56.378 E165.30286
G1 X216.555 Y56.702 E165.43657
M117 Time Left 0h37m07s
G1 X217.016 Y57.041 E165.53292
G1 X217.521 Y57.61 E165.66102
G1 X217.792 Y58.079 E165.75223
G1 X218.036 Y58.817 E165.88311
G1 X218.077 Y59.566 E166.00941
G1 X217.912 Y62.785 E166.55214
G1 X217.648 Y65.995 E167.09446
G1 X217.292 Y69.199 E167.63727
G1 X216.842 Y72.377 E168.17771
G1 X216.292 Y75.565 E168.72244
G1 X215.65 Y78.724 E169.26522
G1 X214.915 Y81.861 E169.80773
G1 X214.087 Y84.973 E170.34996
G1 X213.182 Y88.011 E170.88371
G1 X212.153 Y91.122 E171.43545
G1 X211.048 Y94.15 E171.97819
G1 X209.856 Y97.144 E172.5208
G1 X208.573 Y100.1 E173.06339
G1 X207.204 Y103.015 E173.60565
G1 X205.749 Y105.892 E174.14851
G1 X204.235 Y108.677 E174.68226
G1 X202.583 Y111.507 E175.23402
G1 X200.877 Y114.239 E175.77636
G1 X199.09 Y116.921 E176.31901
G1 X197.223 Y119.549 E176.86181
G1 X195.281 Y122.119 E177.4042
G1 X193.313 Y124.568 E177.9332
G1 X191.167 Y127.081 E178.48963
G1 X189.003 Y129.465 E179.03176
G1 X186.824 Y131.73 E179.56097
G1 X184.461 Y134.041 E180.11751
G1 X182.091 Y136.226 E180.66028
G1 X179.657 Y138.337 E181.20278
G1 X177.163 Y140.374 E181.74499
G1 X174.607 Y142.34 E182.28795
M73 P5
G1 X171.994 Y144.225 E182.83047
G1 X169.326 Y146.034 E183.37323
G1 X166.652 Y147.733 E183.90667
G1 X163.834 Y149.405 E184.4584
G1 X161.017 Y150.969 E185.00093
G1 X158.151 Y152.447 E185.54389
G1 X155.245 Y153.837 E186.0863
G1 X152.299 Y155.14 E186.6287
G1 X149.315 Y156.358 E187.17139
G1 X146.292 Y157.485 E187.71462
G1 X143.243 Y158.519 E188.25673
G1 X140.161 Y159.466 E188.79962
G1 X137.054 Y160.319 E189.34213
G1 X134.001 Y161.06 E189.87112
G1 X130.77 Y161.744 E190.42721
G1 X127.599 Y162.315 E190.96973
G1 X124.412 Y162.793 E191.51235
M117 Time Left 0h36m52s
G1 X121.291 Y163.166 E192.04161
G1 X118.004 Y163.459 E192.59726
G1 X114.785 Y163.652 E193.14025
G1 X111.658 Y163.745 E193.66701
G1 X108.343 Y163.745 E194.22518
G1 X105.2 Y163.651 E194.75464
G1 X101.906 Y163.452 E195.31029
G1 X98.693 Y163.165 E195.85345
G1 X95.497 Y162.779 E196.3955
G1 X92.306 Y162.301 E196.93879
G1 X89.164 Y161.731 E197.47648
G1 X85.985 Y161.058 E198.02362
G1 X82.851 Y160.295 E198.56673
G1 X79.797 Y159.454 E199.1001
G1 X76.666 Y158.491 E199.65167
G1 X73.615 Y157.453 E200.19432
G1 X70.599 Y156.323 E200.73662
G1 X67.626 Y155.111 E201.27721
G1 X64.669 Y153.798 E201.82199
G1 X61.787 Y152.417 E202.36009
G1 X58.911 Y150.93 E202.90525
G1 X56.13 Y149.386 E203.44084
G1 X53.315 Y147.71 E203.99248
G1 X50.596 Y145.981 E204.53503
G1 X47.929 Y144.17 E205.07784
G1 X45.317 Y142.281 E205.62061
G1 X42.763 Y140.317 E206.1631
G1 X40.31 Y138.311 E206.69666
G1 X37.84 Y136.163 E207.24783
G1 X35.469 Y133.976 E207.79096
G1 X33.167 Y131.72 E208.33367
G1 X30.935 Y129.397 E208.87611
G1 X28.769 Y127.007 E209.41921
G1 X26.679 Y124.558 E209.96132
G1 X24.71 Y122.108 E210.49056
G1 X22.721 Y119.472 E211.04659
G1 X20.857 Y116.844 E211.5891
G1 X19.071 Y114.159 E212.13208
G1 X17.366 Y111.425 E212.67461
G1 X15.759 Y108.664 E213.21252
G1 X14.207 Y105.808 E213.75983
G1 X12.755 Y102.932 E214.3023
G1 X11.388 Y100.013 E214.84503
G1 X10.109 Y97.056 E215.38751
G1 X8.917 Y94.062 E215.93012
G1 X7.816 Y91.032 E216.47295
G1 X6.806 Y87.972 E217.01553
G1 X5.888 Y84.882 E217.5583
G1 X5.064 Y81.769 E218.10051
G1 X4.33 Y78.631 E218.64315
G1 X3.69 Y75.472 E219.18587
M117 Time Left 0h36m37s
G1 X3.146 Y72.295 E219.72859
G1 X2.698 Y69.108 E220.27049
G1 X2.341 Y65.903 E220.81349
G1 X2.082 Y62.703 E221.35406
G1 X1.915 Y59.425 E221.90673
G1 X1.997 Y58.669 E222.03477
G1 X2.245 Y58.03 E222.15018
G1 X2.572 Y57.471 E222.25923
G1 X3.139 Y56.912 E222.3933
G1 X3.597 Y56.616 E222.48512
G1 X4.322 Y56.335 E222.61604
M73 P6
G1 X5.069 Y56.255 E222.74254
G0 F6000 X5.069 Y57.155
G1 F600 X4.535 Y57.217 E222.83306
G1 X4.011 Y57.42 E222.92768
G1 X3.705 Y57.618 E222.98905
G1 X3.288 Y58.029 E223.08764
G1 X3.059 Y58.421 E223.16408
G1 X2.879 Y58.884 E223.24772
G1 X2.818 Y59.45 E223.34358
G1 X2.981 Y62.657 E223.88427
G1 X3.238 Y65.83 E224.42028
G1 X3.592 Y69.008 E224.9587
G1 X4.037 Y72.17 E225.49637
G1 X4.577 Y75.32 E226.0345
G1 X5.212 Y78.452 E226.57259
G1 X5.94 Y81.564 E227.11074
G1 X6.758 Y84.652 E227.64862
G1 X7.669 Y87.715 E228.1867
