;FLAVOR:Marlin
M73 P0


; Pre-Processed for Cancel-Object support by preprocess_cancellation v0.2.0
; 3 known objects
EXCLUDE_OBJECT_DEFINE NAME=hairband_cat_stl CENTER=89.128,110.667 POLYGON=[[19.764,34.978],[19.764,185.026],[202.996,185.026],[202.996,34.978]]
EXCLUDE_OBJECT_DEFINE NAME=RoundTab CENTER=186.788,84.436 POLYGON=[[182.332,79.857],[182.332,89.255],[191.75,89.255],[191.75,79.857]]
EXCLUDE_OBJECT_DEFINE NAME=RoundTab_1 CENTER=126.393,117.224 POLYGON=[[19.764,34.978],[19.764,185.026],[202.996,185.026],[202.996,34.978]]
M117 Time Left 1h28m09s
;TIME:5289
;Filament used: 3.54241m
;Layer height: 0.2
;MINX:18.566
;MINY:33.778
;MINZ:0.32
;MAXX:204.196
;MAXY:186.226
;MAXZ:5.12
;POSTPROCESSED
;Generated with Cura_SteamEngine 5.4.0-beta.1
M82 ;absolute extrusion mode
;Nozzle diameter = 0.4
;Filament type = PLA
;Filament name = Purple/Pink
START_PRINT PRINT_MIN=18.566,33.778 PRINT_MAX=204.196,186.226 BED_TEMP=65 EXTRUDER_TEMP=220.0
G92 E0
G92 E0
G1 F2700 E-5
;LAYER_COUNT:24
TIMELAPSE_TAKE_FRAME
;LAYER:0
M117 Printing hairband_cat - Layer 0 of 23
M107
G1 F300 Z0.52
G0 F6000 X23.755 Y36.34 Z0.52
;TYPE:SKIRT
G1 F300 Z0.32
G1 F2700 E0
G1 F600 X24.626 Y35.821 E0.08336
G1 X25.442 Y35.424 E0.15797
G1 X26.486 Y35.025 E0.24986
G1 X27.466 Y34.752 E0.33351
G1 X28.514 Y34.558 E0.42114
G1 X29.579 Y34.415 E0.50949
G1 X30.326 Y34.326 E0.57134
G1 X32.269 Y34.127 E0.73192
G1 X33.263 Y34.042 E0.81395
G1 X35.128 Y33.915 E0.96764
G1 X35.968 Y33.87 E1.03681
G1 X37.864 Y33.802 E1.19279
G1 X38.89 Y33.783 E1.27716
G1 X40.591 Y33.778 E1.41702
G1 X41.763 Y33.794 E1.51339
G1 X43.357 Y33.844 E1.64451
G1 X44.503 Y33.895 E1.73883
G1 X46.189 Y34.001 E1.87772
G1 X47.354 Y34.094 E1.97381
G1 X49 Y34.252 E2.10977
G1 X50.083 Y34.375 E2.19938
G1 X52.01 Y34.624 E2.35914
G1 X52.758 Y34.735 E2.42131
G1 X54.71 Y35.054 E2.58393
G1 X55.734 Y35.238 E2.66947
G1 X57.478 Y35.584 E2.81565
G1 X58.29 Y35.758 E2.88393
G1 X60.238 Y36.21 E3.04835
G1 X61.213 Y36.454 E3.13099
G1 X63.893 Y37.172 E3.3591
G1 X66.421 Y37.797 E3.57321
G1 X68.78 Y38.309 E3.77168
G1 X71.297 Y38.783 E3.98226
G1 X73.774 Y39.177 E4.18848
G1 X76.23 Y39.498 E4.39213
G1 X78.726 Y39.751 E4.5984
G1 X81.227 Y39.934 E4.80458
G1 X83.7 Y40.044 E5.00811
G1 X86.254 Y40.087 E5.21812
G1 X88.694 Y40.057 E5.41875
G1 X91.236 Y39.955 E5.62792
G1 X93.745 Y39.783 E5.8347
G1 X96.174 Y39.548 E6.03534
G1 X100.751 Y38.947 E6.41488
G1 X102.97 Y38.704 E6.59842
G1 X105.129 Y38.534 E6.77648
G1 X105.991 Y38.484 E6.84747
G1 X108.52 Y38.398 E7.05552
G1 X110.519 Y38.391 E7.21988
G1 X111.272 Y38.403 E7.2818
G1 X113.108 Y38.462 E7.43283
G1 X115.199 Y38.587 E7.60506
G1 X117.234 Y38.771 E7.77306
G1 X118.995 Y38.974 E7.9188
G1 X121.249 Y39.29 E8.10594
G1 X122.979 Y39.574 E8.25008
G1 X123.987 Y39.755 E8.33428
G1 X125.764 Y40.107 E8.48323
G1 X128.002 Y40.6 E8.67164
G1 X129.727 Y41.018 E8.81758
G1 X130.899 Y41.32 E8.91708
G1 X132.807 Y41.845 E9.07979
G1 X133.83 Y42.141 E9.16735
G1 X135.467 Y42.638 E9.30801
G1 X137.61 Y43.33 E9.49316
G1 X139.477 Y43.971 E9.65546
G1 X141.091 Y44.553 E9.79652
G1 X143.838 Y45.603 E10.03832
G1 X145.679 Y46.347 E10.20158
G1 X147.244 Y47.003 E10.3411
G1 X149.094 Y47.81 E10.50704
G1 X150.85 Y48.606 E10.66556
G1 X151.885 Y49.09 E10.7595
G1 X153.729 Y49.973 E10.9276
G1 X155.336 Y50.77 E11.07508
G1 X156.848 Y51.542 E11.21466
G1 X158.709 Y52.52 E11.38752
G1 X160.394 Y53.433 E11.54509
G1 X163.409 Y55.135 E11.82975
G1 X164.511 Y55.774 E11.93448
G1 X166.615 Y57.027 E12.13582
G1 X167.708 Y57.693 E12.24106
G1 X169.556 Y58.842 E12.41997
G1 X171.815 Y60.205 E12.63689
G1 X173.957 Y61.415 E12.83916
G1 X176.236 Y62.619 E13.05108
G1 X178.395 Y63.682 E13.24894
G1 X180.74 Y64.756 E13.46101
G1 X183.012 Y65.72 E13.66393
G1 X185.351 Y66.634 E13.8704
G1 X187.717 Y67.483 E14.07707
G1 X190.092 Y68.26 E14.28253
G1 X192.026 Y68.84 E14.44854
G1 X193.38 Y69.342 E14.56727
G1 X193.992 Y69.615 E14.62236
G1 X194.645 Y69.928 E14.6819
G1 X195.475 Y70.383 E14.75973
G1 X195.959 Y70.691 E14.80689
G1 X196.4 Y70.989 E14.85065
G1 X196.98 Y71.401 E14.90915
G1 X197.76 Y72.019 E14.99097
G1 X198.234 Y72.452 E15.04375
G1 X198.674 Y72.879 E15.09416
G1 X199.117 Y73.329 E15.14608
G1 X199.787 Y74.087 E15.22926
G1 X200.162 Y74.573 E15.27973
G1 X200.491 Y75.027 E15.32583
G1 X200.9 Y75.624 E15.38533
G1 X201.42 Y76.471 E15.46705
G1 X201.699 Y77.005 E15.51658
G1 X201.942 Y77.505 E15.56229
M117 Time Left 1h27m54s
G1 X202.226 Y78.126 E15.61843
G1 X202.603 Y79.084 E15.70308
G1 X202.822 Y79.787 E15.76362
G1 X203.05 Y80.619 E15.83455
G1 X203.281 Y81.652 E15.92158
G1 X203.397 Y82.468 E15.98934
G1 X203.459 Y83.074 E16.03943
G1 X203.513 Y83.767 E16.09658
G1 X203.537 Y84.674 E16.17118
G1 X203.51 Y85.335 E16.22557
G1 X203.446 Y86.197 E16.29664
G1 X203.401 Y86.623 E16.33186
G1 X203.169 Y88 E16.44667
G1 X202.53 Y90.71 E16.67559
G1 X202.024 Y93.171 E16.88217
G1 X201.591 Y95.62 E17.08664
G1 X201.222 Y98.129 E17.29515
G1 X200.931 Y100.582 E17.49825
G1 X200.704 Y103.102 E17.70628
G1 X200.551 Y105.577 E17.91016
G1 X200.469 Y108.069 E18.11516
G1 X200.456 Y110.6 E18.32326
G1 X200.515 Y113.099 E18.52878
G1 X200.64 Y115.555 E18.73097
G1 X200.839 Y118.035 E18.93553
G1 X201.113 Y120.58 E19.14599
G1 X201.449 Y123.018 E19.34833
G1 X201.859 Y125.491 E19.55444
G1 X202.348 Y127.993 E19.76404
G1 X202.881 Y130.372 E19.96449
G1 X203.768 Y133.846 E20.25928
G1 X203.97 Y134.821 E20.34115
G1 X204.052 Y135.445 E20.39289
G1 X204.151 Y136.435 E20.47469
G1 X204.173 Y136.771 E20.50238
G1 X204.196 Y137.679 E20.57706
G1 X204.168 Y138.343 E20.6317
G1 X204.106 Y139.16 E20.69907
G1 X204.063 Y139.58 E20.73378
G1 X203.924 Y140.522 E20.81207
G1 X203.756 Y141.272 E20.87526
G1 X203.533 Y142.128 E20.94799
G1 X203.216 Y143.147 E21.03573
G1 X202.873 Y143.988 E21.11041
G1 X202.472 Y144.858 E21.18917
G1 X202.057 Y145.665 E21.26378
G1 X201.569 Y146.453 E21.33999
G1 X201.229 Y146.953 E21.3897
G1 X200.824 Y147.52 E21.44699
G1 X200.2 Y148.301 E21.52918
G1 X199.716 Y148.821 E21.58759
G1 X199.069 Y149.472 E21.66305
G1 X198.365 Y150.121 E21.74178
G1 X197.686 Y150.655 E21.8128
G1 X197.223 Y150.99 E21.85979
G1 X196.64 Y151.39 E21.91792
G1 X195.793 Y151.909 E21.99959
G1 X195.268 Y152.182 E22.04824
G1 X194.782 Y152.419 E22.0927
G1 X194.106 Y152.727 E22.15378
G1 X193.181 Y153.092 E22.23554
G1 X192.578 Y153.282 E22.28752
G1 X189.168 Y154.25 E22.57896
G1 X186.832 Y154.983 E22.78026
G1 X184.437 Y155.811 E22.98861
G1 X182.122 Y156.685 E23.19206
G1 X179.771 Y157.649 E23.40098
G1 X177.523 Y158.646 E23.60317
G1 X175.269 Y159.723 E23.80856
G1 X173.003 Y160.886 E24.01797
G1 X170.853 Y162.067 E24.21965
G1 X168.126 Y163.677 E24.48003
G1 X165.688 Y165.166 E24.7149
G1 X163.919 Y166.209 E24.88375
G1 X162.733 Y166.892 E24.99627
G1 X160.845 Y167.951 E25.17425
G1 X158.553 Y169.196 E25.38871
G1 X156.637 Y170.2 E25.56656
G1 X154.819 Y171.122 E25.73416
G1 X152.974 Y172.026 E25.90308
G1 X151.747 Y172.609 E26.01477
G1 X149.737 Y173.536 E26.19676
G1 X148.007 Y174.3 E26.35225
G1 X146.026 Y175.144 E26.52929
G1 X145.078 Y175.533 E26.61354
G1 X143.239 Y176.265 E26.77628
G1 X140.941 Y177.134 E26.97828
G1 X138.732 Y177.92 E27.17106
G1 X136.636 Y178.622 E27.3528
G1 X134.511 Y179.287 E27.53587
G1 X132.5 Y179.874 E27.70811
G1 X130.139 Y180.511 E27.90917
G1 X128.178 Y180.991 E28.07516
G1 X126.961 Y181.268 E28.17778
G1 X125.037 Y181.672 E28.33942
G1 X123.309 Y182 E28.48403
G1 X120.935 Y182.39 E28.68184
G1 X118.73 Y182.693 E28.86483
G1 X117.952 Y182.783 E28.92923
G1 X115.724 Y183.003 E29.1133
G1 X113.636 Y183.144 E29.28537
G1 X111.485 Y183.226 E29.46235
G1 X110.74 Y183.238 E29.52361
G1 X108.202 Y183.23 E29.73228
G1 X106.389 Y183.168 E29.88143
G1 X105.533 Y183.123 E29.95191
G1 X102.987 Y182.931 E30.16183
G1 X100.786 Y182.692 E30.34386
G1 X98.471 Y182.367 E30.53606
G1 X95.619 Y181.906 E30.7736
G1 X93.072 Y181.564 E30.98489
G1 X90.576 Y181.3 E31.19125
G1 X88.117 Y181.109 E31.39404
G1 X85.626 Y180.989 E31.59908
G1 X83.1 Y180.937 E31.80681
G1 X80.602 Y180.957 E32.0122
G1 X78.108 Y181.048 E32.21739
G1 X75.582 Y181.211 E32.42551
M117 Time Left 1h27m39s
G1 X73.12 Y181.44 E32.62881
G1 X70.596 Y181.746 E32.83785
G1 X68.174 Y182.111 E33.03923
G1 X65.656 Y182.563 E33.24957
G1 X63.257 Y183.063 E33.45105
G1 X59.136 Y184.053 E33.79951
G1 X57.54 Y184.404 E33.93387
G1 X56.434 Y184.629 E34.02667
G1 X54.896 Y184.917 E34.15532
G1 X53.772 Y185.107 E34.24904
G1 X52.152 Y185.355 E34.38379
G1 X51.089 Y185.503 E34.47203
G1 X49.313 Y185.717 E34.61911
G1 X48.322 Y185.82 E34.70103
G1 X46.754 Y185.957 E34.83044
G1 X45.677 Y186.036 E34.91923
G1 X43.819 Y186.142 E35.07224
G1 X43.086 Y186.171 E35.13255
G1 X41.133 Y186.219 E35.29317
G1 X40.165 Y186.226 E35.37276
G1 X38.596 Y186.215 E35.50177
G1 X37.418 Y186.188 E35.59865
G1 X35.852 Y186.125 E35.72751
G1 X34.771 Y186.064 E35.81653
G1 X32.921 Y185.933 E35.96901
G1 X31.982 Y185.849 E36.04652
G1 X30.437 Y185.688 E36.17424
G1 X28.595 Y185.461 E36.32683
G1 X27.7 Y185.309 E36.40147
G1 X26.616 Y185.024 E36.49363
G1 X25.664 Y184.679 E36.57688
G1 X24.84 Y184.298 E36.65152
G1 X23.916 Y183.77 E36.73902
G1 X23.041 Y183.157 E36.82686
G1 X22.268 Y182.505 E36.91001
G1 X21.626 Y181.864 E36.9846
G1 X20.906 Y181.003 E37.07688
G1 X20.331 Y180.171 E37.16003
G1 X19.854 Y179.337 E37.23902
G1 X19.409 Y178.369 E37.32662
G1 X19.102 Y177.515 E37.40123
G1 X18.817 Y176.432 E37.49331
G1 X18.665 Y175.537 E37.56795
G1 X18.576 Y174.422 E37.65991
G1 X18.583 Y173.515 E37.73449
G1 X18.691 Y172.398 E37.82675
G1 X18.886 Y171.376 E37.9123
G1 X19.147 Y170.289 E38.00421
G1 X19.484 Y168.989 E38.11463
G1 X19.934 Y167.349 E38.25445
G1 X20.352 Y165.901 E38.37837
G1 X20.863 Y164.223 E38.52259
G1 X21.349 Y162.701 E38.65395
G1 X21.825 Y161.282 E38.77701
G1 X22.42 Y159.589 E38.92455
G1 X22.918 Y158.234 E39.04324
G1 X23.517 Y156.666 E39.18125
G1 X24.155 Y155.066 E39.32287
G1 X24.739 Y153.66 E39.44805
G1 X25.413 Y152.103 E39.58754
G1 X26.039 Y150.706 E39.71341
G1 X26.755 Y149.172 E39.85259
G1 X27.052 Y148.556 E39.90882
G1 X28.128 Y146.242 E40.11864
G1 X29.132 Y143.916 E40.32693
G1 X30.072 Y141.556 E40.53579
G1 X30.911 Y139.265 E40.73639
G1 X31.725 Y136.827 E40.94772
G1 X32.424 Y134.521 E41.14584
G1 X33.102 Y132.035 E41.3577
G1 X33.687 Y129.622 E41.56184
G1 X34.211 Y127.147 E41.76984
G1 X34.659 Y124.706 E41.97389
G1 X35.043 Y122.211 E42.18144
G1 X35.35 Y119.756 E42.38486
G1 X35.586 Y117.296 E42.58805
G1 X35.76 Y114.76 E42.79705
G1 X35.859 Y112.243 E43.00415
G1 X35.888 Y109.782 E43.20651
G1 X35.844 Y107.247 E43.41497
G1 X35.732 Y104.736 E43.62162
G1 X35.55 Y102.282 E43.82394
G1 X35.295 Y99.773 E44.03129
G1 X34.969 Y97.283 E44.23777
G1 X34.58 Y94.853 E44.4401
G1 X34.107 Y92.342 E44.65018
G1 X33.577 Y89.913 E44.85459
G1 X32.986 Y87.526 E45.05678
G1 X32.29 Y85.028 E45.26998
G1 X31.566 Y82.682 E45.47184
G1 X30.763 Y80.326 E45.67649
G1 X29.879 Y77.949 E45.88501
G1 X28.944 Y75.639 E46.0899
G1 X27.939 Y73.349 E46.29552
G1 X26.259 Y69.776 E46.62014
G1 X25.7 Y68.546 E46.73122
G1 X24.987 Y66.925 E46.87682
G1 X24.417 Y65.572 E46.99753
G1 X23.867 Y64.222 E47.11739
G1 X23.306 Y62.797 E47.2433
G1 X22.677 Y61.118 E47.39072
G1 X22.219 Y59.849 E47.50164
G1 X21.649 Y58.205 E47.6447
G1 X21.248 Y56.991 E47.74982
G1 X20.712 Y55.299 E47.89575
G1 X20.3 Y53.928 E48.01345
G1 X19.839 Y52.317 E48.15122
G1 X19.435 Y50.832 E48.27775
G1 X18.903 Y48.732 E48.45587
G1 X18.719 Y47.843 E48.53051
G1 X18.59 Y46.731 E48.62255
G1 X18.566 Y45.718 E48.70586
G1 X18.621 Y44.813 E48.78041
G1 X18.787 Y43.706 E48.87244
G1 X19.028 Y42.722 E48.95574
G1 X19.354 Y41.762 E49.03909
G1 X19.718 Y40.931 E49.11369
G1 X20.229 Y39.995 E49.20136
M117 Time Left 1h27m24s
G1 X20.823 Y39.109 E49.28907
G1 X21.46 Y38.323 E49.37225
G1 X22.089 Y37.668 E49.44691
G1 X22.89 Y36.966 E49.53448
G1 X23.755 Y36.34 E49.62227
G0 F6000 X24.063 Y36.855
G1 F600 X24.888 Y36.361 E49.70133
G1 X25.704 Y35.964 E49.77594
G1 X26.649 Y35.603 E49.85912
G1 X27.576 Y35.342 E49.9383
G1 X28.594 Y35.153 E50.02343
G1 X29.65 Y35.011 E50.11103
G1 X30.387 Y34.923 E50.17206
G1 X32.32 Y34.725 E50.33182
G1 X33.304 Y34.641 E50.41302
G1 X35.16 Y34.514 E50.56597
G1 X35.99 Y34.47 E50.63431
G1 X37.875 Y34.402 E50.78939
G1 X38.892 Y34.383 E50.87302
G1 X40.583 Y34.378 E51.01206
G1 X41.744 Y34.394 E51.10752
G1 X43.33 Y34.443 E51.23798
G1 X44.465 Y34.494 E51.3314
G1 X46.141 Y34.599 E51.46947
G1 X47.297 Y34.691 E51.56481
G1 X48.932 Y34.848 E51.69986
G1 X50.006 Y34.97 E51.78873
G1 X51.922 Y35.218 E51.94758
G1 X52.661 Y35.327 E52.00899
G1 X54.603 Y35.644 E52.17078
G1 X55.617 Y35.827 E52.25549
G1 X57.352 Y36.171 E52.40092
G1 X58.155 Y36.343 E52.46844
G1 X60.092 Y36.792 E52.63192
G1 X61.058 Y37.034 E52.7138
G1 X63.738 Y37.751 E52.94189
G1 X66.287 Y38.382 E53.1578
G1 X68.669 Y38.899 E53.3582
G1 X71.196 Y39.375 E53.56962
G1 X73.68 Y39.77 E53.77642
G1 X76.161 Y40.094 E53.98214
G1 X78.665 Y40.348 E54.18907
G1 X81.191 Y40.533 E54.39731
G1 X83.69 Y40.644 E54.60298
G1 X86.251 Y40.687 E54.81357
G1 X88.718 Y40.657 E55.01642
G1 X91.266 Y40.555 E55.22609
G1 X93.786 Y40.382 E55.43377
G1 X96.25 Y40.143 E55.6373
G1 X100.816 Y39.543 E56.01594
G1 X103.017 Y39.302 E56.19799
G1 X105.164 Y39.133 E56.37506
G1 X106.012 Y39.084 E56.4449
G1 X108.522 Y38.998 E56.65139
G1 X110.509 Y38.991 E56.81476
G1 X111.253 Y39.003 E56.87594
G1 X113.072 Y39.061 E57.02557
G1 X115.145 Y39.185 E57.19632
G1 X117.165 Y39.367 E57.36307
G1 X118.912 Y39.568 E57.50765
G1 X121.152 Y39.882 E57.69363
G1 X122.873 Y40.165 E57.83703
G1 X123.871 Y40.344 E57.92039
G1 X125.635 Y40.693 E58.06823
G1 X127.861 Y41.183 E58.25564
G1 X129.577 Y41.599 E58.40081
G1 X130.74 Y41.899 E58.49956
G1 X132.64 Y42.421 E58.66157
M73 P1
G1 X133.656 Y42.715 E58.74853
G1 X135.283 Y43.209 E58.88833
G1 X137.415 Y43.897 E59.07252
G1 X139.273 Y44.535 E59.23404
G1 X140.877 Y45.114 E59.37425
G1 X143.613 Y46.159 E59.61505
G1 X145.447 Y46.9 E59.77768
G1 X147.004 Y47.553 E59.9165
G1 X148.846 Y48.357 E60.08174
G1 X150.596 Y49.15 E60.23971
G1 X151.626 Y49.631 E60.33318
G1 X153.462 Y50.511 E60.50057
G1 X155.063 Y51.305 E60.6475
G1 X156.569 Y52.073 E60.7865
G1 X158.423 Y53.048 E60.95873
G1 X160.099 Y53.956 E61.11545
G1 X163.108 Y55.654 E61.39952
G1 X164.204 Y56.29 E61.5037
G1 X166.303 Y57.539 E61.70452
G1 X167.391 Y58.202 E61.80928
G1 X169.246 Y59.356 E61.9889
G1 X171.505 Y60.719 E62.20582
G1 X173.677 Y61.946 E62.41093
G1 X175.956 Y63.15 E62.62284
G1 X178.134 Y64.222 E62.82243
G1 X180.496 Y65.304 E63.03604
G1 X182.794 Y66.279 E63.24128
G1 X185.148 Y67.199 E63.44908
G1 X187.514 Y68.048 E63.65576
G1 X189.92 Y68.835 E63.86389
G1 X191.854 Y69.415 E64.0299
G1 X193.171 Y69.904 E64.1454
G1 X193.733 Y70.156 E64.19604
G1 X194.357 Y70.455 E64.25293
G1 X195.153 Y70.89 E64.32752
G1 X195.624 Y71.189 E64.37339
G1 X196.053 Y71.478 E64.41591
G1 X196.608 Y71.872 E64.47188
G1 X197.355 Y72.462 E64.55014
G1 X197.816 Y72.883 E64.60147
G1 X198.246 Y73.3 E64.65072
G1 X198.689 Y73.75 E64.70264
G1 X199.312 Y74.454 E64.77993
G1 X199.676 Y74.925 E64.82887
G1 X199.996 Y75.366 E64.87367
G1 X200.389 Y75.939 E64.9308
G1 X200.888 Y76.749 E65.00902
G1 X201.159 Y77.268 E65.05716
G1 X201.396 Y77.755 E65.10169
G1 X201.68 Y78.376 E65.15783
M117 Time Left 1h27m09s
G1 X202.03 Y79.262 E65.23615
G1 X202.243 Y79.946 E65.29506
G1 X202.471 Y80.778 E65.36598
G1 X202.687 Y81.737 E65.44681
G1 X202.8 Y82.53 E65.51267
G1 X202.861 Y83.121 E65.56152
G1 X202.913 Y83.783 E65.61611
G1 X202.937 Y84.69 E65.69071
G1 X202.912 Y85.29 E65.74009
G1 X202.849 Y86.135 E65.80975
G1 X202.809 Y86.523 E65.84182
G1 X202.577 Y87.9 E65.95663
G1 X201.942 Y90.589 E66.1838
G1 X201.436 Y93.05 E66.39038
G1 X201 Y95.516 E66.59627
G1 X200.628 Y98.042 E66.8062
G1 X200.335 Y100.511 E67.01062
G1 X200.106 Y103.048 E67.22006
G1 X199.952 Y105.54 E67.42534
G1 X199.869 Y108.049 E67.63174
G1 X199.856 Y110.597 E67.84124
G1 X199.915 Y113.113 E68.04816
G1 X200.042 Y115.603 E68.25315
G1 X200.242 Y118.099 E68.45903
G1 X200.517 Y120.644 E68.66949
G1 X200.857 Y123.116 E68.87465
G1 X201.27 Y125.606 E69.08217
G1 X201.759 Y128.108 E69.29178
G1 X202.3 Y130.521 E69.4951
G1 X203.181 Y133.968 E69.78762
G1 X203.375 Y134.9 E69.86589
G1 X203.455 Y135.505 E69.91606
G1 X203.552 Y136.475 E69.99621
G1 X203.573 Y136.786 E70.02184
G1 X203.596 Y137.694 E70.09652
