;FLAVOR:Marlin
M73 P0


; Pre-Processed for Cancel-Object support by preprocess_cancellation v0.2.0
; 1 known objects
EXCLUDE_OBJECT_DEFINE NAME=hairband_cat_stl CENTER=85.867,109.336 POLYGON=[[19.618,34.824],[19.618,185.172],[200.231,185.172],[200.231,34.824]]
M117 Time Left 1h08m37s
;TIME:4117
;Filament used: 5.12977m
;Layer height: 0.3
;MINX:17.822
;MINY:33.024
;MINZ:0.42
;MAXX:202.031
;MAXY:186.972
;MAXZ:5.12
;TARGET_MACHINE.NAME:Creality Ender-3
;POSTPROCESSED
;  [InsertAtLayerChange]
;  [MeshPrintSize]
;  [DisplayProgressOnLCD]
;  [DisplayFilenameAndLayerOnLCD]
;Generated with Cura_SteamEngine 5.6.0
M82 ;absolute extrusion mode
;Nozzle diameter = 0.6
;Filament type = PLA
;Filament name = Purple/Pink
START_PRINT PRINT_MIN=17.822,33.024 PRINT_MAX=202.031,186.972 BED_TEMP=65 EXTRUDER_TEMP=200.0
G92 E0
G92 E0
G1 F2700 E-5
;LAYER_COUNT:16
TIMELAPSE_TAKE_FRAME
;LAYER:0
M117 Printing hairband_cat - Layer 0 of 15
M107
G1 F300 Z0.62
G0 F6000 X23.375 Y35.691 Z0.62
;TYPE:SKIRT
G1 F300 Z0.42
G1 F2700 E0
G1 F600 X24.159 Y35.221 E0.14365
G1 X25.191 Y34.715 E0.32428
G1 X26.192 Y34.332 E0.49271
G1 X27.31 Y34.017 E0.67525
G1 X28.358 Y33.822 E0.84278
G1 X29.486 Y33.668 E1.02169
G1 X30.384 Y33.563 E1.16378
G1 X31.933 Y33.402 E1.40852
G1 X33.067 Y33.303 E1.58741
G1 X34.748 Y33.184 E1.85225
G1 X35.842 Y33.125 E2.02443
G1 X37.418 Y33.062 E2.2723
G1 X38.611 Y33.035 E2.45983
G1 X40.357 Y33.024 E2.73423
G1 X41.338 Y33.034 E2.8884
G1 X42.972 Y33.076 E3.14528
G1 X44.053 Y33.119 E3.3153
G1 X45.921 Y33.227 E3.60935
G1 X46.671 Y33.283 E3.72754
G1 X48.602 Y33.454 E4.0322
G1 X49.582 Y33.56 E4.18711
G1 X51.389 Y33.781 E4.4732
G1 X52.285 Y33.905 E4.61535
G1 X53.915 Y34.157 E4.87456
G1 X55.053 Y34.35 E5.05595
G1 X56.599 Y34.64 E5.30315
G1 X57.72 Y34.868 E5.48293
G1 X59.463 Y35.252 E5.76341
G1 X60.555 Y35.511 E5.93979
G1 X63.132 Y36.084 E6.35466
G1 X65.583 Y36.554 E6.74687
G1 X67.949 Y36.94 E7.12361
G1 X70.477 Y37.282 E7.52451
G1 X72.922 Y37.538 E7.91086
G1 X75.36 Y37.728 E8.29516
G1 X77.876 Y37.85 E8.69102
G1 X80.364 Y37.902 E9.08211
G1 X82.88 Y37.882 E9.47752
G1 X85.3 Y37.795 E9.85808
G1 X87.787 Y37.635 E10.24973
G1 X90.268 Y37.405 E10.6413
G1 X92.673 Y37.112 E11.02205
G1 X96.458 Y36.518 E11.62416
G1 X98.525 Y36.166 E11.95368
G1 X100.29 Y35.918 E12.23378
G1 X101.133 Y35.814 E12.36726
G1 X103.074 Y35.611 E12.67396
G1 X103.75 Y35.554 E12.78058
G1 X105.539 Y35.43 E13.0624
G1 X106.419 Y35.386 E13.20087
G1 X108.983 Y35.316 E13.60396
G1 X111.04 Y35.323 E13.92723
G1 X111.718 Y35.34 E14.03381
G1 X114.152 Y35.444 E14.41667
G1 X116.641 Y35.632 E14.80895
G1 X118.451 Y35.824 E15.09499
G1 X120.788 Y36.13 E15.46539
G1 X123.07 Y36.494 E15.82855
G1 X125.298 Y36.909 E16.18472
G1 X127.578 Y37.392 E16.55098
G1 X129.763 Y37.908 E16.90381
G1 X131.989 Y38.489 E17.26535
G1 X133.912 Y39.031 E17.57933
G1 X136.33 Y39.766 E17.9765
G1 X138.163 Y40.363 E18.27946
G1 X140.453 Y41.156 E18.66031
G1 X142.489 Y41.904 E19.00118
G1 X144.641 Y42.737 E19.36383
G1 X146.606 Y43.538 E19.69731
G1 X148.464 Y44.326 E20.01448
G1 X150.559 Y45.256 E20.3747
G1 X152.223 Y46.021 E20.66251
G1 X154.263 Y46.999 E21.01804
G1 X155.541 Y47.629 E21.24197
G1 X157.363 Y48.554 E21.56309
G1 X159.293 Y49.566 E21.90556
G1 X161.477 Y50.751 E22.29605
G1 X162.936 Y51.566 E22.55869
G1 X164.699 Y52.579 E22.87823
G1 X166.483 Y53.63 E23.20363
G1 X169.783 Y55.65 E23.81169
G1 X170.756 Y56.262 E23.99233
G1 X174.183 Y58.475 E24.63343
G1 X177.346 Y60.588 E25.23122
G1 X180.687 Y62.879 E25.86786
G1 X182.873 Y64.343 E26.28132
G1 X184.914 Y65.631 E26.6606
G1 X187.114 Y66.931 E27.06219
G1 X189.225 Y68.101 E27.44149
G1 X191.48 Y69.27 E27.84066
G1 X193.143 Y70.078 E28.13122
G1 X194.479 Y70.713 E28.36369
G1 X195.356 Y71.181 E28.51991
G1 X196.291 Y71.787 E28.69501
G1 X196.575 Y71.992 E28.75006
G1 X197.294 Y72.557 E28.89377
G1 X198.144 Y73.35 E29.07645
G1 X199.087 Y74.437 E29.3026
G1 X199.422 Y74.876 E29.38939
G1 X200.051 Y75.792 E29.56401
G1 X200.541 Y76.656 E29.72011
G1 X201.02 Y77.703 E29.90105
G1 X201.358 Y78.654 E30.05966
G1 X201.506 Y79.139 E30.13935
G1 X201.777 Y80.216 E30.31388
G1 X201.936 Y81.19 E30.46898
M117 Time Left 1h08m22s
G1 X202.013 Y82.112 E30.61438
G1 X202.031 Y82.556 E30.68421
G1 X202.027 Y83.55 E30.84043
G1 X201.926 Y84.673 E31.01762
G1 X201.804 Y85.4 E31.13347
G1 X201.548 Y86.647 E31.33353
G1 X201.248 Y87.915 E31.5383
G1 X201.032 Y88.781 E31.67857
G1 X200.48 Y91.282 E32.08107
G1 X200.021 Y93.685 E32.46554
G1 X199.63 Y96.098 E32.8497
G1 X199.292 Y98.637 E33.25223
G1 X199.039 Y101.068 E33.63634
G1 X198.854 Y103.514 E34.02183
G1 X198.735 Y106.003 E34.41344
G1 X198.687 Y108.5 E34.80592
G1 X198.711 Y110.999 E35.19867
G1 X198.801 Y113.426 E35.58034
G1 X198.964 Y115.919 E35.97297
G1 X199.2 Y118.417 E36.36729
G1 X199.497 Y120.84 E36.75092
G1 X199.87 Y123.305 E37.14271
G1 X200.309 Y125.738 E37.53125
G1 X200.829 Y128.212 E37.92854
G1 X201.376 Y130.502 E38.29855
G1 X201.599 Y131.385 E38.44167
G1 X201.814 Y132.436 E38.61026
G1 X201.942 Y133.555 E38.78726
G1 X201.97 Y134.249 E38.89642
G1 X201.98 Y135.242 E39.05248
G1 X201.949 Y136.172 E39.19871
G1 X201.889 Y136.92 E39.31664
G1 X201.752 Y137.984 E39.48523
G1 X201.522 Y139.032 E39.65385
G1 X201.228 Y139.98 E39.80983
G1 X200.811 Y141.008 E39.98417
G1 X200.577 Y141.489 E40.06824
G1 X200.35 Y141.927 E40.14576
G1 X199.772 Y142.915 E40.32565
G1 X198.941 Y144.056 E40.54748
G1 X198.674 Y144.377 E40.6131
G1 X198.007 Y145.113 E40.76919
G1 X197.163 Y145.894 E40.94991
G1 X196.315 Y146.547 E41.11811
G1 X195.461 Y147.1 E41.278
G1 X195.015 Y147.36 E41.35913
G1 X194.109 Y147.836 E41.51996
G1 X193.395 Y148.173 E41.64404
G1 X191.084 Y149.3 E42.04811
G1 X188.897 Y150.444 E42.43599
G1 X186.711 Y151.668 E42.82971
G1 X184.598 Y152.931 E43.21658
G1 X182.522 Y154.251 E43.6032
G1 X180.676 Y155.495 E43.95303
G1 X177.082 Y157.958 E44.63775
G1 X173.76 Y160.17 E45.26496
G1 X170.64 Y162.178 E45.84805
G1 X168.283 Y163.645 E46.28435
G1 X167.37 Y164.2 E46.45226
G1 X165.206 Y165.489 E46.8481
G1 X164.034 Y166.167 E47.06089
G1 X161.656 Y167.514 E47.49039
G1 X160.021 Y168.411 E47.78346
G1 X158.144 Y169.409 E48.11755
G1 X156.013 Y170.502 E48.49392
G1 X154.217 Y171.393 E48.809
G1 X152.466 Y172.231 E49.11406
G1 X151.468 Y172.696 E49.28709
G1 X149.505 Y173.583 E49.62562
G1 X147.247 Y174.561 E50.01233
G1 X146.003 Y175.079 E50.2241
G1 X144.432 Y175.711 E50.49022
G1 X142.365 Y176.511 E50.83854
G1 X140.599 Y177.159 E51.13416
G1 X138.872 Y177.765 E51.42179
G1 X138.007 Y178.056 E51.56522
G1 X135.988 Y178.708 E51.89865
G1 X134.96 Y179.025 E52.06771
G1 X133.097 Y179.571 E52.3728
G1 X131.323 Y180.057 E52.66186
G1 X129.2 Y180.596 E53.00609
G1 X127.229 Y181.053 E53.32406
G1 X125.488 Y181.419 E53.60364
G1 X123.513 Y181.795 E53.9196
G1 X121.451 Y182.137 E54.24807
G1 X119.426 Y182.424 E54.56949
G1 X117.079 Y182.695 E54.94078
G1 X115.38 Y182.845 E55.20883
G1 X113.023 Y182.985 E55.57989
G1 X111.058 Y183.043 E55.88883
G1 X110.304 Y183.052 E56.00734
G1 X108.298 Y183.042 E56.32259
G1 X107.581 Y183.022 E56.43532
G1 X105.026 Y182.904 E56.83727
G1 X103.145 Y182.761 E57.13373
G1 X100.562 Y182.484 E57.54199
G1 X100.153 Y182.432 E57.60678
G1 X97.8 Y182.088 E57.9805
G1 X95.186 Y181.735 E58.39503
G1 X92.741 Y181.479 E58.78137
G1 X90.303 Y181.289 E59.16567
G1 X87.787 Y181.167 E59.56154
G1 X85.299 Y181.115 E59.95262
G1 X82.783 Y181.135 E60.34803
G1 X80.363 Y181.222 E60.72859
G1 X77.861 Y181.383 E61.12261
G1 X75.406 Y181.61 E61.51006
G1 X72.964 Y181.908 E61.89668
G1 X70.476 Y182.282 E62.29207
G1 X68.013 Y182.724 E62.68533
G1 X65.642 Y183.218 E63.06594
G1 X62.054 Y184.096 E63.64645
G1 X61.163 Y184.333 E63.79134
M117 Time Left 1h08m07s
G1 X60.216 Y184.567 E63.94464
G1 X58.595 Y184.941 E64.20608
G1 X57.448 Y185.186 E64.3904
G1 X55.665 Y185.537 E64.67599
G1 X54.812 Y185.689 E64.81215
G1 X52.846 Y186.011 E65.12523
G1 X51.907 Y186.147 E65.27434
G1 X50.15 Y186.372 E65.55272
G1 X49.048 Y186.497 E65.72701
G1 X47.226 Y186.67 E66.01463
G1 X46.215 Y186.749 E66.174
G1 X44.517 Y186.855 E66.44137
G1 X43.36 Y186.908 E66.62339
G1 X41.577 Y186.96 E66.90371
G1 X40.57 Y186.972 E67.06198
G1 X38.673 Y186.965 E67.3601
G1 X37.818 Y186.946 E67.4945
G1 X35.908 Y186.878 E67.79485
G1 X34.882 Y186.822 E67.95633
G1 X32.99 Y186.689 E68.2544
G1 X32.013 Y186.602 E68.40855
G1 X30.157 Y186.409 E68.7018
G1 X28.472 Y186.197 E68.96869
G1 X27.418 Y186.011 E69.13689
G1 X26.386 Y185.735 E69.30478
G1 X25.525 Y185.428 E69.44843
G1 X24.407 Y184.915 E69.64174
G1 X23.612 Y184.462 E69.78554
G1 X22.603 Y183.764 E69.97835
G1 X21.899 Y183.18 E70.1221
G1 X21.026 Y182.313 E70.31546
G1 X20.337 Y181.49 E70.48414
G1 X19.725 Y180.612 E70.65233
G1 X19.227 Y179.752 E70.80851
G1 X18.741 Y178.713 E70.98877
G1 X18.401 Y177.78 E71.14483
G1 X18.12 Y176.746 E71.31322
G1 X17.941 Y175.769 E71.46931
G1 X17.83 Y174.542 E71.66293
G1 X17.834 Y173.475 E71.83061
G1 X17.922 Y172.479 E71.98775
G1 X18.156 Y171.2 E72.19209
G1 X18.419 Y170.114 E72.36769
G1 X18.763 Y168.782 E72.58389
G1 X19.121 Y167.463 E72.79867
G1 X19.604 Y165.782 E73.07354
G1 X20.044 Y164.327 E73.31242
G1 X20.542 Y162.755 E73.57157
G1 X20.948 Y161.53 E73.77438
G1 X21.541 Y159.819 E74.05896
G1 X22.023 Y158.485 E74.28187
G1 X22.568 Y157.035 E74.52531
G1 X23.123 Y155.617 E74.76462
G1 X23.781 Y154.001 E75.03882
G1 X24.371 Y152.609 E75.27642
G1 X25.024 Y151.128 E75.53079
G1 X25.641 Y149.775 E75.76448
G1 X27.288 Y146.272 E76.3728
G1 X28.285 Y143.988 E76.76445
G1 X29.215 Y141.686 E77.15463
G1 X30.085 Y139.343 E77.5474
G1 X30.87 Y137.028 E77.93156
G1 X31.613 Y134.614 E78.3285
G1 X32.271 Y132.243 E78.71519
G1 X32.877 Y129.782 E79.1135
G1 X33.383 Y127.456 E79.48759
G1 X33.856 Y124.933 E79.891
G1 X34.243 Y122.491 E80.27956
G1 X34.562 Y120.041 E80.66783
G1 X34.805 Y117.623 E81.04975
G1 X34.99 Y115.079 E81.4506
G1 X35.097 Y112.653 E81.83223
G1 X35.138 Y110.108 E82.23224
G1 X35.107 Y107.64 E82.62013
G1 X35.008 Y105.225 E82.99997
G1 X34.834 Y102.697 E83.3982
G1 X34.592 Y100.219 E83.78948
G1 X34.281 Y97.758 E84.17931
G1 X33.91 Y95.364 E84.56003
G1 X33.448 Y92.858 E84.96049
G1 X32.932 Y90.436 E85.34966
G1 X32.359 Y88.087 E85.72964
G1 X31.702 Y85.681 E86.1216
G1 X30.966 Y83.258 E86.51956
G1 X30.186 Y80.933 E86.90496
G1 X29.343 Y78.636 E87.28949
G1 X28.397 Y76.268 E87.69022
G1 X27.432 Y74.036 E88.07237
G1 X26.371 Y71.759 E88.46715
G1 X26.008 Y71.003 E88.59895
G1 X25.338 Y69.562 E88.84869
G1 X24.719 Y68.182 E89.08638
G1 X24.097 Y66.745 E89.33246
G1 X23.39 Y65.045 E89.6218
G1 X22.864 Y63.728 E89.84467
G1 X22.208 Y62.012 E90.13338
G1 X21.708 Y60.648 E90.36169
G1 X21.106 Y58.933 E90.64733
G1 X20.619 Y57.473 E90.8892
G1 X20.102 Y55.854 E91.15629
G1 X19.624 Y54.283 E91.41436
G1 X19.181 Y52.745 E91.66589
G1 X18.785 Y51.296 E91.90195
G1 X18.319 Y49.496 E92.19416
G1 X18.161 Y48.846 E92.29928
G1 X17.944 Y47.713 E92.48057
G1 X17.836 Y46.647 E92.64896
G1 X17.822 Y45.579 E92.81681
M73 P1
G1 X17.884 Y44.667 E92.96047
G1 X18.074 Y43.45 E93.15404
G1 X18.317 Y42.485 E93.31043
G1 X18.692 Y41.404 E93.49024
G1 X19.063 Y40.568 E93.63398
M117 Time Left 1h07m52s
G1 X19.617 Y39.56 E93.81474
G1 X20.262 Y38.608 E93.99546
G1 X20.837 Y37.897 E94.13916
G1 X21.69 Y37.014 E94.3321
G1 X22.38 Y36.414 E94.4758
G1 X23.375 Y35.691 E94.66909
G0 F6000 X23.838 Y36.463
G1 F600 X24.622 Y35.993 E94.81274
G1 X25.513 Y35.556 E94.9687
G1 X26.514 Y35.173 E95.13714
G1 X27.475 Y34.902 E95.29405
G1 X28.48 Y34.714 E95.45473
G1 X29.591 Y34.562 E95.63096
G1 X30.477 Y34.458 E95.77115
G1 X32.012 Y34.299 E96.01367
G1 X33.131 Y34.201 E96.1902
G1 X34.797 Y34.083 E96.45268
G1 X35.878 Y34.024 E96.62281
G1 X37.439 Y33.962 E96.86832
G1 X38.617 Y33.935 E97.0535
G1 X40.348 Y33.924 E97.32554
G1 X41.315 Y33.934 E97.47752
G1 X42.936 Y33.975 E97.73234
G1 X44.001 Y34.018 E97.89985
G1 X45.855 Y34.125 E98.1917
G1 X46.591 Y34.179 E98.30767
G1 X48.506 Y34.349 E98.60981
G1 X49.473 Y34.453 E98.76265
G1 X51.265 Y34.672 E99.04637
G1 X52.148 Y34.795 E99.18647
G1 X53.764 Y35.044 E99.44343
G1 X54.887 Y35.235 E99.62245
G1 X56.42 Y35.522 E99.86755
G1 X57.526 Y35.747 E100.04493
G1 X59.255 Y36.128 E100.32317
G1 X60.36 Y36.39 E100.50164
G1 X62.944 Y36.964 E100.91762
G1 X65.413 Y37.438 E101.31272
G1 X67.826 Y37.832 E101.69695
G1 X70.366 Y38.175 E102.09975
G1 X72.833 Y38.434 E102.48958
G1 X75.316 Y38.627 E102.88097
G1 X77.849 Y38.75 E103.27951
G1 X80.352 Y38.802 E103.67295
G1 X82.887 Y38.782 E104.07135
G1 X85.356 Y38.693 E104.45962
G1 X87.856 Y38.532 E104.85331
G1 X90.357 Y38.3 E105.24804
G1 X92.807 Y38.002 E105.63591
G1 X96.598 Y37.407 E106.23897
G1 X98.65 Y37.057 E106.56611
G1 X100.4 Y36.811 E106.84384
G1 X101.227 Y36.709 E106.97479
G1 X103.15 Y36.508 E107.27864
G1 X103.812 Y36.452 E107.38305
G1 X105.584 Y36.329 E107.6622
G1 X106.444 Y36.286 E107.79752
G1 X108.98 Y36.216 E108.19621
G1 X111.018 Y36.223 E108.51649
G1 X111.68 Y36.239 E108.62056
G1 X114.084 Y36.341 E108.9987
G1 X116.546 Y36.527 E109.38671
G1 X118.334 Y36.716 E109.66927
G1 X120.646 Y37.019 E110.03572
G1 X122.905 Y37.379 E110.39521
G1 X125.133 Y37.794 E110.75137
G1 X127.371 Y38.268 E111.11088
G1 X129.536 Y38.779 E111.46047
G1 X131.745 Y39.355 E111.81923
G1 X133.65 Y39.892 E112.13028
G1 X136.051 Y40.622 E112.52466
G1 X137.869 Y41.214 E112.82513
G1 X140.143 Y42.001 E113.2033
G1 X142.164 Y42.743 E113.54164
G1 X144.302 Y43.571 E113.90195
G1 X146.254 Y44.366 E114.23318
G1 X148.099 Y45.149 E114.54816
G1 X150.183 Y46.074 E114.90648
G1 X151.834 Y46.833 E115.19205
G1 X153.865 Y47.806 E115.54597
G1 X155.134 Y48.432 E115.76834
G1 X156.945 Y49.351 E116.08749
G1 X158.864 Y50.357 E116.428
G1 X161.038 Y51.536 E116.81666
G1 X162.488 Y52.347 E117.07775
G1 X164.242 Y53.354 E117.3956
G1 X166.013 Y54.398 E117.71868
G1 X169.304 Y56.412 E118.32504
G1 X170.268 Y57.018 E118.50398
G1 X173.683 Y59.223 E119.14281
G1 X176.837 Y61.33 E119.7389
G1 X180.186 Y63.627 E120.37711
G1 X182.372 Y65.091 E120.79058
G1 X184.456 Y66.406 E121.17784
G1 X186.656 Y67.706 E121.57943
G1 X188.811 Y68.9 E121.9666
G1 X191.075 Y70.073 E122.36732
G1 X192.757 Y70.891 E122.66125
G1 X194.055 Y71.507 E122.88705
G1 X194.932 Y71.975 E123.04327
G1 X195.765 Y72.517 E123.19945
G1 X196.019 Y72.7 E123.24864
G1 X196.738 Y73.265 E123.39235
G1 X197.464 Y73.94 E123.54814
G1 X198.407 Y75.027 E123.77429
G1 X198.682 Y75.388 E123.84561
G1 X199.268 Y76.236 E124.0076
G1 X199.758 Y77.1 E124.1637
G1 X200.172 Y78.005 E124.3201
G1 X200.497 Y78.917 E124.47225
G1 X200.645 Y79.402 E124.55194
G1 X200.889 Y80.364 E124.70791
G1 X201.039 Y81.265 E124.85145
M117 Time Left 1h07m37s
G1 X201.116 Y82.187 E124.99685
G1 X201.131 Y82.552 E125.05426
G1 X201.127 Y83.546 E125.21048
G1 X201.038 Y84.525 E125.36496
G1 X200.922 Y85.219 E125.47554
G1 X200.672 Y86.44 E125.67141
G1 X200.375 Y87.697 E125.87439
G1 X200.153 Y88.587 E126.01854
G1 X199.601 Y91.088 E126.42105
G1 X199.137 Y93.516 E126.80952
G1 X198.738 Y95.979 E127.20164
G1 X198.4 Y98.518 E127.60417
G1 X198.144 Y100.975 E127.99239
G1 X197.955 Y103.471 E128.38577
G1 X197.835 Y105.986 E128.78146
G1 X197.787 Y108.483 E129.17395
G1 X197.811 Y111.008 E129.57078
G1 X197.903 Y113.485 E129.96032
G1 X198.068 Y116.004 E130.35704
G1 X198.304 Y118.504 E130.75167
G1 X198.607 Y120.975 E131.14291
G1 X198.984 Y123.465 E131.53868
G1 X199.428 Y125.923 E131.93122
G1 X199.948 Y128.397 E132.32851
G1 X200.503 Y130.722 E132.70416
G1 X200.726 Y131.605 E132.84729
G1 X200.932 Y132.616 E133.00943
G1 X201.043 Y133.591 E133.16365
G1 X201.07 Y134.258 E133.26856
G1 X201.08 Y135.212 E133.41849
G1 X201.049 Y136.142 E133.56472
G1 X200.996 Y136.808 E133.66972
G1 X200.872 Y137.794 E133.82589
G1 X200.662 Y138.765 E133.98202
G1 X200.368 Y139.713 E134.138
G1 X200.001 Y140.615 E134.29104
G1 X199.778 Y141.075 E134.37138
G1 X199.551 Y141.513 E134.4489
G1 X199.044 Y142.386 E134.60756
G1 X198.248 Y143.482 E134.82043
G1 X198.007 Y143.773 E134.87981
G1 X197.34 Y144.509 E135.03591
G1 X196.612 Y145.183 E135.19182
G1 X195.826 Y145.792 E135.34808
G1 X195.006 Y146.323 E135.50161
G1 X194.596 Y146.563 E135.57627
G1 X193.69 Y147.039 E135.73711
G1 X193 Y147.364 E135.85697
G1 X190.675 Y148.498 E136.2635
G1 X188.48 Y149.646 E136.65278
G1 X186.249 Y150.895 E137.0546
G1 X184.136 Y152.158 E137.44146
G1 X182.019 Y153.505 E137.83579
