;FLAVOR:Marlin
M73 P0


; Pre-Processed for Cancel-Object support by preprocess_cancellation v0.2.0
; 1 known objects
EXCLUDE_OBJECT_DEFINE NAME=light_clip_stl CENTER=110.297,107.516 POLYGON=[[66.337,87.671],[66.337,132.315],[153.668,132.315],[153.668,87.671]]
M117 Time Left 0h13m24s
;TIME:804
;Filament used: 1.33219m
;Layer height: 0.3
;MINX:64.537
;MINY:85.871
;MINZ:0.45
;MAXX:155.468
;MAXY:134.115
;MAXZ:7.25
;TARGET_MACHINE.NAME:Creality Ender-3
;POSTPROCESSED
;  [InsertAtLayerChange]
;  [MeshPrintSize]
;  [DisplayProgressOnLCD]
;  [DisplayFilenameAndLayerOnLCD]
;KLIPPERSETTINGSPROCESSED
SET_RETRACTION RETRACT_LENGTH=6 RETRACT_SPEED=20 UNRETRACT_SPEED=20 ;KlipperSettingsPlugin

;Generated with Cura_SteamEngine 5.6.0
M82 ;absolute extrusion mode
;Nozzle diameter = 0.6
;Filament type = PLA
;Filament name = PLA
START_PRINT PRINT_MIN=64.537,85.871 PRINT_MAX=155.468,134.115 BED_TEMP=65 EXTRUDER_TEMP=215
G92 E0
G92 E0
G10
;LAYER_COUNT:23
TIMELAPSE_TAKE_FRAME
;LAYER:0
M117 Printing light_clip - Layer 0 of 22
M107
G1 F300 Z0.65
G0 F6000 X69.826 Y88.774 Z0.65
;TYPE:SKIRT
G1 F300 Z0.45
G11
G1 F600 X70.555 Y88.223 E0.15387
G1 X71.599 Y87.569 E0.3613
G1 X72.556 Y87.088 E0.54165
G1 X73.532 Y86.698 E0.71862
G1 X74.276 Y86.463 E0.84999
G1 X74.83 Y86.309 E0.94681
G1 X75.72 Y86.102 E1.10067
G1 X76.931 Y85.929 E1.30665
G1 X77.801 Y85.88 E1.45337
G1 X78.583 Y85.871 E1.58505
G1 X124.125 Y86.287 E9.25371
G1 X125.898 Y86.327 E9.55232
G1 X128.055 Y86.422 E9.91587
G1 X129.167 Y86.502 E10.10359
G1 X130.294 Y86.611 E10.29424
G1 X132.06 Y86.844 E10.59417
G1 X132.922 Y86.99 E10.74138
G1 X134.036 Y87.207 E10.93248
G1 X134.527 Y87.314 E11.0171
G1 X135.335 Y87.513 E11.15721
G1 X136.305 Y87.781 E11.32666
G1 X137.486 Y88.143 E11.53465
G1 X138.757 Y88.581 E11.76101
G1 X139.821 Y88.993 E11.95313
G1 X140.286 Y89.19 E12.03816
G1 X141.334 Y89.66 E12.23156
G1 X142.098 Y90.031 E12.37456
G1 X142.675 Y90.338 E12.48461
G1 X144.074 Y91.136 E12.75581
G1 X144.802 Y91.59 E12.90027
G1 X145.797 Y92.274 E13.10357
G1 X146.491 Y92.781 E13.24829
G1 X147.089 Y93.25 E13.37626
G1 X147.613 Y93.69 E13.49147
G1 X148.109 Y94.13 E13.60311
G1 X148.85 Y94.827 E13.7744
G1 X149.354 Y95.334 E13.89477
G1 X150.123 Y96.182 E14.08753
G1 X150.628 Y96.783 E14.2197
G1 X151.052 Y97.321 E14.33504
G1 X151.407 Y97.799 E14.4353
G1 X151.76 Y98.301 E14.53863
G1 X152.133 Y98.874 E14.65375
G1 X152.408 Y99.322 E14.74226
G1 X152.732 Y99.886 E14.85178
G1 X153.153 Y100.69 E15.0046
G1 X153.465 Y101.335 E15.12524
G1 X153.785 Y102.063 E15.25914
G1 X154.075 Y102.796 E15.39187
G1 X154.334 Y103.521 E15.5215
G1 X154.591 Y104.364 E15.6699
G1 X154.79 Y105.097 E15.79779
G1 X155.004 Y106.033 E15.95946
G1 X155.171 Y106.937 E16.11425
G1 X155.292 Y107.757 E16.25381
G1 X155.381 Y108.554 E16.38885
G1 X155.445 Y109.482 E16.54547
G1 X155.468 Y110.321 E16.6868
G1 X155.463 Y111.101 E16.81813
G1 X155.419 Y112.131 E16.99172
G1 X155.375 Y112.743 E17.09504
G1 X155.303 Y113.447 E17.2142
G1 X155.164 Y114.445 E17.38386
G1 X155.06 Y115.037 E17.48507
G1 X154.941 Y115.627 E17.58641
G1 X154.737 Y116.496 E17.73671
G1 X154.555 Y117.185 E17.8567
M73 P1
G1 X154.335 Y117.919 E17.98573
G1 X154.091 Y118.644 E18.11453
G1 X153.908 Y119.144 E18.20418
G1 X153.662 Y119.772 E18.31775
G1 X153.454 Y120.269 E18.40846
G1 X153.159 Y120.932 E18.53065
G1 X152.891 Y121.489 E18.63473
G1 X152.517 Y122.197 E18.76955
G1 X152.181 Y122.797 E18.88534
G1 X151.871 Y123.318 E18.98742
G1 X151.463 Y123.962 E19.11579
G1 X151.06 Y124.562 E19.23749
G1 X150.711 Y125.043 E19.33756
G1 X150.252 Y125.643 E19.46476
G1 X149.652 Y126.375 E19.62412
G1 X149.291 Y126.782 E19.71573
G1 X148.651 Y127.471 E19.87407
G1 X147.972 Y128.14 E20.03457
G1 X147.243 Y128.796 E20.1997
G1 X146.791 Y129.179 E20.29945
G1 X146.38 Y129.511 E20.38842
G1 X145.82 Y129.933 E20.50648
G1 X145.191 Y130.375 E20.63593
G1 X144.703 Y130.699 E20.73456
G1 X144.147 Y131.045 E20.84483
G1 X143.542 Y131.393 E20.96235
G1 X143.082 Y131.638 E21.0501
G1 X142.446 Y131.953 E21.16961
G1 X141.594 Y132.343 E21.32738
G1 X140.949 Y132.614 E21.44518
G1 X140.179 Y132.896 E21.58326
G1 X139.583 Y133.093 E21.68895
G1 X138.939 Y133.285 E21.8021
G1 X138.273 Y133.464 E21.91822
G1 X137.691 Y133.602 E22.01894
G1 X136.782 Y133.778 E22.17484
G1 X135.798 Y133.924 E22.34234
G1 X134.989 Y134.016 E22.47943
G1 X134.372 Y134.068 E22.58369
G1 X133.506 Y134.106 E22.72965
G1 X132.665 Y134.115 E22.87126
G1 X131.786 Y134.097 E23.0193
G1 X131.088 Y134.066 E23.13694
G1 X130.528 Y134.026 E23.23148
G1 X129.77 Y133.94 E23.35993
G1 X129.056 Y133.841 E23.4813
G1 X128.458 Y133.741 E23.58339
G1 X127.671 Y133.588 E23.71839
G1 X127.005 Y133.436 E23.83341
G1 X126.409 Y133.281 E23.9371
G1 X125.747 Y133.088 E24.05321
G1 X124.593 Y132.714 E24.25747
G1 X123.791 Y132.42 E24.4013
G1 X122.761 Y131.983 E24.58969
G1 X121.745 Y131.508 E24.77854
G1 X119.425 Y130.469 E25.20656
G1 X117.177 Y129.537 E25.61632
G1 X114.837 Y128.644 E26.03805
G1 X112.464 Y127.814 E26.46135
G1 X110.099 Y127.062 E26.87921
G1 X107.732 Y126.381 E27.29393
G1 X105.316 Y125.762 E27.71388
G1 X102.904 Y125.214 E28.13036
M117 Time Left 0h13m09s
G1 X100.473 Y124.733 E28.54762
G1 X98.003 Y124.318 E28.96935
G1 X95.607 Y123.985 E29.37666
G1 X93.055 Y123.702 E29.809
G1 X90.647 Y123.505 E30.21582
G1 X88.163 Y123.373 E30.63466
G1 X85.633 Y123.308 E31.0608
G1 X83.185 Y123.316 E31.473
G1 X82 Y123.345 E31.67259
G1 X81.532 Y123.347 E31.75139
M73 P2
G1 X80.343 Y123.312 E31.95168
G1 X79.085 Y123.189 E32.16451
G1 X78.74 Y123.136 E32.22328
G1 X77.828 Y122.955 E32.37984
G1 X77.138 Y122.787 E32.49941
G1 X75.871 Y122.399 E32.72253
G1 X75.351 Y122.206 E32.81592
G1 X74.285 Y121.75 E33.01115
G1 X73.788 Y121.505 E33.10445
G1 X72.599 Y120.833 E33.33442
G1 X72.008 Y120.451 E33.45291
G1 X71.142 Y119.828 E33.63253
G1 X70.751 Y119.515 E33.71687
G1 X70.032 Y118.886 E33.87772
G1 X69.577 Y118.451 E33.98371
G1 X68.72 Y117.538 E34.19456
G1 X68.211 Y116.917 E34.32976
G1 X67.845 Y116.439 E34.43113
G1 X67.299 Y115.661 E34.59117
G1 X67.147 Y115.425 E34.63843
G1 X66.684 Y114.647 E34.79088
G1 X66.491 Y114.29 E34.85921
G1 X66.015 Y113.303 E35.04372
G1 X65.777 Y112.741 E35.14648
G1 X65.37 Y111.628 E35.34602
G1 X65.194 Y111.056 E35.44679
G1 X64.957 Y110.151 E35.60432
G1 X64.826 Y109.528 E35.71151
G1 X64.616 Y108.104 E35.95388
G1 X64.568 Y107.437 E36.06648
G1 X64.537 Y106.747 E36.18277
G1 X64.54 Y105.633 E36.37035
G1 X64.636 Y103.723 E36.69236
G1 X64.701 Y101.223 E37.11345
G1 X64.708 Y99.231 E37.44886
G1 X64.804 Y97.714 E37.70481
G1 X65.01 Y96.494 E37.91314
G1 X65.354 Y95.228 E38.13404
G1 X65.494 Y94.812 E38.20794
G1 X65.904 Y93.778 E38.39523
G1 X66.373 Y92.841 E38.57167
G1 X66.787 Y92.144 E38.70817
G1 X67.37 Y91.28 E38.88367
G1 X68.096 Y90.385 E39.07772
G1 X68.83 Y89.63 E39.25502
G1 X69.423 Y89.106 E39.38826
G1 X69.826 Y88.774 E39.47618
G0 F6000 X70.369 Y89.492
G1 F600 X71.098 Y88.941 E39.63005
G1 X72.005 Y88.372 E39.81033
G1 X72.892 Y87.923 E39.97773
G1 X73.804 Y87.556 E40.14326
G1 X74.517 Y87.33 E40.2692
G1 X75.034 Y87.186 E40.35957
G1 X75.924 Y86.979 E40.51342
G1 X76.982 Y86.828 E40.69337
G1 X77.852 Y86.779 E40.8401
G1 X78.575 Y86.771 E40.96184
G1 X124.105 Y87.187 E48.62848
G1 X125.858 Y87.226 E48.92372
G1 X127.991 Y87.32 E49.28322
G1 X129.08 Y87.398 E49.46706
G1 X130.207 Y87.507 E49.65771
G1 X131.91 Y87.731 E49.94693
G1 X132.75 Y87.873 E50.09037
G1 X133.844 Y88.086 E50.27804
G1 X134.312 Y88.188 E50.35869
G1 X135.096 Y88.381 E50.49464
G1 X136.042 Y88.642 E50.65988
G1 X137.193 Y88.994 E50.86254
G1 X138.432 Y89.42 E51.08315
G1 X139.471 Y89.822 E51.27074
G1 X139.918 Y90.011 E51.35245
G1 X140.942 Y90.47 E51.5414
G1 X141.675 Y90.825 E51.67854
M73 P3
G1 X142.229 Y91.12 E51.78422
G1 X143.598 Y91.9 E52.04952
G1 X144.292 Y92.332 E52.18717
G1 X145.266 Y93.001 E52.38613
G1 X145.96 Y93.508 E52.53084
G1 X146.511 Y93.94 E52.64874
G1 X147.016 Y94.363 E52.75966
G1 X147.493 Y94.786 E52.86701
G1 X148.212 Y95.462 E53.03318
G1 X148.716 Y95.969 E53.15355
G1 X149.434 Y96.761 E53.33355
G1 X149.922 Y97.341 E53.46118
G1 X150.33 Y97.858 E53.57207
G1 X150.671 Y98.317 E53.66835
G1 X151.006 Y98.793 E53.76636
G1 X151.366 Y99.345 E53.87733
G1 X151.628 Y99.771 E53.96154
G1 X151.935 Y100.304 E54.06511
G1 X152.343 Y101.082 E54.21303
G1 X152.641 Y101.698 E54.32825
G1 X152.948 Y102.395 E54.45649
G1 X153.227 Y103.099 E54.584
G1 X153.486 Y103.824 E54.71363
G1 X153.722 Y104.6 E54.8502
G1 X153.921 Y105.333 E54.97809
G1 X154.119 Y106.197 E55.12734
G1 X154.281 Y107.069 E55.27668
G1 X154.398 Y107.857 E55.41082
G1 X154.483 Y108.616 E55.53941
G1 X154.545 Y109.508 E55.68997
G1 X154.568 Y110.316 E55.82608
G1 X154.564 Y111.063 E55.95186
G1 X154.521 Y112.068 E56.12123
G1 X154.48 Y112.652 E56.21981
G1 X154.412 Y113.323 E56.33337
G1 X154.277 Y114.291 E56.49794
G1 X154.178 Y114.86 E56.59519
G1 X154.065 Y115.422 E56.69171
G1 X153.867 Y116.267 E56.83784
G1 X153.693 Y116.927 E56.95277
G1 X153.482 Y117.632 E57.07668
G1 X153.245 Y118.336 E57.20176
G1 X153.07 Y118.816 E57.28778
G1 X152.832 Y119.425 E57.39788
G1 X152.632 Y119.903 E57.48513
G1 X152.347 Y120.543 E57.60309
G1 X152.095 Y121.069 E57.7013
G1 X151.732 Y121.758 E57.83243
G1 X151.408 Y122.337 E57.94415
G1 X151.111 Y122.836 E58.04192
G1 X150.715 Y123.461 E58.16651
G1 X150.332 Y124.033 E58.28242
M117 Time Left 0h12m54s
G1 X149.996 Y124.496 E58.37874
G1 X149.537 Y125.096 E58.50594
G1 X148.978 Y125.779 E58.65455
G1 X148.632 Y126.17 E58.74246
G1 X148.019 Y126.83 E58.89413
G1 X147.34 Y127.499 E59.05463
G1 X146.661 Y128.11 E59.20844
G1 X146.226 Y128.479 E59.30448
G1 X145.838 Y128.792 E59.38842
G1 X145.278 Y129.214 E59.50649
G1 X144.693 Y129.625 E59.62687
G1 X144.205 Y129.949 E59.7255
G1 X143.697 Y130.265 E59.82624
G1 X143.118 Y130.599 E59.93879
G1 X142.682 Y130.832 E60.02203
G1 X142.071 Y131.135 E60.13686
G1 X141.245 Y131.513 E60.28982
G1 X140.6 Y131.784 E60.40762
G1 X139.896 Y132.042 E60.53387
G1 X139.326 Y132.231 E60.63498
G1 X138.706 Y132.416 E60.74393
M73 P4
G1 X138.065 Y132.588 E60.85567
G1 X137.483 Y132.726 E60.95639
G1 X136.649 Y132.888 E61.09944
G1 X135.696 Y133.03 E61.26168
G1 X134.913 Y133.119 E61.39437
G1 X134.296 Y133.171 E61.49863
G1 X133.496 Y133.206 E61.63346
G1 X132.683 Y133.215 E61.77036
G1 X131.826 Y133.198 E61.91469
G1 X131.152 Y133.168 E62.02829
G1 X130.592 Y133.128 E62.12282
G1 X129.894 Y133.049 E62.2411
G1 X129.203 Y132.953 E62.35857
G1 X128.63 Y132.858 E62.45637
G1 X127.87 Y132.71 E62.58674
G1 X127.231 Y132.565 E62.69707
G1 X126.66 Y132.417 E62.79639
G1 X126.024 Y132.232 E62.90792
G1 X124.903 Y131.869 E63.10632
G1 X124.101 Y131.575 E63.25015
G1 X123.142 Y131.168 E63.42557
G1 X122.126 Y130.693 E63.61441
G1 X119.779 Y129.642 E64.04741
G1 X117.498 Y128.696 E64.46321
G1 X115.134 Y127.794 E64.88925
G1 X112.749 Y126.96 E65.31468
G1 X110.372 Y126.204 E65.73467
G1 X107.97 Y125.513 E66.15552
G1 X105.52 Y124.885 E66.58139
G1 X103.094 Y124.334 E67.00028
G1 X100.627 Y123.846 E67.42372
G1 X98.152 Y123.43 E67.84631
G1 X95.706 Y123.09 E68.26212
G1 X93.154 Y122.807 E68.69446
G1 X90.697 Y122.606 E69.10955
G1 X88.198 Y122.473 E69.53093
G1 X85.653 Y122.408 E69.95959
G1 X83.163 Y122.416 E70.37886
G1 X81.996 Y122.445 E70.57542
G1 X81.558 Y122.447 E70.64917
G1 X80.369 Y122.412 E70.84946
G1 X79.222 Y122.299 E71.04353
G1 X78.877 Y122.246 E71.1023
G1 X78.039 Y122.08 E71.24614
G1 X77.402 Y121.926 E71.35649
G1 X76.135 Y121.538 E71.5796
G1 X75.666 Y121.363 E71.66389
G1 X74.68 Y120.941 E71.84448
G1 X74.23 Y120.721 E71.92882
G1 X73.087 Y120.077 E72.14973
G1 X72.534 Y119.72 E72.26056
G1 X71.668 Y119.097 E72.44019
G1 X71.343 Y118.837 E72.51027
G1 X70.654 Y118.235 E72.66432
G1 X70.199 Y117.8 E72.77032
G1 X69.377 Y116.923 E72.97271
G1 X68.925 Y116.369 E73.0931
G1 X68.581 Y115.921 E73.18821
G1 X68.056 Y115.174 E73.34194
G1 X67.904 Y114.938 E73.38921
G1 X67.475 Y114.217 E73.53048
G1 X67.302 Y113.899 E73.59143
G1 X66.826 Y112.912 E73.77594
G1 X66.606 Y112.391 E73.87117
G1 X66.23 Y111.363 E74.05547
G1 X66.065 Y110.828 E74.14974
G1 X65.828 Y109.923 E74.30727
G1 X65.716 Y109.396 E74.39798
G1 X65.514 Y108.038 E74.62916
G1 X65.467 Y107.395 E74.73772
G1 X65.437 Y106.749 E74.84661
G1 X65.439 Y105.678 E75.02694
G1 X65.535 Y103.768 E75.34895
G1 X65.601 Y101.247 E75.77358
G1 X65.606 Y99.285 E76.10394
M73 P5
G1 X65.692 Y97.861 E76.34415
G1 X65.879 Y96.73 E76.53718
G1 X66.223 Y95.464 E76.75807
G1 X66.346 Y95.102 E76.82245
G1 X66.71 Y94.179 E76.98951
G1 X67.147 Y93.301 E77.15465
G1 X67.561 Y92.604 E77.29115
G1 X68.071 Y91.845 E77.44512
G1 X68.743 Y91.011 E77.62546
G1 X69.427 Y90.304 E77.7911
G1 X69.996 Y89.8 E77.91909
G1 X70.369 Y89.492 E78.00054
G0 F6000 X70.912 Y90.21
G1 F600 X71.641 Y89.659 E78.15441
G1 X72.415 Y89.173 E78.30829
G1 X73.229 Y88.757 E78.46222
G1 X74.077 Y88.414 E78.61624
G1 X74.759 Y88.197 E78.73675
G1 X75.238 Y88.063 E78.8205
G1 X76.128 Y87.856 E78.97436
G1 X77.033 Y87.727 E79.12828
G1 X77.903 Y87.678 E79.275
G1 X78.567 Y87.671 E79.38681
G1 X124.085 Y88.087 E87.05143
G1 X125.818 Y88.125 E87.3433
G1 X127.927 Y88.218 E87.69876
G1 X128.994 Y88.294 E87.87887
G1 X130.09 Y88.399 E88.06426
G1 X131.76 Y88.618 E88.34786
G1 X132.578 Y88.756 E88.48754
G1 X133.652 Y88.965 E88.67177
G1 X134.097 Y89.062 E88.74846
G1 X134.857 Y89.249 E88.88025
G1 X135.779 Y89.503 E89.04128
G1 X136.93 Y89.855 E89.24394
G1 X138.107 Y90.259 E89.45347
G1 X139.122 Y90.652 E89.63674
G1 X139.55 Y90.832 E89.71492
G1 X140.55 Y91.28 E89.89943
G1 X141.253 Y91.62 E90.03092
G1 X141.784 Y91.902 E90.13215
G1 X143.122 Y92.664 E90.39142
M117 Time Left 0h12m39s
G1 X143.816 Y93.096 E90.52906
G1 X144.735 Y93.727 E90.71677
G1 X145.405 Y94.217 E90.85653
G1 X145.934 Y94.631 E90.96964
G1 X146.419 Y95.036 E91.07603
G1 X146.877 Y95.442 E91.17909
G1 X147.574 Y96.097 E91.34014
G1 X148.078 Y96.604 E91.46051
G1 X148.746 Y97.341 E91.62799
G1 X149.216 Y97.899 E91.75084
G1 X149.608 Y98.395 E91.85729
G1 X149.936 Y98.836 E91.94983
G1 X150.252 Y99.284 E92.04214
G1 X150.6 Y99.818 E92.14946
G1 X150.848 Y100.22 E92.229
G1 X151.155 Y100.753 E92.33257
G1 X151.533 Y101.475 E92.46979
G1 X151.817 Y102.061 E92.57944
G1 X152.124 Y102.758 E92.70768
G1 X152.38 Y103.402 E92.82437
G1 X152.625 Y104.087 E92.94686
G1 X152.854 Y104.837 E93.0789
G1 X153.044 Y105.534 E93.20054
G1 X153.234 Y106.362 E93.34359
G1 X153.391 Y107.202 E93.48747
G1 X153.504 Y107.957 E93.61602
G1 X153.585 Y108.679 E93.73835
G1 X153.645 Y109.535 E93.88284
G1 X153.668 Y110.312 E94.01372
G1 X153.665 Y111.025 E94.13378
G1 X153.623 Y112.007 E94.29928
M73 P6
G1 X153.585 Y112.562 E94.39295
G1 X153.521 Y113.199 E94.50075
G1 X153.39 Y114.138 E94.66039
G1 X153.296 Y114.683 E94.75351
G1 X153.189 Y115.217 E94.84521
G1 X152.997 Y116.038 E94.98718
G1 X152.831 Y116.669 E95.09704
G1 X152.629 Y117.345 E95.21584
G1 X152.399 Y118.028 E95.33719
G1 X152.231 Y118.489 E95.4198
G1 X152.001 Y119.079 E95.52643
G1 X151.81 Y119.537 E95.60999
G1 X151.535 Y120.154 E95.72373
G1 X151.283 Y120.68 E95.82193
G1 X150.947 Y121.318 E95.94335
G1 X150.634 Y121.877 E96.05122
G1 X150.35 Y122.355 E96.14484
G1 X149.967 Y122.961 E96.26555
G1 X149.604 Y123.504 E96.37553
G1 X149.281 Y123.949 E96.46812
G1 X148.822 Y124.549 E96.59532
G1 X148.303 Y125.183 E96.73328
G1 X147.972 Y125.558 E96.8175
G1 X147.387 Y126.189 E96.96238
G1 X146.708 Y126.858 E97.12288
G1 X146.078 Y127.424 E97.26548
G1 X145.66 Y127.779 E97.35782
G1 X145.296 Y128.073 E97.43661
G1 X144.736 Y128.495 E97.55468
G1 X144.195 Y128.875 E97.66599
G1 X143.707 Y129.199 E97.76463
G1 X143.247 Y129.485 E97.85583
G1 X142.668 Y129.819 E97.96838
G1 X142.282 Y130.026 E98.04213
G1 X141.696 Y130.317 E98.1523
G1 X140.895 Y130.684 E98.30065
G1 X140.29 Y130.939 E98.4112
G1 X139.612 Y131.188 E98.53282
G1 X139.068 Y131.369 E98.62935
G1 X138.473 Y131.547 E98.73392
G1 X137.857 Y131.712 E98.8413
G1 X137.275 Y131.85 E98.94202
G1 X136.516 Y131.998 E99.07222
G1 X135.594 Y132.136 E99.2292
G1 X134.837 Y132.222 E99.35748
G1 X134.22 Y132.274 E99.46174
G1 X133.486 Y132.306 E99.58545
G1 X132.7 Y132.315 E99.7178
G1 X131.866 Y132.299 E99.85826
G1 X131.216 Y132.27 E99.96781
G1 X130.656 Y132.23 E100.06235
G1 X130.018 Y132.158 E100.17045
G1 X129.35 Y132.065 E100.28402
G1 X128.801 Y131.974 E100.37772
G1 X128.069 Y131.832 E100.50327
