;FLAVOR:Marlin
M73 P0


; Pre-Processed for Cancel-Object support by preprocess_cancellation v0.2.0
; 1 known objects
EXCLUDE_OBJECT_DEFINE NAME=master_sword_trellis_stl CENTER=109.946,82.088 POLYGON=[[77.937,8.626],[77.937,211.799],[142.059,211.799],[142.059,8.626]]
M117 Time Left 0h38m12s
;TIME:2292
;Filament used: 2.9031m
;Layer height: 0.3
;MINX:76.139
;MINY:6.826
;MINZ:0.42
;MAXX:143.859
;MAXY:213.593
;MAXZ:5.42
;TARGET_MACHINE.NAME:Creality Ender-3
;POSTPROCESSED
;  [InsertAtLayerChange]
;  [MeshPrintSize]
;  [DisplayProgressOnLCD]
;  [DisplayFilenameAndLayerOnLCD]
;Generated with Cura_SteamEngine 5.6.0
M82 ;absolute extrusion mode
;Nozzle diameter = 0.6
;Filament type = PLA
;Filament name = Purple/Pink
START_PRINT PRINT_MIN=76.139,6.826 PRINT_MAX=143.859,213.593 BED_TEMP=65 EXTRUDER_TEMP=200.0
G92 E0
G92 E0
G1 F2700 E-5
;LAYER_COUNT:17
TIMELAPSE_TAKE_FRAME
;LAYER:0
M117 Printing master_sword_trellis - Layer 0 of 16
M107
G1 F300 Z0.62
G0 F6000 X93.205 Y22.258 Z0.62
;TYPE:SKIRT
G1 F300 Z0.42
G1 F2700 E0
G1 F600 X93.564 Y21.182 E0.17826
G1 X93.838 Y20.527 E0.28984
G1 X94.143 Y19.866 E0.40425
G1 X94.457 Y19.222 E0.51684
G1 X95.355 Y17.446 E0.8296
G1 X96.796 Y14.356 E1.36541
G1 X97.296 Y13.373 E1.53873
G1 X97.906 Y12.395 E1.71987
G1 X98.671 Y11.381 E1.91949
G1 X99.282 Y10.701 E2.06316
G1 X100.179 Y9.861 E2.25628
G1 X101.025 Y9.206 E2.42443
G1 X101.791 Y8.708 E2.56801
G1 X102.858 Y8.139 E2.75805
G1 X103.67 Y7.786 E2.89719
G1 X104.674 Y7.421 E3.06508
G1 X105.634 Y7.161 E3.22138
G1 X106.801 Y6.955 E3.40762
G1 X108.133 Y6.858 E3.6175
G1 X111.493 Y6.826 E4.14556
G1 X112.645 Y6.872 E4.32675
G1 X113.708 Y7.01 E4.49521
G1 X114.736 Y7.235 E4.66058
G1 X115.672 Y7.517 E4.81421
G1 X116.697 Y7.912 E4.98684
G1 X117.726 Y8.415 E5.16684
G1 X118.511 Y8.884 E5.31055
G1 X119.509 Y9.608 E5.50431
G1 X120.314 Y10.315 E5.67268
G1 X121.003 Y11.032 E5.82896
G1 X121.655 Y11.834 E5.99139
G1 X121.923 Y12.198 E6.06243
G1 X122.549 Y13.15 E6.24148
G1 X123.17 Y14.331 E6.45118
G1 X123.689 Y15.478 E6.64903
G1 X124.785 Y17.815 E7.05468
G1 X125.527 Y19.289 E7.31402
G1 X126.009 Y20.282 E7.48749
G1 X126.445 Y21.306 E7.66239
G1 X126.772 Y22.31 E7.82833
G1 X126.973 Y23.133 E7.96147
G1 X127.674 Y26.552 E8.50996
G1 X128.221 Y28.871 E8.8844
G1 X128.871 Y31.309 E9.28093
G1 X129.588 Y33.726 E9.67713
G1 X130.349 Y36.046 E10.06084
G1 X131.182 Y38.365 E10.44808
G1 X132.094 Y40.691 E10.84071
G1 X133.062 Y42.971 E11.22998
G1 X134.092 Y45.218 E11.61844
G1 X135.207 Y47.477 E12.01434
G1 X136.352 Y49.642 E12.39923
G1 X137.572 Y51.797 E12.7884
G1 X138.887 Y53.977 E13.1885
G1 X139.351 Y54.705 E13.32417
G1 X140.165 Y56.05 E13.57124
G1 X140.619 Y56.857 E13.71676
G1 X141.088 Y57.747 E13.87485
G1 X141.483 Y58.554 E14.01605
G1 X141.815 Y59.278 E14.14123
G1 X142.15 Y60.063 E14.27536
G1 X142.423 Y60.76 E14.393
G1 X142.809 Y61.868 E14.57739
G1 X143.03 Y62.597 E14.6971
G1 X143.257 Y63.471 E14.83901
G1 X143.422 Y64.195 E14.95571
G1 X143.602 Y65.193 E15.11508
G1 X143.724 Y66.185 E15.27215
G1 X143.806 Y67.086 E15.41433
G1 X143.859 Y68.118 E15.57673
G1 X143.857 Y69.032 E15.72037
G1 X143.747 Y70.259 E15.91397
G1 X143.585 Y71.158 E16.05752
G1 X143.262 Y72.345 E16.25085
G1 X142.916 Y73.276 E16.40694
G1 X142.496 Y74.173 E16.56259
G1 X142.125 Y74.843 E16.68295
G1 X140.58 Y77.42 E17.15514
G1 X139.356 Y79.607 E17.54901
G1 X138.254 Y81.713 E17.92255
G1 X137.136 Y84.001 E18.32275
G1 X136.109 Y86.266 E18.71358
G1 X135.134 Y88.589 E19.1095
G1 X134.249 Y90.878 E19.49518
G1 X133.42 Y93.217 E19.88517
G1 X132.676 Y95.52 E20.26551
G1 X131.981 Y97.9 E20.65516
G1 X131.329 Y100.389 E21.05951
G1 X130.77 Y102.806 E21.44938
G1 X130.294 Y105.161 E21.82696
G1 X129.862 Y107.659 E22.22536
G1 X129.509 Y110.117 E22.61561
G1 X129.232 Y112.527 E22.99684
G1 X129.013 Y115.045 E23.39405
G1 X128.871 Y117.507 E23.78161
G1 X128.796 Y120.013 E24.17561
G1 X128.785 Y121.318 E24.38071
G1 X128.716 Y169.173 E31.90133
G1 X128.703 Y170.269 E32.07358
G1 X128.624 Y173.891 E32.64293
G1 X128.585 Y174.99 E32.81575
G1 X128.328 Y179.036 E33.45288
G1 X128.21 Y180.53 E33.68839
G1 X127.957 Y183.243 E34.1166
G1 X127.82 Y184.562 E34.32501
G1 X127.524 Y187.136 E34.73219
G1 X127.33 Y188.582 E34.96147
G1 X127.134 Y189.788 E35.15348
G1 X126.929 Y190.916 E35.33366
G1 X126.754 Y191.767 E35.47019
G1 X126.245 Y193.962 E35.8243
G1 X126.125 Y194.432 E35.90053
G1 X125.575 Y196.407 E36.22272
G1 X125.054 Y198.108 E36.5023
G1 X124.777 Y198.961 E36.64324
G1 X124.29 Y200.375 E36.87827
G1 X123.742 Y201.82 E37.12114
G1 X123.453 Y202.508 E37.23841
G1 X122.83 Y203.859 E37.47221
G1 X122.504 Y204.524 E37.5886
G1 X122.218 Y205.069 E37.68533
G1 X121.742 Y205.902 E37.8361
G1 X121.364 Y206.52 E37.94995
G1 X120.932 Y207.176 E38.07339
G1 X120.209 Y208.201 E38.27051
G1 X119.819 Y208.727 E38.37342
G1 X119.107 Y209.587 E38.54888
G1 X118.467 Y210.24 E38.69257
G1 X117.533 Y211.042 E38.88604
G1 X116.724 Y211.617 E39.04202
G1 X115.733 Y212.198 E39.22255
G1 X114.765 Y212.654 E39.39071
G1 X113.836 Y212.999 E39.54645
G1 X112.803 Y213.287 E39.71498
G1 X111.672 Y213.494 E39.89568
G1 X110.684 Y213.586 E40.05162
G1 X109.531 Y213.593 E40.23282
G1 X108.465 Y213.503 E40.40094
G1 X107.564 Y213.352 E40.54451
G1 X106.374 Y213.042 E40.73777
G1 X105.364 Y212.677 E40.90654
G1 X104.393 Y212.226 E41.07479
G1 X103.467 Y211.693 E41.2427
G1 X102.652 Y211.127 E41.39864
G1 X101.764 Y210.389 E41.5801
G1 X101.002 Y209.626 E41.74956
G1 X100.269 Y208.751 E41.92895
G1 X99.79 Y208.106 E42.0552
G1 X99.01 Y206.988 E42.26944
G1 X98.62 Y206.402 E42.38006
G1 X98.208 Y205.723 E42.50488
G1 X97.797 Y204.991 E42.63681
G1 X97.36 Y204.131 E42.78841
G1 X96.716 Y202.709 E43.03373
G1 X96.399 Y201.951 E43.16285
G1 X96.146 Y201.307 E43.27159
M117 Time Left 0h37m57s
G1 X95.589 Y199.739 E43.53309
G1 X95.247 Y198.699 E43.70514
G1 X94.748 Y197.015 E43.98116
G1 X94.401 Y195.742 E44.18852
G1 X94.099 Y194.49 E44.39092
G1 X93.629 Y192.385 E44.72987
G1 X93.173 Y189.991 E45.11286
G1 X92.9 Y188.392 E45.36779
G1 X92.64 Y186.697 E45.63728
G1 X92.398 Y184.934 E45.91694
G1 X92.202 Y183.348 E46.16809
G1 X91.991 Y181.37 E46.4807
G1 X91.86 Y179.954 E46.70418
G1 X91.7 Y177.91 E47.02639
G1 X91.612 Y176.562 E47.23868
G1 X91.477 Y173.89 E47.65913
G1 X91.42 Y172.298 E47.90948
G1 X91.366 Y169.553 E48.34095
G1 X91.357 Y168.492 E48.5077
G1 X91.327 Y121.521 E55.88939
G1 X91.288 Y118.914 E56.29914
G1 X91.184 Y116.523 E56.67525
G1 X91.005 Y113.997 E57.07321
G1 X90.756 Y111.509 E57.46617
G1 X90.437 Y109.035 E57.85818
G1 X90.061 Y106.65 E58.23763
G1 X89.591 Y104.129 E58.64064
G1 X89.077 Y101.747 E59.02359
G1 X88.493 Y99.379 E59.40689
G1 X87.812 Y96.911 E59.80924
G1 X87.105 Y94.608 E60.18783
G1 X86.285 Y92.179 E60.59073
G1 X85.45 Y89.918 E60.96951
G1 X84.511 Y87.586 E61.36459
G1 X83.529 Y85.331 E61.75111
G1 X82.465 Y83.063 E62.14481
G1 X81.366 Y80.887 E62.52792
G1 X80.15 Y78.636 E62.92999
G1 X78.894 Y76.465 E63.32416
G1 X78.027 Y75.027 E63.58804
G1 X77.54 Y74.13 E63.74844
G1 X77.219 Y73.424 E63.87032
G1 X77.071 Y73.064 E63.93149
G1 X76.735 Y72.133 E64.08704
G1 X76.475 Y71.175 E64.24304
G1 X76.226 Y69.633 E64.48851
G1 X76.184 Y69.18 E64.56001
G1 X76.139 Y68.095 E64.73067
G1 X76.194 Y66.977 E64.90658
G1 X76.273 Y66.202 E65.029
G1 X76.391 Y65.366 E65.16169
G1 X76.599 Y64.223 E65.34426
G1 X76.722 Y63.636 E65.43852
G1 X76.977 Y62.634 E65.601
G1 X77.293 Y61.597 E65.77137
G1 X77.527 Y60.896 E65.88751
G1 X77.796 Y60.173 E66.00874
G1 X78.045 Y59.573 E66.11083
G1 X78.509 Y58.534 E66.28966
G1 X78.788 Y57.957 E66.39038
G1 X79.264 Y57.044 E66.55219
G1 X79.603 Y56.431 E66.66228
G1 X80.03 Y55.709 E66.7941
G1 X80.65 Y54.729 E66.97635
G1 X81.985 Y52.556 E67.37714
G1 X83.252 Y50.359 E67.77571
G1 X84.421 Y48.194 E68.16238
G1 X85.541 Y45.967 E68.55413
G1 X86.592 Y43.723 E68.94354
G1 X87.583 Y41.443 E69.33424
G1 X88.513 Y39.122 E69.72719
G1 X89.355 Y36.838 E70.10974
G1 X90.145 Y34.492 E70.49877
G1 X90.89 Y32.057 E70.89895
G1 X91.534 Y29.713 E71.28097
G1 X92.127 Y27.294 E71.67238
G1 X92.667 Y24.777 E72.07693
G1 X92.989 Y23.146 E72.3382
G1 X93.205 Y22.258 E72.48182
G0 F6000 X94.08 Y22.471
G1 F600 X94.417 Y21.469 E72.64796
G1 X94.655 Y20.904 E72.74431
G1 X94.952 Y20.26 E72.85576
G1 X95.26 Y19.628 E72.96625
G1 X96.169 Y17.83 E73.28287
G1 X97.6 Y14.761 E73.81503
G1 X98.06 Y13.849 E73.97555
G1 X98.67 Y12.871 E74.15669
M73 P1
G1 X99.34 Y11.983 E74.33151
G1 X99.951 Y11.303 E74.47518
G1 X100.732 Y10.571 E74.6434
G1 X101.516 Y9.961 E74.79951
G1 X102.282 Y9.463 E74.94309
G1 X103.218 Y8.964 E75.10979
G1 X103.98 Y8.631 E75.24047
G1 X104.912 Y8.289 E75.39649
G1 X105.794 Y8.047 E75.54023
G1 X106.866 Y7.853 E75.71143
G1 X108.198 Y7.756 E75.92131
G1 X111.501 Y7.726 E76.44042
G1 X112.532 Y7.765 E76.60256
G1 X113.518 Y7.89 E76.75875
G1 X114.479 Y8.098 E76.91327
G1 X115.348 Y8.357 E77.05578
G1 X116.373 Y8.752 E77.22841
G1 X117.264 Y9.188 E77.3843
G1 X118.049 Y9.657 E77.528
G1 X118.917 Y10.286 E77.69647
G1 X119.665 Y10.939 E77.85251
G1 X120.354 Y11.656 E78.00878
G1 X120.955 Y12.4 E78.15909
G1 X121.197 Y12.73 E78.2234
G1 X121.753 Y13.57 E78.38171
G1 X122.35 Y14.702 E78.58283
G1 X122.874 Y15.86 E78.78258
G1 X123.971 Y18.199 E79.18858
G1 X124.717 Y19.682 E79.44947
G1 X125.199 Y20.675 E79.62293
G1 X125.59 Y21.587 E79.77887
G1 X125.898 Y22.524 E79.93388
G1 X126.091 Y23.314 E80.06168
G1 X126.793 Y26.737 E80.61082
G1 X127.351 Y29.103 E80.99284
G1 X128.002 Y31.545 E81.39002
G1 X128.727 Y33.988 E81.79049
G1 X129.502 Y36.35 E82.18116
G1 X130.344 Y38.694 E82.57258
G1 X131.256 Y41.02 E82.96521
G1 X132.244 Y43.346 E83.36236
G1 X133.285 Y45.616 E83.75482
G1 X134.411 Y47.898 E84.15473
G1 X135.556 Y50.063 E84.53962
G1 X136.801 Y52.262 E84.93675
G1 X138.118 Y54.445 E85.33741
G1 X138.581 Y55.171 E85.47273
G1 X139.381 Y56.492 E85.71544
G1 X139.823 Y57.277 E85.85701
G1 X140.28 Y58.143 E86.0109
G1 X140.665 Y58.929 E86.14844
G1 X140.987 Y59.632 E86.26996
G1 X141.312 Y60.392 E86.39986
G1 X141.573 Y61.056 E86.51198
G1 X141.959 Y62.164 E86.69637
G1 X142.159 Y62.823 E86.8046
G1 X142.379 Y63.671 E86.94228
G1 X142.544 Y64.395 E87.05898
G1 X142.716 Y65.352 E87.21178
G1 X142.828 Y66.267 E87.35665
G1 X142.907 Y67.134 E87.49347
G1 X142.959 Y68.116 E87.64801
G1 X142.957 Y69.03 E87.79165
G1 X142.861 Y70.099 E87.96032
G1 X142.699 Y70.998 E88.10388
G1 X142.418 Y72.031 E88.27212
G1 X142.072 Y72.962 E88.42821
G1 X141.682 Y73.789 E88.5719
G1 X141.353 Y74.38 E88.6782
G1 X139.808 Y76.957 E89.1504
G1 X138.571 Y79.167 E89.54841
G1 X137.445 Y81.318 E89.92996
G1 X136.316 Y83.629 E90.33417
G1 X135.289 Y85.894 E90.72501
G1 X134.304 Y88.241 E91.12501
G1 X133.41 Y90.553 E91.51457
M117 Time Left 0h37m42s
G1 X132.572 Y92.916 E91.90859
G1 X131.812 Y95.268 E92.29703
G1 X131.11 Y97.672 E92.69061
G1 X130.458 Y100.161 E93.09496
G1 X129.893 Y102.603 E93.48887
G1 X129.407 Y105.008 E93.87447
G1 X128.975 Y107.506 E94.27286
G1 X128.618 Y109.989 E94.66709
G1 X128.335 Y112.449 E95.05624
G1 X128.114 Y114.993 E95.45755
G1 X127.972 Y117.455 E95.8451
G1 X127.896 Y119.986 E96.24304
G1 X127.885 Y121.311 E96.45127
G1 X127.816 Y169.162 E103.97127
G1 X127.803 Y170.25 E104.14226
G1 X127.725 Y173.859 E104.70956
G1 X127.687 Y174.933 E104.87845
G1 X127.431 Y178.965 E105.51337
G1 X127.314 Y180.446 E105.74684
G1 X127.062 Y183.15 E106.17363
G1 X126.926 Y184.459 E106.38045
G1 X126.632 Y187.017 E106.7851
G1 X126.442 Y188.437 E107.01025
G1 X126.248 Y189.628 E107.19988
G1 X126.048 Y190.734 E107.37652
G1 X125.877 Y191.564 E107.50969
G1 X125.373 Y193.74 E107.86071
G1 X125.258 Y194.191 E107.93386
G1 X124.715 Y196.143 E108.25227
G1 X124.198 Y197.83 E108.52956
G1 X123.926 Y198.668 E108.66802
G1 X123.448 Y200.056 E108.89872
G1 X122.912 Y201.471 E109.13651
G1 X122.623 Y202.159 E109.25379
G1 X122.022 Y203.463 E109.47943
G1 X121.707 Y204.106 E109.59196
G1 X121.436 Y204.623 E109.68369
G1 X120.974 Y205.432 E109.8301
G1 X120.596 Y206.05 E109.94395
G1 X120.197 Y206.657 E110.05811
G1 X119.485 Y207.666 E110.25218
G1 X119.124 Y208.155 E110.3477
G1 X118.464 Y208.957 E110.51093
G1 X117.824 Y209.61 E110.65462
G1 X117.012 Y210.308 E110.8229
G1 X116.203 Y210.883 E110.97888
G1 X115.347 Y211.385 E111.13483
G1 X114.449 Y211.811 E111.29102
G1 X113.594 Y212.132 E111.43455
G1 X112.561 Y212.42 E111.60308
G1 X111.585 Y212.598 E111.75899
G1 X110.676 Y212.686 E111.90251
G1 X109.604 Y212.696 E112.07099
G1 X108.614 Y212.615 E112.22709
G1 X107.713 Y212.464 E112.37066
G1 X106.677 Y212.195 E112.53887
G1 X105.741 Y211.86 E112.69511
G1 X104.84 Y211.445 E112.851
G1 X103.978 Y210.952 E113.00706
G1 X103.225 Y210.433 E113.15078
G1 X102.399 Y209.751 E113.31912
G1 X101.691 Y209.047 E113.47603
G1 X100.992 Y208.214 E113.64692
G1 X100.513 Y207.569 E113.77318
G1 X99.759 Y206.489 E113.98018
G1 X99.389 Y205.934 E114.085
G1 X98.992 Y205.281 E114.2051
G1 X98.599 Y204.583 E114.33099
G1 X98.18 Y203.759 E114.47626
G1 X97.546 Y202.361 E114.7175
G1 X97.236 Y201.621 E114.84359
G1 X96.994 Y201.006 E114.94745
G1 X96.444 Y199.458 E115.20563
G1 X96.11 Y198.443 E115.37355
G1 X95.616 Y196.778 E115.64649
G1 X95.276 Y195.53 E115.84976
G1 X94.977 Y194.294 E116.04961
G1 X94.513 Y192.216 E116.38422
G1 X94.06 Y189.84 E116.76434
G1 X93.79 Y188.255 E117.01702
G1 X93.532 Y186.574 E117.28429
G1 X93.291 Y184.824 E117.5619
G1 X93.097 Y183.252 E117.81082
G1 X92.887 Y181.287 E118.12139
G1 X92.757 Y179.884 E118.34282
G1 X92.598 Y177.851 E118.66329
G1 X92.511 Y176.516 E118.87354
G1 X92.376 Y173.858 E119.29179
G1 X92.32 Y172.28 E119.53994
G1 X92.266 Y169.545 E119.96984
G1 X92.257 Y168.491 E120.13548
G1 X92.227 Y121.52 E127.51717
G1 X92.188 Y118.901 E127.92881
G1 X92.082 Y116.459 E128.31294
G1 X91.901 Y113.907 E128.715
G1 X91.652 Y111.419 E129.10795
G1 X91.33 Y108.92 E129.50393
G1 X90.946 Y106.485 E129.89133
G1 X90.476 Y103.964 E130.29434
G1 X89.957 Y101.557 E130.6813
G1 X89.361 Y99.14 E131.07252
G1 X88.68 Y96.672 E131.47487
G1 X87.958 Y94.32 E131.86152
G1 X87.138 Y91.891 E132.26442
G1 X86.285 Y89.582 E132.65126
G1 X85.346 Y87.25 E133.04633
G1 X84.344 Y84.949 E133.44074
G1 X83.28 Y82.681 E133.83444
G1 X82.158 Y80.459 E134.22563
G1 X80.942 Y78.208 E134.6277
G1 X79.673 Y76.014 E135.02602
G1 X78.818 Y74.598 E135.28597
G1 X78.331 Y73.701 E135.44637
G1 X78.051 Y73.08 E135.55343
G1 X77.917 Y72.756 E135.60853
G1 X77.604 Y71.897 E135.75221
G1 X77.344 Y70.939 E135.90821
G1 X77.115 Y69.492 E136.13844
G1 X77.083 Y69.14 E136.19398
G1 X77.038 Y68.139 E136.35145
G1 X77.093 Y67.021 E136.52737
G1 X77.164 Y66.327 E136.637
G1 X77.276 Y65.527 E136.76395
G1 X77.48 Y64.408 E136.9427
G1 X77.603 Y63.821 E137.03696
G1 X77.838 Y62.896 E137.18694
G1 X78.147 Y61.882 E137.35353
G1 X78.371 Y61.21 E137.46485
G1 X78.64 Y60.487 E137.58608
G1 X78.867 Y59.94 E137.67915
G1 X79.331 Y58.901 E137.85798
G1 X79.586 Y58.373 E137.95013
G1 X80.051 Y57.48 E138.10835
G1 X80.378 Y56.889 E138.2145
G1 X80.791 Y56.19 E138.34209
G1 X81.411 Y55.21 E138.52434
G1 X82.765 Y53.006 E138.93084
G1 X84.032 Y50.809 E139.32941
G1 X85.213 Y48.622 E139.72002
G1 X86.355 Y46.351 E140.1195
G1 X87.407 Y44.105 E140.50927
G1 X88.408 Y41.802 E140.9039
G1 X89.348 Y39.457 E141.30094
G1 X90.208 Y37.125 E141.69155
G1 X91.005 Y34.758 E142.08405
G1 X91.751 Y32.32 E142.48473
G1 X92.402 Y29.952 E142.87068
G1 X93.006 Y27.487 E143.26952
G1 X93.547 Y24.966 E143.67473
G1 X93.864 Y23.359 E143.93214
G1 X94.08 Y22.471 E144.07576
G0 F6000 X94.955 Y22.684
G1 F600 X95.247 Y21.818 E144.21939
G1 X95.473 Y21.28 E144.31109
G1 X95.761 Y20.654 E144.41938
G1 X96.063 Y20.034 E144.52776
G1 X96.983 Y18.214 E144.84825
G1 X98.416 Y15.141 E145.38111
G1 X98.825 Y14.323 E145.52484
G1 X99.39 Y13.411 E145.69344
G1 X100.009 Y12.585 E145.85565
G1 X100.62 Y11.905 E145.99932
G1 X101.287 Y11.28 E146.14297
G1 X102.007 Y10.716 E146.2867
M117 Time Left 0h37m27s
G1 X102.773 Y10.218 E146.43028
G1 X103.58 Y9.788 E146.57399
G1 X104.293 Y9.475 E146.69636
G1 X105.15 Y9.157 E146.84001
G1 X106.032 Y8.915 E146.98375
G1 X106.931 Y8.751 E147.12736
G1 X108.263 Y8.654 E147.33724
G1 X111.509 Y8.626 E147.84738
G1 X112.422 Y8.658 E147.99095
G1 X113.33 Y8.77 E148.13473
M73 P2
G1 X114.224 Y8.961 E148.2784
G1 X115.027 Y9.198 E148.40998
G1 X115.98 Y9.562 E148.5703
G1 X116.802 Y9.961 E148.71389
G1 X117.587 Y10.43 E148.8576
G1 X118.327 Y10.966 E149.00119
