;FLAVOR:Marlin
;TIME:10182
;Filament used: 13.163m
;Layer height: 0.3
;MINX:54.15
;MINY:67.75
;MINZ:0.42
;MAXX:165.85
;MAXY:151.92
;MAXZ:24.32
;TARGET_MACHINE.NAME:Creality Ender-3
;POSTPROCESSED
;  [InsertAtLayerChange]
;  [MeshPrintSize]
;Generated with Cura_SteamEngine 5.7.0


; Pre-Processed for Cancel-Object support by preprocess_cancellation v0.2.0
; 1 known objects
EXCLUDE_OBJECT_DEFINE NAME=middle_case_modded_stl CENTER=99.262,109.354 POLYGON=[[62.399,75.7],[62.399,143.0],[157.6,143.0],[157.6,75.7]]
M82 ;absolute extrusion mode
;Nozzle diameter = 0.6
;Filament type = PLA
;Filament name = Purple/Pink
START_PRINT PRINT_MIN=54.15,67.75 PRINT_MAX=165.85,151.92 BED_TEMP=65 EXTRUDER_TEMP=210
G92 E0
G92 E0
G1 F2700 E-5
;LAYER_COUNT:80
TIMELAPSE_TAKE_FRAME
;LAYER:0
M107
G1 F300 Z0.62
G0 F6000 X59.456 Y70.937 Z0.62
;TYPE:SKIRT
G1 F300 Z0.42
G1 F2700 E0
G1 F600 X60.798 Y69.959 E0.26096
G1 X62.248 Y69.391 E0.5057
G1 X62.989 Y69.182 E0.62669
G1 X64.148 Y69.066 E0.80974
G1 X69.765 Y69.049 E1.69248
G1 X70.124 Y68.833 E1.75832
G1 X71.49 Y68.315 E1.98791
G1 X72.766 Y68.079 E2.19184
G1 X77.002 Y68.079 E2.85755
G1 X78.692 Y68.356 E3.12668
G1 X79.86 Y68.872 E3.32735
G1 X80.053 Y68.759 E3.3625
G1 X81.237 Y68.231 E3.56623
G1 X83.108 Y67.75 E3.86983
G1 X87.16 Y67.75 E4.50662
G1 X89.589 Y68.321 E4.89875
G1 X91.133 Y68.965 E5.16166
G1 X91.291 Y69.05 E5.18985
G1 X96.76 Y69.05 E6.04933
G1 X97.124 Y68.831 E6.11609
G1 X98.48 Y68.317 E6.34399
G1 X99.766 Y68.079 E6.54952
G1 X103.997 Y68.079 E7.21444
G1 X105.7 Y68.357 E7.48561
G1 X107.266 Y69.05 E7.75474
G1 X155.986 Y69.05 E15.41129
G1 X157.66 Y69.321 E15.67779
G1 X159.388 Y70.066 E15.97351
G1 X160.575 Y70.968 E16.2078
G1 X163.963 Y74.356 E16.96079
G1 X164.941 Y75.698 E17.22175
G1 X165.509 Y77.148 E17.46648
G1 X165.718 Y77.889 E17.58748
G1 X165.834 Y79.048 E17.77053
G1 X165.85 Y141.086 E27.52006
G1 X165.579 Y142.76 E27.78656
G1 X164.834 Y144.488 E28.08228
G1 X163.932 Y145.675 E28.31657
G1 X160.544 Y149.063 E29.06956
G1 X159.202 Y150.041 E29.33052
G1 X157.752 Y150.609 E29.57525
G1 X157.011 Y150.818 E29.69625
G1 X155.852 Y150.934 E29.8793
G1 X113.736 Y150.95 E36.498
G1 X113.375 Y151.165 E36.56403
G1 X112.005 Y151.685 E36.79432
G1 X110.734 Y151.92 E36.99745
G1 X106.499 Y151.92 E37.663
G1 X104.814 Y151.645 E37.93131
G1 X103.24 Y150.95 E38.20171
G1 X77.236 Y150.95 E42.28834
G1 X76.875 Y151.165 E42.35438
G1 X75.505 Y151.685 E42.58467
G1 X74.234 Y151.92 E42.78779
G1 X69.999 Y151.92 E43.45334
G1 X68.314 Y151.645 E43.72165
G1 X66.74 Y150.95 E43.99205
G1 X64.014 Y150.95 E44.42045
G1 X62.34 Y150.679 E44.68695
G1 X60.612 Y149.934 E44.98268
G1 X59.425 Y149.032 E45.21697
G1 X56.037 Y145.644 E45.96995
G1 X55.059 Y144.302 E46.23091
G1 X54.491 Y142.852 E46.47565
G1 X54.282 Y142.111 E46.59664
G1 X54.166 Y140.952 E46.77969
G1 X54.15 Y78.914 E56.52922
G1 X54.421 Y77.24 E56.79572
G1 X55.166 Y75.512 E57.09145
G1 X56.068 Y74.325 E57.32574
G1 X59.456 Y70.937 E58.07872
G0 F6000 X60.041 Y71.624
G1 F600 X61.234 Y70.754 E58.31076
G1 X62.493 Y70.257 E58.52348
G1 X63.155 Y70.07 E58.63159
G1 X64.237 Y69.962 E58.80247
G1 X70.043 Y69.948 E59.71491
G1 X70.443 Y69.675 E59.79102
G1 X71.735 Y69.185 E60.00817
G1 X72.849 Y68.979 E60.18621
G1 X76.93 Y68.979 E60.82756
G1 X78.433 Y69.225 E61.0669
G1 X79.946 Y69.894 E61.32688
G1 X80.42 Y69.581 E61.41615
G1 X81.534 Y69.084 E61.60785
G1 X83.223 Y68.65 E61.88191
G1 X87.056 Y68.65 E62.48428
G1 X89.307 Y69.179 E62.84767
G1 X90.786 Y69.796 E63.09952
G1 X91.038 Y69.95 E63.14593
G1 X97.037 Y69.95 E64.0887
G1 X97.443 Y69.673 E64.16594
G1 X98.725 Y69.187 E64.3814
G1 X99.849 Y68.979 E64.56104
G1 X103.926 Y68.979 E65.20176
G1 X105.441 Y69.226 E65.44299
G1 X106.764 Y69.812 E65.67039
G1 X106.99 Y69.95 E65.712
G1 X155.916 Y69.95 E73.40093
G1 X157.403 Y70.191 E73.63766
G1 X158.933 Y70.85 E73.89947
G1 X159.984 Y71.649 E74.10695
G1 X163.276 Y74.941 E74.83859
G1 X164.146 Y76.134 E75.07063
G1 X164.643 Y77.393 E75.28335
G1 X164.83 Y78.055 E75.39146
G1 X164.938 Y79.137 E75.56234
G1 X164.95 Y141.016 E85.28688
G1 X164.709 Y142.503 E85.52362
G1 X164.05 Y144.033 E85.78542
G1 X163.251 Y145.084 E85.9929
G1 X159.959 Y148.376 E86.72455
G1 X158.766 Y149.246 E86.95659
G1 X157.507 Y149.743 E87.16931
G1 X156.845 Y149.93 E87.27741
G1 X155.763 Y150.038 E87.4483
G1 X113.459 Y150.05 E94.09655
G1 X113.056 Y150.324 E94.17313
G1 X111.765 Y150.814 E94.39014
G1 X110.651 Y151.02 E94.56818
G1 X106.571 Y151.02 E95.20937
G1 X105.071 Y150.775 E95.44822
G1 X103.73 Y150.183 E95.67859
G1 X103.509 Y150.05 E95.71912
G1 X76.959 Y150.05 E99.89157
G1 X76.556 Y150.324 E99.96815
G1 X75.265 Y150.814 E100.18516
G1 X74.151 Y151.02 E100.3632
G1 X70.071 Y151.02 E101.00439
G1 X68.571 Y150.775 E101.24324
G1 X67.23 Y150.183 E101.47361
G1 X67.009 Y150.05 E101.51414
G1 X64.084 Y150.05 E101.97382
G1 X62.597 Y149.809 E102.21056
G1 X61.067 Y149.15 E102.47236
G1 X60.016 Y148.351 E102.67984
G1 X56.724 Y145.059 E103.41148
G1 X55.854 Y143.866 E103.64352
G1 X55.357 Y142.607 E103.85624
G1 X55.17 Y141.945 E103.96435
G1 X55.062 Y140.863 E104.13523
G1 X55.05 Y78.984 E113.85977
G1 X55.291 Y77.497 E114.09651
G1 X55.95 Y75.967 E114.35831
G1 X56.749 Y74.916 E114.56579
G1 X60.041 Y71.624 E115.29744
G0 F6000 X60.626 Y72.311
G1 F600 X61.669 Y71.55 E115.50034
G1 X62.738 Y71.123 E115.68124
G1 X63.321 Y70.958 E115.77646
G1 X64.326 Y70.858 E115.93518
G1 X70.32 Y70.847 E116.87717
G1 X70.863 Y70.478 E116.98034
G1 X71.975 Y70.056 E117.16726
G1 X72.932 Y69.879 E117.3202
G1 X76.857 Y69.879 E117.93703
G1 X78.174 Y70.095 E118.14677
G1 X79.409 Y70.641 E118.35898
G1 X79.7 Y70.846 E118.41492
G1 X80.138 Y70.845 E118.48375
G1 X80.855 Y70.372 E118.61874
G1 X81.829 Y69.938 E118.78632
G1 X83.338 Y69.55 E119.03118
G1 X86.952 Y69.55 E119.59913
G1 X89.027 Y70.038 E119.93412
G1 X90.44 Y70.627 E120.1747
G1 X90.738 Y70.85 E120.2332
G1 X97.315 Y70.85 E121.2668
G1 X97.862 Y70.477 E121.37085
G1 X98.97 Y70.057 E121.55706
G1 X99.932 Y69.879 E121.71081
G1 X103.855 Y69.879 E122.32733
G1 X105.18 Y70.095 E122.53831
G1 X106.399 Y70.635 E122.74783
G1 X106.703 Y70.85 E122.80635
G1 X155.846 Y70.85 E130.52937
G1 X157.15 Y71.061 E130.73697
G1 X158.474 Y71.632 E130.96356
G1 X159.394 Y72.331 E131.14514
G1 X162.589 Y75.526 E131.85523
G1 X163.35 Y76.569 E132.05813
G1 X163.777 Y77.638 E132.23904
G1 X163.942 Y78.221 E132.33426
G1 X164.042 Y79.226 E132.49298
G1 X164.05 Y140.946 E142.19253
G1 X163.839 Y142.25 E142.40013
G1 X163.268 Y143.574 E142.62672
G1 X162.569 Y144.494 E142.8083
G1 X159.374 Y147.689 E143.51839
G1 X158.331 Y148.45 E143.72129
G1 X157.262 Y148.877 E143.9022
G1 X156.679 Y149.042 E143.99742
G1 X155.674 Y149.142 E144.15614
G1 X113.183 Y149.15 E150.83377
G1 X112.637 Y149.521 E150.93751
G1 X111.525 Y149.943 E151.12443
G1 X110.568 Y150.12 E151.27738
G1 X106.643 Y150.12 E151.89421
G1 X105.328 Y149.905 E152.10361
G1 X104.093 Y149.36 E152.31575
G1 X103.796 Y149.15 E152.37292
G1 X76.683 Y149.15 E156.63384
G1 X76.137 Y149.521 E156.73758
G1 X75.025 Y149.943 E156.92449
G1 X74.068 Y150.12 E157.07744
G1 X70.143 Y150.12 E157.69427
G1 X68.828 Y149.905 E157.90367
G1 X67.593 Y149.36 E158.11582
G1 X67.296 Y149.15 E158.17298
G1 X64.154 Y149.15 E158.66676
G1 X62.85 Y148.939 E158.87435
G1 X61.526 Y148.368 E159.10095
G1 X60.606 Y147.669 E159.28253
G1 X57.411 Y144.474 E159.99262
G1 X56.65 Y143.431 E160.19552
G1 X56.223 Y142.362 E160.37642
G1 X56.058 Y141.779 E160.47164
G1 X55.958 Y140.774 E160.63036
G1 X55.95 Y79.054 E170.32992
G1 X56.161 Y77.75 E170.53751
G1 X56.732 Y76.426 E170.76411
G1 X57.431 Y75.506 E170.94569
G1 X60.626 Y72.311 E171.65578
G0 F6000 X61.211 Y72.998
G1 F600 X62.106 Y72.345 E171.82989
G1 X63.072 Y71.959 E171.99337
G1 X63.484 Y71.847 E172.06047
G1 X64.415 Y71.754 E172.2075
G1 X70.597 Y71.747 E173.17903
G1 X71.282 Y71.281 E173.30923
G1 X72.215 Y70.927 E173.46605
G1 X73.015 Y70.779 E173.59391
G1 X76.785 Y70.779 E174.18638
G1 X77.915 Y70.964 E174.36633
G1 X78.96 Y71.426 E174.54589
G1 X79.414 Y71.746 E174.63318
G1 X80.409 Y71.745 E174.78955
G1 X81.29 Y71.163 E174.95549
G1 X82.123 Y70.792 E175.09879
G1 X83.453 Y70.45 E175.31461
G1 X86.848 Y70.45 E175.84814
G1 X88.747 Y70.897 E176.15474
G1 X89.993 Y71.416 E176.36686
G1 X90.439 Y71.75 E176.45442
G1 X97.593 Y71.75 E177.57871
G1 X98.281 Y71.281 E177.70956
G1 X99.215 Y70.927 E177.86653
G1 X100.015 Y70.779 E177.99439
G1 X103.784 Y70.779 E178.5867
G1 X104.919 Y70.964 E178.76742
G1 X105.955 Y71.423 E178.9455
G1 X106.418 Y71.75 E179.03458
G1 X155.776 Y71.75 E186.79139
G1 X156.893 Y71.931 E186.96923
G1 X158.019 Y72.416 E187.1619
G1 X158.803 Y73.012 E187.31667
G1 X161.902 Y76.111 E188.00542
G1 X162.555 Y77.006 E188.17953
G1 X162.941 Y77.972 E188.34301
G1 X163.053 Y78.384 E188.41011
G1 X163.146 Y79.315 E188.55715
G1 X163.15 Y140.876 E198.23171
G1 X162.969 Y141.993 E198.40954
G1 X162.484 Y143.119 E198.60222
G1 X161.888 Y143.903 E198.75698
G1 X158.789 Y147.002 E199.44574
G1 X157.894 Y147.655 E199.61985
G1 X156.928 Y148.041 E199.78333
G1 X156.516 Y148.153 E199.85043
G1 X155.585 Y148.246 E199.99746
G1 X112.906 Y148.25 E206.70465
G1 X112.218 Y148.718 E206.83541
G1 X111.285 Y149.072 E206.99224
G1 X110.485 Y149.22 E207.12009
G1 X106.715 Y149.22 E207.71256
G1 X105.585 Y149.035 E207.89251
G1 X104.54 Y148.574 E208.07201
G1 X104.081 Y148.25 E208.1603
G1 X76.406 Y148.25 E212.50954
G1 X75.718 Y148.718 E212.64031
G1 X74.785 Y149.072 E212.79713
G1 X73.985 Y149.22 E212.92499
G1 X70.215 Y149.22 E213.51746
G1 X69.085 Y149.035 E213.69741
G1 X68.04 Y148.574 E213.87691
G1 X67.581 Y148.25 E213.9652
G1 X64.224 Y148.25 E214.49277
G1 X63.107 Y148.069 E214.6706
G1 X61.981 Y147.584 E214.86327
G1 X61.197 Y146.988 E215.01804
G1 X58.098 Y143.889 E215.70679
G1 X57.445 Y142.994 E215.8809
G1 X57.059 Y142.028 E216.04438
G1 X56.947 Y141.616 E216.11148
G1 X56.854 Y140.685 E216.25852
G1 X56.85 Y79.124 E225.93308
G1 X57.031 Y78.007 E226.11091
G1 X57.516 Y76.881 E226.30359
G1 X58.112 Y76.097 E226.45836
G1 X61.211 Y72.998 E227.14711
G0 F6000 X61.796 Y73.685
G1 F600 X62.543 Y73.14 E227.29242
G1 X63.406 Y72.795 E227.43848
G1 X63.645 Y72.736 E227.47717
G1 X64.505 Y72.65 E227.613
G1 X70.909 Y72.647 E228.61941
G1 X71.053 Y72.526 E228.64897
G1 X71.7 Y72.085 E228.77202
G1 X72.46 Y71.797 E228.89975
G1 X73.098 Y71.679 E229.00171
G1 X76.713 Y71.679 E229.56983
G1 X77.656 Y71.833 E229.71999
G1 X78.511 Y72.211 E229.8669
G1 X78.945 Y72.517 E229.95035
G1 X79.094 Y72.646 E229.98132
G1 X80.79 Y72.645 E230.24786
G1 X81.049 Y72.401 E230.30378
G1 X81.725 Y71.954 E230.43114
G1 X82.417 Y71.646 E230.55018
G1 X83.568 Y71.35 E230.73695
G1 X86.744 Y71.35 E231.23607
G1 X88.467 Y71.756 E231.51426
G1 X89.543 Y72.204 E231.69743
G1 X90.139 Y72.65 E231.81441
G1 X97.905 Y72.65 E233.03487
G1 X98.053 Y72.526 E233.06522
G1 X98.7 Y72.085 E233.18827
G1 X99.46 Y71.797 E233.31599
G1 X100.098 Y71.679 E233.41796
G1 X103.713 Y71.679 E233.98607
G1 X104.658 Y71.833 E234.13654
G1 X105.511 Y72.211 E234.28317
G1 X106.133 Y72.65 E234.40281
G1 X155.706 Y72.65 E242.19341
G1 X156.64 Y72.801 E242.3421
G1 X157.558 Y73.197 E242.49922
G1 X158.216 Y73.697 E242.62909
G1 X161.215 Y76.696 E243.29562
G1 X161.76 Y77.443 E243.44094
G1 X162.105 Y78.306 E243.587
G1 X162.164 Y78.545 E243.62568
G1 X162.25 Y79.405 E243.76151
G1 X162.25 Y140.806 E253.41093
G1 X162.099 Y141.74 E253.55962
G1 X161.703 Y142.658 E253.71674
G1 X161.203 Y143.316 E253.84661
G1 X158.204 Y146.315 E254.51314
G1 X157.457 Y146.86 E254.65846
G1 X156.594 Y147.205 E254.80452
G1 X156.355 Y147.264 E254.8432
G1 X155.495 Y147.35 E254.97903
G1 X112.594 Y147.35 E261.7211
G1 X112.447 Y147.473 E261.75122
G1 X111.8 Y147.914 E261.87427
G1 X111.04 Y148.202 E262.002
G1 X110.402 Y148.32 E262.10396
G1 X106.787 Y148.32 E262.67208
G1 X105.844 Y148.166 E262.82224
G1 X104.989 Y147.788 E262.96915
G1 X104.555 Y147.482 E263.0526
G1 X104.403 Y147.35 E263.08424
G1 X76.094 Y147.35 E267.53312
G1 X75.947 Y147.473 E267.56324
G1 X75.3 Y147.914 E267.68629
G1 X74.54 Y148.202 E267.81401
G1 X73.902 Y148.32 E267.91598
G1 X70.287 Y148.32 E268.48409
G1 X69.344 Y148.166 E268.63425
G1 X68.489 Y147.788 E268.78116
G1 X68.055 Y147.482 E268.86462
G1 X67.903 Y147.35 E268.89625
G1 X64.294 Y147.35 E269.46342
G1 X63.36 Y147.199 E269.61211
G1 X62.442 Y146.803 E269.76923
G1 X61.784 Y146.303 E269.8991
G1 X58.785 Y143.304 E270.56563
G1 X58.24 Y142.557 E270.71095
G1 X57.895 Y141.694 E270.85701
G1 X57.836 Y141.455 E270.8957
G1 X57.75 Y140.595 E271.03152
G1 X57.75 Y79.194 E280.68094
G1 X57.901 Y78.26 E280.82963
G1 X58.297 Y77.342 E280.98675
G1 X58.797 Y76.684 E281.11662
G1 X61.796 Y73.685 E281.78315
G0 F6000 X62.381 Y74.372
G1 F600 X62.98 Y73.935 E281.89967
G1 X63.74 Y73.631 E282.02831
G1 X64.505 Y73.55 E282.14921
G1 X71.268 Y73.547 E283.21204
G1 X71.56 Y73.27 E283.27529
G1 X72.119 Y72.889 E283.38161
G1 X72.705 Y72.667 E283.48009
G1 X73.181 Y72.579 E283.55616
G1 X76.642 Y72.579 E284.10007
G1 X77.397 Y72.702 E284.22028
G1 X78.066 Y72.998 E284.33525
G1 X78.426 Y73.252 E284.40449
G1 X78.729 Y73.546 E284.47084
G1 X81.148 Y73.545 E284.851
G1 X81.609 Y73.109 E284.95071
G1 X82.16 Y72.745 E285.0545
G1 X82.711 Y72.5 E285.14926
G1 X83.683 Y72.25 E285.30699
G1 X86.639 Y72.25 E285.77153
G1 X88.191 Y72.616 E286.02213
G1 X89.093 Y72.991 E286.17564
G1 X89.731 Y73.469 E286.30093
G1 X89.924 Y73.55 E286.33382
G1 X98.265 Y73.55 E287.64464
G1 X98.56 Y73.27 E287.70856
G1 X99.119 Y72.889 E287.81488
G1 X99.705 Y72.667 E287.91335
G1 X100.181 Y72.579 E287.98943
G1 X103.642 Y72.579 E288.53334
G1 X104.397 Y72.702 E288.65355
G1 X105.067 Y72.999 E288.76873
G1 X105.495 Y73.301 E288.85105
G1 X105.732 Y73.55 E288.90507
G1 X155.636 Y73.55 E296.74769
G1 X156.383 Y73.671 E296.86662
G1 X157.1 Y73.98 E296.98931
G1 X157.629 Y74.382 E297.09373
G1 X160.528 Y77.281 E297.73803
G1 X160.965 Y77.88 E297.85456
G1 X161.269 Y78.64 E297.98319
G1 X161.35 Y79.405 E298.10409
G1 X161.35 Y140.736 E307.74251
G1 X161.229 Y141.483 E307.86143
G1 X160.92 Y142.2 E307.98413
G1 X160.518 Y142.729 E308.08855
G1 X157.619 Y145.628 E308.73285
G1 X157.02 Y146.065 E308.84937
G1 X156.26 Y146.369 E308.97801
G1 X155.495 Y146.45 E309.0989
G1 X112.234 Y146.45 E315.89755
G1 X111.94 Y146.729 E315.96125
G1 X111.381 Y147.11 E316.06756
G1 X110.795 Y147.332 E316.16604
G1 X110.319 Y147.42 E316.24211
G1 X106.858 Y147.42 E316.78602
G1 X106.103 Y147.297 E316.90624
G1 X105.434 Y147.001 E317.02121
G1 X105.074 Y146.747 E317.09045
G1 X104.769 Y146.45 E317.15735
G1 X75.734 Y146.45 E321.72032
G1 X75.44 Y146.729 E321.78401
G1 X74.881 Y147.11 E321.89033
G1 X74.295 Y147.332 E321.98881
G1 X73.819 Y147.42 E322.06488
G1 X70.358 Y147.42 E322.60879
G1 X69.603 Y147.297 E322.72901
G1 X68.934 Y147.001 E322.84397
G1 X68.574 Y146.747 E322.91321
G1 X68.269 Y146.45 E322.98012
G1 X64.364 Y146.45 E323.5938
G1 X63.617 Y146.329 E323.71273
G1 X62.9 Y146.02 E323.83543
G1 X62.371 Y145.618 E323.93984
G1 X59.472 Y142.719 E324.58414
G1 X59.035 Y142.12 E324.70067
G1 X58.731 Y141.36 E324.8293
G1 X58.65 Y140.595 E324.9502
G1 X58.65 Y79.264 E334.58862
G1 X58.771 Y78.517 E334.70754
G1 X59.08 Y77.8 E334.83024
G1 X59.482 Y77.271 E334.93466
G1 X62.381 Y74.372 E335.57896
G0 F6000 X62.966 Y75.059
G1 F600 X63.417 Y74.73 E335.66669
G1 X63.96 Y74.513 E335.75859
G1 X64.505 Y74.45 E335.84481
G1 X71.664 Y74.447 E336.96987
G1 X71.779 Y74.303 E336.99883
G1 X72.126 Y73.973 E337.07409
G1 X72.539 Y73.692 E337.15259
G1 X72.945 Y73.538 E337.22083
G1 X73.264 Y73.479 E337.27182
G1 X76.571 Y73.479 E337.79152
G1 X77.136 Y73.571 E337.88149
G1 X77.619 Y73.785 E337.96451
G1 X77.907 Y73.988 E338.01988
G1 X78.342 Y74.446 E338.11915
G1 X81.326 Y74.445 E338.5881
G1 X81.633 Y74.326 E338.63984
G1 X82.175 Y73.813 E338.75712
G1 X82.592 Y73.538 E338.83562
G1 X83.005 Y73.354 E338.90668
G1 X83.798 Y73.15 E339.03536
G1 X86.535 Y73.15 E339.46549
G1 X87.914 Y73.475 E339.68814
G1 X88.643 Y73.778 E339.81221
G1 X89.25 Y74.233 E339.93143
G1 X89.553 Y74.39 E339.98506
G1 X89.824 Y74.45 E340.02868
G1 X98.662 Y74.45 E341.4176
G1 X98.778 Y74.304 E341.44691
G1 X99.126 Y73.973 E341.52239
G1 X99.539 Y73.692 E341.60089
G1 X99.945 Y73.538 E341.66913
G1 X100.264 Y73.479 E341.72011
G1 X103.571 Y73.479 E342.23982
G1 X104.136 Y73.571 E342.32978
G1 X104.619 Y73.785 E342.41281
G1 X104.907 Y73.988 E342.46818
