;FLAVOR:Marlin
;TIME:12148
;Filament used: 13.4954m
;Layer height: 0.3
;MINX:83.673
;MINY:62.952
;MINZ:0.42
;MAXX:135.45
;MAXY:156.599
;MAXZ:94.22
;TARGET_MACHINE.NAME:Creality Ender-3
;POSTPROCESSED
;  [InsertAtLayerChange]
;  [MeshPrintSize]
;Generated with Cura_SteamEngine 5.7.0


; Pre-Processed for Cancel-Object support by preprocess_cancellation v0.2.0
; 1 known objects
EXCLUDE_OBJECT_DEFINE NAME=middle_case_STL CENTER=113.659,108.355 POLYGON=[[85.471,64.752],[85.471,154.799],[133.65,154.799],[133.65,64.752]]
M82 ;absolute extrusion mode
;Nozzle diameter = 0.6
;Filament type = PLA
;Filament name = Purple/Pink
START_PRINT PRINT_MIN=83.673,62.952 PRINT_MAX=135.45,156.599 BED_TEMP=65 EXTRUDER_TEMP=210
G92 E0
G92 E0
G1 F2700 E-5
;LAYER_COUNT:313
TIMELAPSE_TAKE_FRAME
;LAYER:0
M107
G1 F300 Z0.62
G0 F6000 X88.077 Y71.831 Z0.62
;TYPE:SKIRT
G1 F300 Z0.42
G1 F2700 E0
G1 F600 X88.799 Y70.945 E0.17962
G1 X90.831 Y68.688 E0.65689
G1 X91.586 Y67.93 E0.82502
G1 X92.343 Y67.287 E0.98111
G1 X93.282 Y66.622 E1.16193
G1 X94.207 Y66.085 E1.33002
G1 X95.105 Y65.661 E1.48609
G1 X96.108 Y65.288 E1.65426
G1 X97.222 Y64.984 E1.83573
G1 X98.211 Y64.807 E1.99362
G1 X99.596 Y64.693 E2.21202
G1 X103.03 Y64.612 E2.75184
G1 X105.524 Y64.479 E3.14434
G1 X107.932 Y64.282 E3.52403
G1 X110.485 Y64 E3.92768
G1 X112.868 Y63.667 E4.30582
G1 X115.832 Y63.171 E4.7781
G1 X116.508 Y63.076 E4.88538
G1 X117.944 Y62.962 E5.11176
G1 X118.835 Y62.952 E5.2518
G1 X119.544 Y62.964 E5.36324
G1 X120.724 Y63.044 E5.5491
G1 X122.068 Y63.272 E5.76334
G1 X122.634 Y63.404 E5.85467
G1 X123.514 Y63.651 E5.99831
G1 X124.694 Y64.101 E6.19678
G1 X125.949 Y64.737 E6.41789
G1 X126.209 Y64.89 E6.4653
G1 X127.149 Y65.505 E6.64183
G1 X128.065 Y66.23 E6.82542
G1 X128.501 Y66.614 E6.91672
G1 X129.272 Y67.362 E7.08554
G1 X132.216 Y70.528 E7.76496
G1 X132.808 Y71.224 E7.90856
G1 X133.52 Y72.225 E8.1016
G1 X134.019 Y73.084 E8.25772
G1 X134.508 Y74.127 E8.43876
G1 X134.873 Y75.131 E8.60664
G1 X135.115 Y76.013 E8.75037
G1 X135.337 Y77.235 E8.94556
G1 X135.434 Y78.404 E9.12991
G1 X135.449 Y79.135 E9.24481
G1 X135.44 Y80.762 E9.5005
G1 X135.327 Y84.466 E10.08287
G1 X135.327 Y86.955 E10.47403
G1 X135.358 Y88.403 E10.70164
G1 X135.359 Y97.99 E12.20828
G1 X135.342 Y98.811 E12.33733
G1 X135.224 Y100.258 E12.56549
G1 X134.771 Y103.392 E13.06312
G1 X134.497 Y105.798 E13.44368
G1 X134.288 Y108.257 E13.83152
G1 X134.145 Y110.768 E14.22677
G1 X134.074 Y113.278 E14.62139
G1 X134.074 Y115.697 E15.00154
G1 X134.143 Y118.191 E15.39363
G1 X134.284 Y120.675 E15.78463
G1 X134.498 Y123.204 E16.1835
G1 X134.768 Y125.582 E16.55961
G1 X135.225 Y128.779 E17.06714
G1 X135.336 Y130.166 E17.28581
G1 X135.363 Y131.598 E17.51089
G1 X135.373 Y135.726 E18.15963
G1 X135.419 Y137.756 E18.47873
G1 X135.45 Y140.126 E18.85122
G1 X135.438 Y141.373 E19.0472
G1 X135.39 Y142.286 E19.19088
G1 X135.217 Y143.506 E19.38453
G1 X134.97 Y144.546 E19.55251
G1 X134.687 Y145.415 E19.69614
G1 X134.239 Y146.474 E19.87684
G1 X133.697 Y147.487 E20.0574
G1 X133.199 Y148.253 E20.20098
G1 X132.156 Y149.537 E20.46095
G1 X131.726 Y149.989 E20.55899
G1 X130.528 Y151.19 E20.82558
G1 X129.981 Y151.72 E20.94528
G1 X129.299 Y152.328 E21.08886
G1 X128.314 Y153.063 E21.28201
G1 X127.536 Y153.543 E21.42567
G1 X126.437 Y154.094 E21.61887
G1 X125.437 Y154.484 E21.78756
G1 X124.486 Y154.765 E21.9434
G1 X123.464 Y154.978 E22.10746
G1 X120.171 Y155.515 E22.63181
G1 X117.995 Y155.927 E22.97985
G1 X117.193 Y156.051 E23.10738
G1 X115.53 Y156.246 E23.37052
G1 X114.307 Y156.412 E23.56448
G1 X113.451 Y156.517 E23.70002
G1 X112.34 Y156.599 E23.87509
G1 X111.254 Y156.582 E24.04578
G1 X110.078 Y156.456 E24.23165
G1 X109.383 Y156.343 E24.34231
G1 X106.881 Y155.975 E24.73974
G1 X104.4 Y155.681 E25.13236
G1 X101.913 Y155.456 E25.5248
G1 X99.051 Y155.279 E25.97544
G1 X98.142 Y155.183 E26.11909
G1 X96.935 Y154.947 E26.31236
G1 X95.908 Y154.646 E26.48055
G1 X95.055 Y154.317 E26.62423
G1 X93.95 Y153.775 E26.81765
G1 X93.037 Y153.217 E26.9858
G1 X92.299 Y152.678 E27.12942
G1 X91.384 Y151.881 E27.32012
G1 X90.821 Y151.303 E27.44692
G1 X89.804 Y150.183 E27.68467
G1 X88.705 Y148.948 E27.94448
G1 X88.047 Y148.129 E28.10958
G1 X87.214 Y146.974 E28.33338
G1 X86.83 Y146.413 E28.44022
G1 X86.227 Y145.434 E28.62091
G1 X85.814 Y144.619 E28.7645
G1 X85.383 Y143.554 E28.94506
G1 X85.051 Y142.447 E29.12668
G1 X84.851 Y141.474 E29.28279
G1 X84.726 Y140.431 E29.44787
G1 X84.691 Y139.739 E29.55676
G1 X84.679 Y139.01 E29.67134
G1 X84.673 Y97.798 E36.14798
G1 X84.636 Y95.199 E36.55647
G1 X84.533 Y92.808 E36.93257
G1 X84.353 Y90.264 E37.33337
G1 X84.105 Y87.785 E37.7249
G1 X83.898 Y86.209 E37.9747
G1 X83.747 Y84.967 E38.17132
G1 X83.673 Y83.976 E38.3275
G1 X83.688 Y82.827 E38.50808
G1 X83.787 Y81.838 E38.66428
G1 X83.984 Y80.787 E38.83233
G1 X84.274 Y79.751 E39.0014
G1 X85.353 Y76.533 E39.53479
G1 X85.745 Y75.534 E39.70344
G1 X86.189 Y74.637 E39.86074
G1 X86.843 Y73.57 E40.05741
G1 X87.641 Y72.423 E40.277
G1 X88.077 Y71.831 E40.39254
G0 F6000 X88.775 Y72.399
G1 F600 X89.468 Y71.547 E40.56514
G1 X91.471 Y69.321 E41.03574
G1 X92.169 Y68.616 E41.19165
G1 X92.926 Y67.973 E41.34774
G1 X93.736 Y67.399 E41.50375
G1 X94.594 Y66.898 E41.6599
G1 X95.419 Y66.505 E41.80351
G1 X96.422 Y66.132 E41.97168
G1 X97.381 Y65.87 E42.12791
G1 X98.37 Y65.693 E42.28581
G1 X99.617 Y65.593 E42.48241
G1 X103.066 Y65.512 E43.02458
G1 X105.574 Y65.378 E43.41929
G1 X108.031 Y65.177 E43.80671
G1 X110.584 Y64.895 E44.21036
G1 X113.017 Y64.555 E44.59643
G1 X115.96 Y64.062 E45.06538
G1 X116.581 Y63.973 E45.16397
G1 X117.954 Y63.862 E45.38045
G1 X118.82 Y63.852 E45.51655
G1 X119.529 Y63.864 E45.62799
G1 X120.575 Y63.932 E45.79272
G1 X121.865 Y64.149 E45.9983
G1 X122.391 Y64.271 E46.08316
G1 X123.271 Y64.518 E46.2268
G1 X124.288 Y64.904 E46.39775
G1 X125.493 Y65.513 E46.60993
G1 X125.753 Y65.666 E46.65734
G1 X126.591 Y66.211 E46.81443
G1 X127.471 Y66.906 E46.99066
G1 X127.874 Y67.26 E47.07496
G1 X128.645 Y68.008 E47.24377
G1 X131.53 Y71.111 E47.90963
G1 X132.122 Y71.807 E48.05323
G1 X132.743 Y72.68 E48.22159
G1 X133.205 Y73.469 E48.36528
G1 X133.663 Y74.437 E48.53357
G1 X134.005 Y75.369 E48.68959
G1 X134.247 Y76.251 E48.83332
G1 X134.44 Y77.311 E49.00264
G1 X134.534 Y78.423 E49.17802
G1 X134.549 Y79.13 E49.28916
G1 X134.54 Y80.735 E49.54139
G1 X134.427 Y84.439 E50.12376
G1 X134.427 Y86.955 E50.51916
G1 X134.458 Y88.403 E50.74677
G1 X134.459 Y97.974 E52.2509
G1 X134.445 Y98.739 E52.37114
G1 X134.333 Y100.129 E52.59029
G1 X133.88 Y103.263 E53.08793
G1 X133.6 Y105.722 E53.47687
G1 X133.389 Y108.206 E53.86865
G1 X133.246 Y110.717 E54.2639
G1 X133.174 Y113.252 E54.66245
G1 X133.174 Y115.722 E55.05062
G1 X133.244 Y118.242 E55.4468
G1 X133.385 Y120.73 E55.83842
G1 X133.601 Y123.28 E56.2406
G1 X133.877 Y125.71 E56.62494
G1 X134.328 Y128.852 E57.12378
G1 X134.436 Y130.183 E57.33364
G1 X134.463 Y131.6 E57.55637
G1 X134.473 Y135.746 E58.20793
G1 X134.519 Y137.768 E58.52578
G1 X134.55 Y140.118 E58.89512
G1 X134.539 Y141.326 E59.08497
G1 X134.491 Y142.239 E59.22865
G1 X134.341 Y143.3 E59.39705
G1 X134.114 Y144.267 E59.55315
G1 X133.831 Y145.136 E59.69678
G1 X133.445 Y146.051 E59.85285
G1 X132.942 Y146.996 E60.02108
G1 X132.444 Y147.762 E60.16467
G1 X131.503 Y148.917 E60.3988
G1 X131.089 Y149.353 E60.49328
G1 X129.901 Y150.544 E60.75765
G1 X129.382 Y151.048 E60.87134
G1 X128.7 Y151.656 E61.01493
G1 X127.841 Y152.297 E61.18337
G1 X127.063 Y152.777 E61.32703
G1 X126.107 Y153.257 E61.49515
G1 X125.182 Y153.621 E61.65136
G1 X124.231 Y153.902 E61.80721
G1 X123.319 Y154.09 E61.95354
G1 X120.012 Y154.629 E62.48011
G1 X117.858 Y155.038 E62.82467
G1 X117.088 Y155.157 E62.94711
G1 X115.408 Y155.354 E63.21294
G1 X114.197 Y155.519 E63.40501
G1 X113.341 Y155.624 E63.54055
G1 X112.351 Y155.699 E63.69657
G1 X111.349 Y155.687 E63.85405
G1 X110.221 Y155.567 E64.03232
G1 X109.526 Y155.455 E64.14295
G1 X106.987 Y155.081 E64.54628
G1 X104.506 Y154.787 E64.9389
G1 X101.98 Y154.559 E65.33749
G1 X99.146 Y154.384 E65.78371
G1 X98.237 Y154.288 E65.92736
G1 X97.186 Y154.083 E66.09564
G1 X96.232 Y153.806 E66.25176
G1 X95.379 Y153.477 E66.39543
G1 X94.417 Y153.006 E66.56376
G1 X93.568 Y152.49 E66.7199
G1 X92.83 Y151.951 E66.86352
G1 X92.028 Y151.252 E67.03071
G1 X91.487 Y150.698 E67.1524
G1 X90.476 Y149.585 E67.3887
G1 X89.407 Y148.384 E67.64138
G1 X88.749 Y147.565 E67.80648
G1 X87.957 Y146.466 E68.01937
G1 X87.573 Y145.905 E68.12621
G1 X87.03 Y145.027 E68.28845
G1 X86.617 Y144.212 E68.43203
G1 X86.244 Y143.293 E68.5879
G1 X85.933 Y142.266 E68.75654
G1 X85.733 Y141.293 E68.91264
G1 X85.625 Y140.385 E69.05635
G1 X85.591 Y139.724 E69.16036
G1 X85.579 Y139.01 E69.27259
G1 X85.573 Y97.798 E75.74922
G1 X85.536 Y95.186 E76.15975
G1 X85.431 Y92.744 E76.54388
G1 X85.251 Y90.2 E76.94467
G1 X85.001 Y87.696 E77.34015
G1 X84.791 Y86.1 E77.59312
G1 X84.645 Y84.9 E77.7831
G1 X84.571 Y83.909 E77.93927
G1 X84.584 Y82.917 E78.09518
G1 X84.683 Y81.928 E78.25139
G1 X84.851 Y81.03 E78.39496
G1 X85.141 Y79.994 E78.56403
G1 X86.192 Y76.859 E79.08366
G1 X86.552 Y75.933 E79.23979
G1 X86.996 Y75.036 E79.39708
G1 X87.582 Y74.084 E79.57277
G1 X88.366 Y72.956 E79.78865
G1 X88.775 Y72.399 E79.89725
G0 F6000 X89.474 Y72.966
G1 F600 X90.137 Y72.149 E80.0626
G1 X92.113 Y69.952 E80.52697
G1 X92.754 Y69.3 E80.67066
G1 X93.449 Y68.706 E80.81434
G1 X94.193 Y68.175 E80.95799
G1 X94.981 Y67.711 E81.1017
G1 X95.806 Y67.318 E81.24531
G1 X96.662 Y66.999 E81.38887
G1 X97.543 Y66.755 E81.53254
G1 X98.443 Y66.59 E81.67633
G1 X99.638 Y66.493 E81.86475
G1 X103.102 Y66.412 E82.40928
G1 X105.624 Y66.277 E82.80619
G1 X108.13 Y66.072 E83.20134
G1 X110.683 Y65.789 E83.60501
G1 X113.166 Y65.443 E83.99899
G1 X116.109 Y64.95 E84.46794
G1 X116.655 Y64.87 E84.55466
G1 X117.965 Y64.762 E84.76123
G1 X118.805 Y64.752 E84.89325
G1 X119.514 Y64.764 E85.00469
G1 X120.426 Y64.82 E85.14828
G1 X121.716 Y65.037 E85.35386
G1 X122.148 Y65.138 E85.42358
G1 X123.028 Y65.385 E85.56722
G1 X123.883 Y65.708 E85.71086
G1 X125.039 Y66.29 E85.91425
G1 X125.265 Y66.422 E85.95539
G1 X126.034 Y66.918 E86.09919
G1 X126.878 Y67.583 E86.26806
G1 X127.247 Y67.906 E86.34513
G1 X128.018 Y68.654 E86.51394
G1 X130.844 Y71.694 E87.16623
G1 X131.436 Y72.39 E87.30983
G1 X131.966 Y73.135 E87.45351
G1 X132.428 Y73.924 E87.5972
G1 X132.819 Y74.75 E87.74082
G1 X133.137 Y75.607 E87.88447
G1 X133.379 Y76.489 E88.02821
G1 X133.543 Y77.388 E88.17182
G1 X133.634 Y78.443 E88.33823
G1 X133.649 Y79.125 E88.44544
G1 X133.64 Y80.708 E88.69422
G1 X133.527 Y84.412 E89.27659
G1 X133.527 Y86.955 E89.67623
G1 X133.558 Y88.403 E89.90384
G1 X133.559 Y97.96 E91.40576
G1 X133.548 Y98.668 E91.51704
G1 X133.442 Y100 E91.72703
G1 X132.989 Y103.134 E92.22467
G1 X132.703 Y105.646 E92.62199
G1 X132.49 Y108.155 E93.01771
G1 X132.347 Y110.666 E93.41297
G1 X132.274 Y113.226 E93.81544
G1 X132.274 Y115.747 E94.21163
G1 X132.345 Y118.293 E94.6119
G1 X132.486 Y120.785 E95.00415
G1 X132.704 Y123.356 E95.40965
G1 X132.986 Y125.838 E95.80221
G1 X133.431 Y128.926 E96.29252
G1 X133.536 Y130.2 E96.49341
G1 X133.563 Y131.602 E96.71378
G1 X133.573 Y135.767 E97.36833
G1 X133.619 Y137.78 E97.68476
G1 X133.65 Y140.11 E98.05097
G1 X133.64 Y141.279 E98.23469
G1 X133.592 Y142.192 E98.37837
G1 X133.464 Y143.097 E98.52201
G1 X133.258 Y143.988 E98.66572
G1 X132.975 Y144.857 E98.80935
G1 X132.617 Y145.698 E98.95299
G1 X132.187 Y146.505 E99.0967
G1 X131.689 Y147.271 E99.24028
G1 X130.851 Y148.297 E99.44847
G1 X130.452 Y148.717 E99.53951
G1 X129.273 Y149.899 E99.80188
G1 X128.783 Y150.376 E99.90934
G1 X128.101 Y150.984 E100.05293
G1 X127.368 Y151.531 E100.19666
G1 X126.59 Y152.011 E100.34033
G1 X125.774 Y152.421 E100.48384
G1 X124.924 Y152.759 E100.6276
G1 X124.048 Y153.021 E100.77129
G1 X123.174 Y153.202 E100.91156
G1 X119.853 Y153.743 E101.44034
G1 X117.721 Y154.149 E101.78142
G1 X116.983 Y154.263 E101.89877
G1 X115.286 Y154.462 E102.16729
G1 X114.086 Y154.626 E102.35763
G1 X113.27 Y154.727 E102.48685
G1 X112.358 Y154.799 E102.63062
G1 X111.444 Y154.792 E102.77426
G1 X110.316 Y154.672 E102.95253
G1 X109.664 Y154.566 E103.05634
G1 X107.093 Y154.187 E103.46475
G1 X104.612 Y153.893 E103.85738
G1 X102.047 Y153.662 E104.26211
G1 X99.241 Y153.489 E104.70392
G1 X98.332 Y153.393 E104.84757
G1 X97.434 Y153.218 E104.99135
G1 X96.556 Y152.966 E105.1349
G1 X95.703 Y152.637 E105.27858
G1 X94.882 Y152.235 E105.42224
G1 X94.099 Y151.763 E105.56592
G1 X93.361 Y151.224 E105.70954
G1 X92.672 Y150.623 E105.85322
G1 X92.153 Y150.092 E105.96991
G1 X91.148 Y148.987 E106.20465
G1 X90.109 Y147.82 E106.4502
G1 X89.451 Y147.001 E106.6153
G1 X88.7 Y145.958 E106.81728
G1 X88.316 Y145.397 E106.92412
G1 X87.833 Y144.62 E107.0679
G1 X87.42 Y143.805 E107.21149
G1 X87.079 Y142.957 E107.35513
G1 X86.814 Y142.082 E107.4988
G1 X86.627 Y141.187 E107.64249
G1 X86.519 Y140.279 E107.7862
G1 X86.491 Y139.709 E107.87588
G1 X86.479 Y139.01 E107.98575
G1 X86.473 Y97.798 E114.46239
G1 X86.436 Y95.173 E114.87496
G1 X86.329 Y92.68 E115.2671
G1 X86.149 Y90.136 E115.6679
G1 X85.897 Y87.607 E116.06731
G1 X85.684 Y85.991 E116.32347
G1 X85.542 Y84.83 E116.50729
G1 X85.471 Y83.918 E116.65104
G1 X85.48 Y83.004 E116.79469
G1 X85.568 Y82.094 E116.93837
G1 X85.736 Y81.196 E117.08194
G1 X86.007 Y80.239 E117.23825
G1 X87.032 Y77.182 E117.74496
G1 X87.36 Y76.329 E117.88858
G1 X87.762 Y75.508 E118.03224
G1 X88.348 Y74.556 E118.20792
G1 X89.092 Y73.488 E118.41247
G1 X89.474 Y72.966 E118.51413
G1 F2700 E113.51413
G1 F300 Z0.62
G0 F6000 X98.097 Y79.63 Z0.62
G1 F300 Z0.42
G1 F2700 E118.51413
G1 F600 X98.112 Y79.631 E118.51649
G1 X98.166 Y79.612 E118.52549
G1 X97.762 Y80.183 E118.63541
G1 X97.679 Y80.443 E118.6783
G1 X97.68 Y139.558 E127.96847
G1 X97.763 Y139.818 E128.01136
G1 X98.172 Y140.396 E128.12264
G1 X98.104 Y140.38 E128.13362
G1 X97.379 Y139.353 E128.33118
G1 X97.372 Y92.57 E135.68332
G1 X97.371 Y92.537 E135.68851
G1 X97.338 Y92.087 E135.75942
G1 X97.285 Y91.906 E135.78906
G1 X97.279 Y91.899 E135.7905
G1 X97.279 Y85.516 E136.79362
G1 X97.278 Y85.49 E136.79771
G1 X97.261 Y85.194 E136.8443
G1 X97.257 Y85.155 E136.85046
G1 X97.207 Y84.814 E136.90463
G1 X97.19 Y84.74 E136.91656
G1 X97.052 Y84.315 E136.98678
G1 X97.023 Y84.247 E136.9984
G1 X96.832 Y83.879 E137.06356
G1 X96.751 Y83.768 E137.08515
G1 X96.695 Y83.712 E137.0976
G1 X96.826 Y83.621 E137.12267
G1 X96.896 Y83.524 E137.14147
G1 X97.13 Y83.086 E137.21951
G1 X97.16 Y83.016 E137.23147
G1 X97.278 Y82.662 E137.29012
G1 X97.295 Y82.594 E137.30113
G1 X97.357 Y82.223 E137.36024
G1 X97.362 Y82.174 E137.36799
G1 X97.378 Y81.884 E137.41363
G1 X97.379 Y81.859 E137.41756
G1 X97.379 Y80.647 E137.60803
G1 X98.097 Y79.63 E137.80368
G1 F2700 E132.80368
G1 F300 Z0.62
G0 F6000 X108.75 Y84.65 Z0.62
G1 F300 Z0.42
G1 F2700 E137.80368
G1 F600 X118.6 Y84.65 E139.35164
G1 X118.784 Y84.61 E139.38124
G1 X118.937 Y84.499 E139.41094
G1 X119.029 Y84.335 E139.44049
G1 X119.05 Y84.2 E139.46196
G1 X119.05 Y77.53 E140.51018
G1 X119.01 Y77.346 E140.53977
G1 X118.899 Y77.193 E140.56948
G1 X118.735 Y77.101 E140.59903
G1 X118.6 Y77.08 E140.6205
G1 X115.355 Y77.08 E141.13047
G1 X115.634 Y76.949 E141.17891
G1 X115.702 Y76.91 E141.19123
G1 X116.265 Y76.513 E141.29949
G1 X116.279 Y76.503 E141.30219
G1 X116.502 Y76.334 E141.34616
G1 X116.954 Y76.156 E141.42251
G1 X116.999 Y76.135 E141.43031
G1 X117.668 Y75.783 E141.54911
G1 X117.984 Y75.674 E141.60164
G1 X118.171 Y75.65 E141.63127
G1 X119.29 Y75.653 E141.80713
G1 X119.602 Y75.726 E141.85749
G1 X119.737 Y75.805 E141.88207
G1 X120.051 Y76.079 E141.94756
G1 X121.272 Y77.478 E142.23938
G1 X121.281 Y77.488 E142.24149
G1 X121.553 Y77.782 E142.30444
G1 X121.563 Y77.793 E142.30677
G1 X122.75 Y78.99 E142.5717
G1 X122.75 Y80.369 E142.78841
G1 X121.683 Y80.832 E142.9712
G1 X121.661 Y80.842 E142.975
G1 X121.264 Y81.04 E143.04472
G1 X121.238 Y81.055 E143.04944
G1 X120.968 Y81.213 E143.0986
G1 X120.941 Y81.23 E143.10361
G1 X120.712 Y81.387 E143.14725
G1 X120.68 Y81.411 E143.15353
G1 X120.35 Y81.683 E143.22074
G1 X120.313 Y81.717 E143.22864
G1 X120.101 Y81.936 E143.27654
G1 X120.066 Y81.976 E143.28489
G1 X119.794 Y82.333 E143.35542
G1 X119.757 Y82.39 E143.3661
G1 X119.551 Y82.766 E143.43348
