;FLAVOR:Marlin
;TIME:10983
;Filament used: 14.462m
;Layer height: 0.3
;MINX:52.75
;MINY:69.05
;MINZ:0.42
;MAXX:165.72
;MAXY:152.35
;MAXZ:24.32
;TARGET_MACHINE.NAME:Creality Ender-3
;POSTPROCESSED
;  [InsertAtLayerChange]
;  [MeshPrintSize]
;Generated with Cura_SteamEngine 5.7.0


; Pre-Processed for Cancel-Object support by preprocess_cancellation v0.2.0
; 1 known objects
EXCLUDE_OBJECT_DEFINE NAME=middle_case_modded_stl CENTER=111.877,111.508 POLYGON=[[62.399,77.0],[62.399,144.4],[157.6,144.4],[157.6,77.0]]
M82 ;absolute extrusion mode
;Nozzle diameter = 0.6
;Filament type = PLA
;Filament name = Purple/Pink
START_PRINT PRINT_MIN=52.75,69.05 PRINT_MAX=165.72,152.35 BED_TEMP=65 EXTRUDER_TEMP=210
G92 E0
G92 E0
G1 F2700 E-5
;LAYER_COUNT:80
TIMELAPSE_TAKE_FRAME
;LAYER:0
M107
G1 F300 Z0.62
G0 F6000 X59.456 Y70.937 Z0.62
;TYPE:SKIRT
G1 F300 Z0.42
G1 F2700 E0
G1 F600 X56.064 Y74.329 E0.75387
G1 X55.179 Y75.491 E0.98342
G1 X54.418 Y77.244 E1.28375
G1 X54.15 Y78.903 E1.54784
G1 X54.143 Y87.294 E2.86653
G1 X53.761 Y87.813 E2.9678
G1 X53.023 Y89.486 E3.25516
G1 X52.75 Y91.163 E3.52218
G1 X52.75 Y95.725 E4.23912
G1 X53.079 Y97.411 E4.50908
G1 X53.213 Y97.784 E4.57136
G1 X53.865 Y99.124 E4.80555
G1 X54.107 Y99.465 E4.87127
G1 X54.143 Y128.758 E9.47479
G1 X53.696 Y129.418 E9.60006
G1 X53.027 Y130.933 E9.86033
G1 X52.75 Y132.612 E10.12776
G1 X52.75 Y137.171 E10.84422
G1 X53.058 Y138.785 E11.10245
G1 X53.219 Y139.237 E11.17785
G1 X53.924 Y140.697 E11.43265
G1 X54.155 Y140.984 E11.49054
G1 X54.167 Y141.557 E11.58061
G1 X54.503 Y143.029 E11.81789
G1 X55.131 Y144.396 E12.05431
G1 X56.032 Y145.647 E12.29659
G1 X59.167 Y148.776 E12.99268
G1 X60.307 Y149.72 E13.22528
G1 X60.968 Y150.085 E13.34395
G1 X62.346 Y150.683 E13.58002
G1 X63.998 Y150.95 E13.84301
G1 X105.397 Y150.96 E20.34903
G1 X105.914 Y151.343 E20.45014
G1 X107.574 Y152.073 E20.73513
G1 X109.255 Y152.35 E21.00287
G1 X113.688 Y152.35 E21.69953
G1 X114.886 Y152.177 E21.88976
G1 X115.978 Y151.844 E22.06917
G1 X117.217 Y151.236 E22.28607
G1 X117.567 Y150.985 E22.35375
G1 X141.874 Y150.951 E26.1737
G1 X142.635 Y151.441 E26.31594
G1 X144.073 Y152.074 E26.56286
G1 X145.758 Y152.35 E26.83119
G1 X150.353 Y152.35 E27.55331
G1 X152.172 Y151.985 E27.84488
G1 X153.809 Y151.194 E28.1306
G1 X154.286 Y150.817 E28.22614
G1 X155.8 Y150.805 E28.46408
G1 X156.959 Y150.689 E28.64714
G1 X157.7 Y150.48 E28.76813
G1 X159.153 Y149.912 E29.0133
G1 X160.515 Y148.919 E29.27819
G1 X163.484 Y145.947 E29.93839
G1 X164.492 Y144.736 E30.186
G1 X164.825 Y144.141 E30.29316
G1 X165.449 Y142.706 E30.53907
G1 X165.72 Y141.034 E30.80526
G1 X165.704 Y79.102 E40.53813
G1 X165.588 Y77.943 E40.72118
G1 X165.379 Y77.202 E40.84218
G1 X164.811 Y75.752 E41.08691
G1 X163.833 Y74.41 E41.34788
G1 X160.517 Y71.094 E42.08485
G1 X159.355 Y70.209 E42.3144
G1 X157.602 Y69.448 E42.61473
G1 X155.943 Y69.18 E42.87883
G1 X138.575 Y69.174 E45.60828
G1 X137.858 Y69.05 E45.72263
G1 X64.148 Y69.066 E57.30647
G1 X62.989 Y69.182 E57.48952
G1 X62.248 Y69.391 E57.61051
G1 X60.798 Y69.959 E57.85525
G1 X59.456 Y70.937 E58.11621
G0 F6000 X60.041 Y71.624
G1 F600 X61.234 Y70.754 E58.34825
G1 X62.493 Y70.257 E58.56097
G1 X63.155 Y70.07 E58.66908
G1 X64.237 Y69.962 E58.83996
G1 X137.78 Y69.95 E70.39755
G1 X138.497 Y70.074 E70.5119
G1 X155.873 Y70.08 E73.24261
G1 X157.345 Y70.318 E73.47695
G1 X158.898 Y70.992 E73.743
G1 X159.926 Y71.775 E73.94608
G1 X163.146 Y74.995 E74.66172
G1 X164.016 Y76.188 E74.89377
G1 X164.513 Y77.447 E75.10648
G1 X164.7 Y78.109 E75.21459
G1 X164.808 Y79.191 E75.38548
G1 X164.82 Y140.964 E85.09336
G1 X164.579 Y142.451 E85.3301
G1 X164.04 Y143.701 E85.54402
G1 X163.747 Y144.224 E85.63823
G1 X162.847 Y145.311 E85.86001
G1 X159.926 Y148.235 E86.50954
G1 X158.717 Y149.116 E86.74463
G1 X157.455 Y149.614 E86.95784
G1 X156.793 Y149.801 E87.06595
G1 X155.711 Y149.909 E87.23684
G1 X153.971 Y149.919 E87.51029
G1 X153.327 Y150.428 E87.63929
G1 X151.884 Y151.125 E87.89113
G1 X150.266 Y151.45 E88.15049
G1 X145.83 Y151.45 E88.84762
G1 X144.334 Y151.205 E89.08586
G1 X143.058 Y150.643 E89.30498
G1 X142.3 Y150.156 E89.44656
G1 X142.166 Y150.051 E89.47332
G1 X117.254 Y150.085 E93.38835
G1 X116.82 Y150.428 E93.47528
G1 X115.645 Y151.005 E93.681
G1 X114.69 Y151.296 E93.83789
G1 X113.622 Y151.45 E94.00747
G1 X109.329 Y151.45 E94.68213
G1 X107.832 Y151.203 E94.92057
G1 X106.369 Y150.56 E95.17172
G1 X105.695 Y150.06 E95.3036
G1 X64.068 Y150.05 E101.84546
G1 X62.603 Y149.813 E102.07868
G1 X61.326 Y149.259 E102.29744
G1 X60.817 Y148.974 E102.38912
G1 X59.803 Y148.139 E102.59555
G1 X56.718 Y145.06 E103.28052
G1 X55.914 Y143.943 E103.49681
G1 X55.358 Y142.734 E103.70593
G1 X55.065 Y141.45 E103.91291
G1 X55.048 Y140.659 E104.03724
G1 X54.69 Y140.213 E104.12712
G1 X54.067 Y138.935 E104.35056
G1 X53.929 Y138.547 E104.41528
G1 X53.65 Y137.086 E104.64903
G1 X53.65 Y132.685 E105.34066
G1 X53.896 Y131.192 E105.57846
G1 X54.486 Y129.856 E105.80798
G1 X55.043 Y129.034 E105.96402
G1 X55.007 Y99.155 E110.65963
G1 X54.674 Y98.73 E110.74449
G1 X54.022 Y97.39 E110.97868
G1 X53.948 Y97.168 E111.01545
G1 X53.65 Y95.64 E111.26011
G1 X53.65 Y91.234 E111.95253
G1 X53.893 Y89.743 E112.18994
G1 X54.544 Y88.267 E112.44346
G1 X55.043 Y87.59 E112.57563
G1 X55.05 Y78.973 E113.92983
G1 X55.288 Y77.501 E114.16416
G1 X55.962 Y75.948 E114.43022
G1 X56.745 Y74.92 E114.6333
G1 X60.041 Y71.624 E115.36583
G0 F6000 X60.626 Y72.311
G1 F600 X61.669 Y71.55 E115.56873
G1 X62.738 Y71.123 E115.74964
G1 X63.321 Y70.958 E115.84486
G1 X64.326 Y70.858 E116.00358
G1 X137.702 Y70.85 E127.53492
G1 X138.419 Y70.974 E127.64927
G1 X155.803 Y70.98 E130.38124
G1 X157.088 Y71.188 E130.58581
G1 X158.441 Y71.775 E130.81759
G1 X159.335 Y72.456 E130.9942
G1 X162.459 Y75.58 E131.68851
G1 X163.22 Y76.623 E131.89141
G1 X163.647 Y77.692 E132.07232
G1 X163.812 Y78.275 E132.16754
G1 X163.912 Y79.28 E132.32626
G1 X163.92 Y140.894 E142.00915
G1 X163.709 Y142.194 E142.21613
G1 X163.213 Y143.345 E142.41309
G1 X163.002 Y143.712 E142.47962
G1 X162.21 Y144.675 E142.67557
G1 X159.337 Y147.551 E143.31442
G1 X158.282 Y148.32 E143.51959
G1 X157.21 Y148.748 E143.70099
G1 X156.627 Y148.913 E143.79621
G1 X155.622 Y149.013 E143.95493
G1 X153.657 Y149.02 E144.26374
G1 X152.846 Y149.661 E144.4262
G1 X151.594 Y150.266 E144.64472
G1 X150.179 Y150.55 E144.87153
G1 X145.902 Y150.55 E145.54368
G1 X144.595 Y150.336 E145.75181
G1 X143.484 Y149.847 E145.94258
G1 X142.787 Y149.399 E146.07279
G1 X142.507 Y149.151 E146.13157
G1 X116.941 Y149.185 E150.14938
G1 X116.339 Y149.661 E150.26998
G1 X115.312 Y150.166 E150.44984
G1 X114.495 Y150.415 E150.58406
G1 X113.556 Y150.55 E150.73315
G1 X109.402 Y150.55 E151.38597
G1 X108.091 Y150.334 E151.59477
G1 X106.824 Y149.777 E151.81228
G1 X105.992 Y149.16 E151.97506
G1 X64.137 Y149.15 E158.55275
G1 X62.861 Y148.944 E158.75587
G1 X61.684 Y148.433 E158.95752
G1 X61.326 Y148.228 E159.02236
G1 X60.439 Y147.502 E159.20249
G1 X57.408 Y144.477 E159.87546
G1 X56.692 Y143.482 E160.06811
G1 X56.214 Y142.444 E160.2477
G1 X55.963 Y141.343 E160.42517
G1 X55.942 Y140.333 E160.58393
G1 X55.455 Y139.727 E160.7061
G1 X54.876 Y138.54 E160.91366
G1 X54.801 Y138.314 E160.95108
G1 X54.55 Y137.001 E161.16116
G1 X54.55 Y132.758 E161.82796
G1 X54.765 Y131.451 E162.03612
G1 X55.276 Y130.296 E162.23461
G1 X55.75 Y129.588 E162.36851
G1 X55.943 Y129.37 E162.41426
G1 X55.907 Y98.843 E167.21171
G1 X55.441 Y98.249 E167.33036
G1 X54.831 Y96.996 E167.54937
G1 X54.55 Y95.555 E167.78009
G1 X54.55 Y91.305 E168.448
G1 X54.763 Y90 E168.6558
G1 X55.327 Y88.721 E168.87547
G1 X55.943 Y87.886 E169.03854
G1 X55.95 Y79.043 E170.42825
G1 X56.158 Y77.758 E170.63283
G1 X56.745 Y76.405 E170.86461
G1 X57.426 Y75.511 E171.04122
G1 X60.626 Y72.311 E171.75242
G0 F6000 X61.211 Y72.998
G1 F600 X62.106 Y72.345 E171.92653
G1 X63.072 Y71.959 E172.09001
G1 X63.484 Y71.847 E172.15711
G1 X64.415 Y71.754 E172.30415
G1 X137.624 Y71.75 E183.80924
G1 X138.341 Y71.874 E183.9236
G1 X155.734 Y71.88 E186.65698
G1 X156.83 Y72.057 E186.83145
G1 X157.982 Y72.557 E187.02881
G1 X158.747 Y73.14 E187.17996
G1 X161.772 Y76.165 E187.85227
G1 X162.425 Y77.06 E188.02638
G1 X162.811 Y78.026 E188.18986
G1 X162.923 Y78.438 E188.25696
G1 X163.016 Y79.369 E188.404
G1 X163.02 Y140.824 E198.06191
G1 X162.839 Y141.937 E198.23912
G1 X162.386 Y142.989 E198.41912
G1 X162.259 Y143.199 E198.45769
G1 X161.573 Y144.039 E198.62812
G1 X158.748 Y146.867 E199.25631
G1 X157.845 Y147.525 E199.4319
G1 X156.876 Y147.912 E199.59588
G1 X156.464 Y148.024 E199.66298
G1 X155.533 Y148.117 E199.81002
G1 X153.285 Y148.121 E200.1633
G1 X153.055 Y148.353 E200.21464
G1 X152.363 Y148.895 E200.35278
G1 X151.304 Y149.407 E200.53763
G1 X150.092 Y149.65 E200.73189
G1 X145.975 Y149.65 E201.3789
G1 X144.853 Y149.466 E201.55758
G1 X143.912 Y149.052 E201.71914
G1 X143.334 Y148.68 E201.82716
G1 X142.848 Y148.251 E201.92904
G1 X116.627 Y148.285 E206.04978
G1 X115.855 Y148.896 E206.20451
G1 X114.98 Y149.326 E206.35772
G1 X114.298 Y149.534 E206.46978
G1 X113.491 Y149.65 E206.5979
G1 X109.475 Y149.65 E207.22903
G1 X108.351 Y149.465 E207.40805
G1 X107.277 Y148.992 E207.59248
G1 X106.56 Y148.465 E207.73232
G1 X106.352 Y148.26 E207.77822
G1 X64.207 Y148.25 E214.40148
G1 X63.118 Y148.074 E214.57484
G1 X62.042 Y147.607 E214.75918
G1 X61.838 Y147.484 E214.79661
G1 X61.075 Y146.865 E214.95102
G1 X58.095 Y143.891 E215.61266
G1 X57.473 Y143.026 E215.78009
G1 X57.07 Y142.151 E215.93148
G1 X56.861 Y141.236 E216.07898
G1 X56.836 Y140.008 E216.27201
G1 X56.221 Y139.244 E216.42614
G1 X55.685 Y138.145 E216.6183
G1 X55.45 Y136.916 E216.81494
G1 X55.45 Y132.831 E217.45692
G1 X55.635 Y131.709 E217.63562
G1 X56.065 Y130.735 E217.80295
G1 X56.498 Y130.089 E217.92516
G1 X56.843 Y129.733 E218.00307
G1 X56.807 Y98.531 E222.9066
G1 X56.207 Y97.767 E223.05926
G1 X55.691 Y96.707 E223.24454
G1 X55.45 Y95.47 E223.44259
G1 X55.45 Y91.377 E224.08582
G1 X55.633 Y90.257 E224.26417
G1 X56.11 Y89.176 E224.44986
G1 X56.624 Y88.471 E224.58697
G1 X56.843 Y88.249 E224.63598
G1 X56.85 Y79.112 E226.0719
G1 X57.027 Y78.016 E226.24637
G1 X57.527 Y76.864 E226.44373
G1 X58.11 Y76.099 E226.59488
G1 X61.211 Y72.998 E227.28408
G0 F6000 X61.796 Y73.685
G1 F600 X62.543 Y73.14 E227.4294
G1 X63.406 Y72.795 E227.57546
G1 X63.645 Y72.736 E227.61414
G1 X64.505 Y72.65 E227.74997
G1 X137.546 Y72.65 E239.22866
G1 X138.263 Y72.774 E239.34302
G1 X155.664 Y72.78 E242.07766
G1 X156.573 Y72.927 E242.22237
G1 X157.523 Y73.339 E242.3851
G1 X158.159 Y73.824 E242.51079
G1 X161.085 Y76.75 E243.1611
G1 X161.63 Y77.497 E243.30641
G1 X161.975 Y78.36 E243.45247
G1 X162.034 Y78.599 E243.49116
G1 X162.12 Y79.459 E243.62699
G1 X162.12 Y140.753 E253.25959
G1 X161.969 Y141.681 E253.40735
G1 X161.559 Y142.633 E253.57025
G1 X160.936 Y143.403 E253.7259
G1 X158.159 Y146.183 E254.34342
G1 X157.408 Y146.73 E254.48943
G1 X156.542 Y147.076 E254.63599
G1 X156.303 Y147.135 E254.67468
G1 X155.443 Y147.221 E254.8105
G1 X152.892 Y147.221 E255.2114
G1 X152.5 Y147.644 E255.30203
G1 X151.882 Y148.128 E255.4254
G1 X151.014 Y148.548 E255.57694
G1 X150.005 Y148.75 E255.73865
G1 X146.048 Y148.75 E256.36051
G1 X145.111 Y148.596 E256.50974
G1 X144.34 Y148.257 E256.6421
G1 X143.877 Y147.959 E256.72863
G1 X143.355 Y147.499 E256.83797
G1 X143.221 Y147.351 E256.86935
G1 X116.239 Y147.385 E261.10968
G1 X116.009 Y147.634 E261.16295
G1 X115.373 Y148.13 E261.28971
G1 X114.648 Y148.486 E261.41664
G1 X114.101 Y148.653 E261.50652
G1 X113.426 Y148.75 E261.61369
G1 X109.548 Y148.75 E262.22313
G1 X108.611 Y148.596 E262.37236
G1 X107.728 Y148.207 E262.524
G1 X107.093 Y147.74 E262.64787
G1 X106.776 Y147.378 E262.72349
G1 X106.258 Y147.355 E262.80498
G1 X64.282 Y147.35 E269.40168
G1 X63.37 Y147.203 E269.54685
G1 X62.401 Y146.782 E269.71289
G1 X61.711 Y146.228 E269.85195
G1 X58.782 Y143.305 E270.50225
G1 X58.255 Y142.572 E270.64413
G1 X57.926 Y141.857 E270.76782
G1 X57.759 Y141.128 E270.88535
G1 X57.729 Y139.613 E271.12349
G1 X57.483 Y139.386 E271.17609
G1 X56.987 Y138.761 E271.30148
G1 X56.546 Y137.857 E271.45955
G1 X56.35 Y136.831 E271.62371
G1 X56.35 Y132.904 E272.24085
G1 X56.504 Y131.968 E272.38993
G1 X56.855 Y131.173 E272.5265
G1 X57.201 Y130.657 E272.62414
G1 X57.728 Y130.114 E272.74305
G1 X57.745 Y129.696 E272.8088
G1 X57.707 Y98.164 E277.76419
G1 X57.48 Y97.935 E277.81486
G1 X56.973 Y97.286 E277.94428
G1 X56.552 Y96.42 E278.09561
G1 X56.35 Y95.385 E278.26133
G1 X56.35 Y91.449 E278.87989
G1 X56.503 Y90.514 E279.02879
G1 X56.894 Y89.628 E279.18098
G1 X57.351 Y89.001 E279.30291
G1 X57.724 Y88.672 E279.38107
G1 X57.746 Y88.207 E279.45423
G1 X57.75 Y79.182 E280.87255
G1 X57.897 Y78.273 E281.01726
G1 X58.309 Y77.323 E281.17999
G1 X58.794 Y76.687 E281.30569
G1 X61.796 Y73.685 E281.97288
G0 F6000 X62.381 Y74.372
G1 F600 X62.98 Y73.935 E282.0894
G1 X63.74 Y73.631 E282.21804
G1 X64.505 Y73.55 E282.33894
G1 X137.471 Y73.55 E293.80584
G1 X137.994 Y73.635 E293.88911
G1 X138.161 Y73.674 E293.91607
G1 X155.589 Y73.68 E296.65495
G1 X156.321 Y73.798 E296.77147
G1 X157.062 Y74.12 E296.89844
G1 X157.571 Y74.508 E296.99902
G1 X160.398 Y77.335 E297.62732
G1 X160.835 Y77.934 E297.74385
G1 X161.139 Y78.694 E297.87248
G1 X161.22 Y79.459 E297.99338
G1 X161.22 Y140.682 E307.61483
G1 X161.099 Y141.425 E307.73313
G1 X160.781 Y142.164 E307.85956
G1 X160.299 Y142.767 E307.98088
G1 X157.574 Y145.495 E308.58684
G1 X156.968 Y145.936 E308.70463
G1 X156.208 Y146.24 E308.83327
G1 X155.443 Y146.321 E308.95416
G1 X152.435 Y146.321 E309.42688
G1 X152.282 Y146.555 E309.47082
G1 X151.89 Y146.978 E309.56145
G1 X151.401 Y147.361 E309.65906
G1 X150.728 Y147.687 E309.77658
G1 X149.913 Y147.85 E309.9072
G1 X146.121 Y147.85 E310.50313
G1 X145.371 Y147.727 E310.62257
G1 X144.763 Y147.459 E310.72699
G1 X144.422 Y147.24 E310.79068
G1 X143.95 Y146.824 E310.88955
G1 X143.674 Y146.45 E310.9626
G1 X116.128 Y146.485 E315.29157
G1 X115.825 Y146.507 E315.33932
G1 X115.397 Y146.97 E315.4384
G1 X114.894 Y147.362 E315.53862
G1 X114.316 Y147.646 E315.63983
G1 X113.904 Y147.772 E315.70754
G1 X113.361 Y147.85 E315.79375
G1 X109.621 Y147.85 E316.38151
G1 X108.871 Y147.727 E316.50095
G1 X108.179 Y147.422 E316.61979
G1 X107.706 Y147.074 E316.71208
G1 X107.36 Y146.679 E316.7946
G1 X107.258 Y146.54 E316.82169
G1 X107.045 Y146.489 E316.85611
G1 X106.275 Y146.455 E316.97724
G1 X64.357 Y146.45 E323.56483
G1 X63.624 Y146.332 E323.6815
G1 X62.871 Y146.005 E323.81052
G1 X62.275 Y145.526 E323.93068
G1 X59.469 Y142.719 E324.55443
G1 X59.036 Y142.116 E324.67109
G1 X58.782 Y141.565 E324.76644
G1 X58.657 Y141.019 E324.85447
G1 X58.632 Y139.719 E325.0588
G1 X58.593 Y139.155 E325.14765
G1 X58.188 Y138.827 E325.22955
G1 X57.754 Y138.28 E325.33929
G1 X57.407 Y137.569 E325.46362
G1 X57.25 Y136.746 E325.59529
G1 X57.25 Y132.977 E326.18761
G1 X57.373 Y132.227 E326.30705
G1 X57.645 Y131.611 E326.41287
G1 X57.903 Y131.226 E326.4857
G1 X58.326 Y130.783 E326.58196
G1 X58.569 Y130.598 E326.62996
G1 X58.622 Y130.269 E326.68233
G1 X58.645 Y129.695 E326.77261
G1 X58.607 Y98.124 E331.73413
G1 X58.572 Y97.697 E331.80146
G1 X58.384 Y97.566 E331.83747
G1 X58.189 Y97.381 E331.87971
G1 X57.741 Y96.807 E331.99414
G1 X57.412 Y96.131 E332.11229
G1 X57.25 Y95.3 E332.24534
G1 X57.25 Y91.522 E332.83907
G1 X57.373 Y90.772 E332.95851
G1 X57.679 Y90.079 E333.07756
G1 X58.02 Y89.611 E333.16856
G1 X58.409 Y89.268 E333.25007
G1 X58.547 Y89.166 E333.27703
G1 X58.615 Y88.895 E333.32094
G1 X58.646 Y88.228 E333.42588
G1 X58.65 Y79.257 E334.83571
G1 X58.768 Y78.525 E334.95223
G1 X59.09 Y77.784 E335.0792
G1 X59.478 Y77.275 E335.17978
G1 X62.381 Y74.372 E335.82497
G0 F6000 X62.966 Y75.059
G1 F600 X63.417 Y74.73 E335.9127
G1 X63.96 Y74.513 E336.0046
G1 X64.505 Y74.45 E336.09082
G1 X137.401 Y74.45 E347.54673
G1 X137.85 Y74.523 E347.61822
G1 X138.041 Y74.574 E347.64929
G1 X155.514 Y74.58 E350.39524
G1 X156.069 Y74.669 E350.48357
G1 X156.6 Y74.9 E350.57458
G1 X156.983 Y75.192 E350.65027
G1 X159.711 Y77.92 E351.25656
G1 X160.04 Y78.371 E351.34429
G1 X160.257 Y78.914 E351.43619
G1 X160.32 Y79.459 E351.52241
G1 X160.32 Y140.612 E361.13286
G1 X160.229 Y141.172 E361.22202
G1 X160.004 Y141.694 E361.31135
