;FLAVOR:Marlin
;TIME:12220
;Filament used: 13.6496m
;Layer height: 0.3
;MINX:88.281
;MINY:67.55
;MINZ:0.42
;MAXX:130.85
;MAXY:152.038
;MAXZ:94.22
;TARGET_MACHINE.NAME:Creality Ender-3
;POSTPROCESSED
;  [InsertAtLayerChange]
;  [MeshPrintSize]
;Generated with Cura_SteamEngine 5.7.0


; Pre-Processed for Cancel-Object support by preprocess_cancellation v0.2.0
; 1 known objects
EXCLUDE_OBJECT_DEFINE NAME=middle_case_STL CENTER=113.663,108.349 POLYGON=[[97.129,77.299],[97.129,142.7],[122.991,142.7],[122.991,77.299]]
M82 ;absolute extrusion mode
;Nozzle diameter = 0.6
;Filament type = PLA
;Filament name = Purple/Pink
START_PRINT PRINT_MIN=88.281,67.55 PRINT_MAX=130.85,152.038 BED_TEMP=65 EXTRUDER_TEMP=210
G92 E0
G92 E0
G1 F2700 E-5
;LAYER_COUNT:313
TIMELAPSE_TAKE_FRAME
;LAYER:0
M107
G1 F300 Z0.62
G0 F6000 X91.936 Y74.312 Z0.62
;TYPE:SKIRT
G1 F300 Z0.42
G1 F2700 E0
G1 F600 X92.95 Y73.276 E0.22782
G1 X93.259 Y73.046 E0.28836
G1 X93.921 Y72.103 E0.46942
G1 X94.974 Y71.025 E0.70625
G1 X96.07 Y70.284 E0.91416
G1 X97.027 Y69.828 E1.08076
G1 X98.253 Y69.443 E1.2827
G1 X99.326 Y69.28 E1.45327
G1 X112.435 Y69.28 E3.5134
G1 X112.722 Y69.116 E3.56535
G1 X113.609 Y68.765 E3.71526
G1 X114.37 Y68.366 E3.8503
G1 X115.999 Y67.783 E4.1222
G1 X116.395 Y67.688 E4.1862
G1 X118.163 Y67.55 E4.46489
G1 X120.225 Y67.553 E4.78895
G1 X122.087 Y67.99 E5.08952
G1 X123.266 Y68.477 E5.28999
G1 X124.598 Y69.294 E5.53555
G1 X125.833 Y70.386 E5.79463
G1 X127.408 Y72.182 E6.17004
G1 X128.973 Y73.759 E6.51919
G1 X129.949 Y75.112 E6.78137
G1 X130.652 Y76.895 E7.08257
G1 X130.85 Y78.365 E7.31567
G1 X130.85 Y81.163 E7.75539
G1 X130.574 Y82.849 E8.02388
G1 X129.901 Y84.381 E8.28685
G1 X129.8 Y84.556 E8.3186
G1 X130.006 Y84.902 E8.38188
G1 X130.524 Y86.269 E8.61162
G1 X130.76 Y87.545 E8.81555
G1 X130.76 Y98.992 E10.61449
G1 X130.484 Y100.689 E10.88469
G1 X129.773 Y102.3 E11.16142
G1 X129.018 Y103.402 E11.37135
G1 X128.031 Y104.37 E11.58861
G1 X127.509 Y104.787 E11.69361
G1 X126.963 Y105.09 E11.79174
G1 X126.908 Y106.388 E11.99591
G1 X126.85 Y121.892 E14.43245
G1 X126.591 Y123.443 E14.67957
G1 X126.52 Y123.672 E14.71725
G1 X127.11 Y123.956 E14.82015
G1 X128.224 Y124.792 E15.03903
G1 X129.192 Y125.859 E15.26544
G1 X130.057 Y127.207 E15.51715
G1 X130.555 Y128.631 E15.75423
G1 X130.76 Y129.827 E15.94492
G1 X130.782 Y138.409 E17.29362
G1 X130.85 Y138.828 E17.36033
G1 X130.85 Y141.686 E17.80948
G1 X130.579 Y143.36 E18.07598
G1 X129.834 Y145.088 E18.37171
G1 X128.932 Y146.275 E18.606
G1 X126.544 Y148.663 E19.13673
G1 X125.202 Y149.641 E19.39769
G1 X123.753 Y150.209 E19.64228
G1 X123.01 Y150.42 E19.76366
G1 X121.687 Y150.542 E19.97246
G1 X120.797 Y150.548 E20.11233
G1 X120.563 Y150.6 E20.15
G1 X119.81 Y150.72 E20.26983
G1 X119.17 Y150.721 E20.37041
G1 X118.269 Y151.17 E20.52861
G1 X116.592 Y151.516 E20.79771
G1 X115.264 Y151.569 E21.00658
G1 X114.631 Y151.629 E21.1065
G1 X114.142 Y151.709 E21.18437
G1 X113.379 Y151.904 E21.30813
G1 X111.865 Y152.038 E21.547
G1 X110.565 Y151.89 E21.75262
G1 X109.584 Y151.635 E21.91191
G1 X108.419 Y151.139 E22.1109
G1 X108.156 Y150.988 E22.15855
G1 X107.887 Y150.975 E22.20088
G1 X106.676 Y150.765 E22.39403
G1 X106.488 Y150.72 E22.42441
G1 X99.377 Y150.72 E23.54194
G1 X97.855 Y150.471 E23.7843
G1 X96.647 Y150.012 E23.98739
G1 X95.755 Y149.518 E24.14763
G1 X94.713 Y148.722 E24.3537
G1 X93.954 Y147.943 E24.52462
G1 X93.232 Y146.921 E24.72127
G1 X93.124 Y146.839 E24.74258
G1 X92.148 Y145.994 E24.94546
G1 X90.407 Y143.525 E25.42024
G1 X89.842 Y142.387 E25.61991
G1 X89.473 Y141.217 E25.81271
G1 X89.279 Y139.971 E26.01088
G1 X89.272 Y93.181 E33.36413
G1 X89.179 Y92.614 E33.45442
G1 X89.179 Y87.244 E34.29834
G1 X89.053 Y87.006 E34.34066
G1 X88.515 Y85.592 E34.57842
G1 X88.281 Y84.193 E34.80133
G1 X88.317 Y82.732 E35.031
G1 X88.659 Y81.212 E35.27585
G1 X89.157 Y79.936 E35.49111
G1 X89.345 Y79.605 E35.55093
G1 X89.473 Y78.784 E35.68151
G1 X89.844 Y77.608 E35.87531
G1 X90.397 Y76.494 E36.07076
G1 X91.936 Y74.312 E36.49038
G0 F6000 X92.631 Y74.888
G1 F600 X93.593 Y73.905 E36.70653
G1 X93.899 Y73.701 E36.76433
G1 X94.616 Y72.68 E36.9604
G1 X95.557 Y71.717 E37.17199
G1 X96.518 Y71.067 E37.35432
G1 X97.353 Y70.669 E37.49969
G1 X98.456 Y70.323 E37.68136
G1 X99.395 Y70.18 E37.83063
G1 X112.698 Y70.18 E39.92125
G1 X113.053 Y69.953 E39.98747
G1 X113.984 Y69.585 E40.14479
G1 X114.735 Y69.191 E40.27807
G1 X116.302 Y68.63 E40.53964
G1 X116.532 Y68.58 E40.57663
G1 X118.162 Y68.45 E40.8336
G1 X120.121 Y68.453 E41.14147
G1 X121.808 Y68.849 E41.41379
G1 X122.861 Y69.284 E41.59284
G1 X124.06 Y70.019 E41.81386
G1 X125.193 Y71.021 E42.05155
G1 X126.751 Y72.798 E42.42295
G1 X128.286 Y74.345 E42.76544
G1 X129.153 Y75.547 E42.99835
G1 X129.774 Y77.122 E43.26442
G1 X129.95 Y78.426 E43.4712
G1 X129.95 Y81.091 E43.89002
G1 X129.705 Y82.59 E44.12872
G1 X129.077 Y84.019 E44.37402
G1 X128.713 Y84.556 E44.47597
G1 X129.164 Y85.221 E44.60225
G1 X129.654 Y86.514 E44.81955
G1 X129.86 Y87.628 E44.99759
G1 X129.86 Y98.922 E46.77249
G1 X129.615 Y100.43 E47.01258
G1 X128.983 Y101.861 E47.25843
G1 X128.326 Y102.82 E47.44111
G1 X127.469 Y103.667 E47.63047
G1 X127.005 Y104.038 E47.72384
G1 X126.085 Y104.548 E47.88915
G1 X126.008 Y106.385 E48.17809
G1 X125.95 Y121.814 E50.60284
G1 X125.703 Y123.295 E50.8388
G1 X125.341 Y124.103 E50.97794
G1 X126.642 Y124.73 E51.20491
G1 X127.613 Y125.459 E51.39572
G1 X128.475 Y126.409 E51.59732
G1 X129.244 Y127.608 E51.82117
G1 X129.68 Y128.854 E52.02863
G1 X129.86 Y129.904 E52.19605
G1 X129.882 Y138.482 E53.54412
G1 X129.95 Y138.899 E53.61052
G1 X129.95 Y141.616 E54.03751
G1 X129.709 Y143.103 E54.27424
G1 X129.05 Y144.633 E54.53604
G1 X128.251 Y145.684 E54.74352
G1 X125.959 Y147.976 E55.25292
G1 X124.766 Y148.846 E55.48496
G1 X123.507 Y149.343 E55.69768
G1 X122.844 Y149.531 E55.80598
G1 X121.681 Y149.642 E55.98958
G1 X120.69 Y149.649 E56.14532
G1 X120.422 Y149.711 E56.18855
G1 X119.737 Y149.82 E56.29756
G1 X118.957 Y149.822 E56.42014
G1 X117.972 Y150.313 E56.5931
G1 X116.483 Y150.62 E56.83203
G1 X115.198 Y150.671 E57.03413
G1 X114.514 Y150.736 E57.14211
G1 X114.079 Y150.808 E57.2114
G1 X113.831 Y150.86 E57.25122
G1 X113.231 Y151.013 E57.34853
G1 X111.872 Y151.133 E57.56293
G1 X110.733 Y151.004 E57.74308
G1 X109.873 Y150.78 E57.88274
G1 X108.771 Y150.311 E58.07095
G1 X108.417 Y150.088 E58.1367
G1 X108.041 Y150.088 E58.19579
G1 X106.83 Y149.878 E58.38895
G1 X106.599 Y149.82 E58.42638
G1 X99.449 Y149.82 E59.55003
G1 X98.09 Y149.598 E59.76643
G1 X97.029 Y149.195 E59.9448
G1 X96.251 Y148.763 E60.08465
G1 X95.311 Y148.046 E60.27044
G1 X94.649 Y147.366 E60.41958
G1 X93.886 Y146.287 E60.62727
G1 X93.713 Y146.158 E60.66118
G1 X92.821 Y145.386 E60.84657
G1 X91.18 Y143.058 E61.29418
G1 X90.679 Y142.049 E61.47122
G1 X90.351 Y141.01 E61.64245
G1 X90.179 Y139.904 E61.81835
G1 X90.172 Y93.108 E69.17254
G1 X90.079 Y92.541 E69.26283
G1 X90.079 Y86.994 E70.13457
G1 X89.894 Y86.686 E70.19103
G1 X89.389 Y85.358 E70.41431
G1 X89.183 Y84.129 E70.61015
G1 X89.215 Y82.842 E70.81247
G1 X89.522 Y81.479 E71.03204
G1 X89.973 Y80.322 E71.22719
G1 X90.126 Y80.052 E71.27596
G1 X90.204 Y79.936 E71.29793
G1 X90.351 Y78.991 E71.44822
G1 X90.681 Y77.945 E71.62059
G1 X91.172 Y76.956 E71.79412
G1 X92.631 Y74.888 E72.19186
G0 F6000 X93.326 Y75.464
G1 F600 X94.168 Y74.603 E72.38111
G1 X94.537 Y74.357 E72.45081
G1 X95.307 Y73.261 E72.66131
G1 X96.14 Y72.409 E72.84857
G1 X96.966 Y71.85 E73.00531
G1 X97.679 Y71.51 E73.12945
G1 X98.658 Y71.203 E73.29069
G1 X99.465 Y71.08 E73.41898
G1 X113.001 Y71.08 E75.54621
G1 X113.384 Y70.79 E75.62171
G1 X114.359 Y70.405 E75.78645
G1 X115.1 Y70.016 E75.91797
G1 X116.605 Y69.477 E76.1692
G1 X118.161 Y69.35 E76.41455
G1 X120.018 Y69.353 E76.70638
G1 X121.528 Y69.707 E76.95012
G1 X122.453 Y70.089 E77.10739
G1 X123.524 Y70.746 E77.30485
G1 X124.553 Y71.656 E77.52073
G1 X126.094 Y73.414 E77.88812
G1 X127.599 Y74.931 E78.22394
G1 X128.357 Y75.982 E78.42759
G1 X128.896 Y77.349 E78.65851
G1 X129.05 Y78.488 E78.83914
G1 X129.05 Y81.02 E79.23705
G1 X128.836 Y82.331 E79.44581
G1 X128.286 Y83.582 E79.66057
G1 X127.793 Y84.309 E79.79861
G1 X127.602 Y84.524 E79.84381
G1 X128.36 Y85.64 E80.05582
G1 X128.784 Y86.759 E80.24388
G1 X128.96 Y87.711 E80.39603
G1 X128.96 Y98.852 E82.14688
G1 X128.746 Y100.171 E82.35688
G1 X128.195 Y101.417 E82.57098
G1 X127.63 Y102.242 E82.72813
G1 X126.836 Y103.027 E82.90359
G1 X126.502 Y103.288 E82.97021
G1 X125.47 Y103.86 E83.15564
G1 X125.209 Y103.96 E83.19956
G1 X125.108 Y106.382 E83.58052
G1 X125.05 Y121.736 E85.99348
G1 X124.834 Y123.035 E86.20043
G1 X124.301 Y124.223 E86.40506
G1 X123.953 Y124.72 E86.50041
G1 X124.969 Y124.92 E86.66314
G1 X126.171 Y125.502 E86.87302
G1 X127.002 Y126.126 E87.03633
G1 X127.761 Y126.963 E87.2139
G1 X128.428 Y128.002 E87.40793
G1 X128.806 Y129.083 E87.5879
G1 X128.96 Y129.981 E87.73109
G1 X128.982 Y138.556 E89.07869
G1 X129.05 Y138.971 E89.14478
G1 X129.05 Y141.546 E89.54945
G1 X128.839 Y142.85 E89.75704
G1 X128.268 Y144.174 E89.98364
G1 X127.569 Y145.094 E90.16522
G1 X125.374 Y147.289 E90.65306
G1 X124.331 Y148.05 E90.85596
G1 X123.262 Y148.477 E91.03687
G1 X122.679 Y148.642 E91.13209
G1 X121.674 Y148.742 E91.2908
G1 X120.579 Y148.75 E91.46289
G1 X120.281 Y148.822 E91.51107
G1 X119.664 Y148.92 E91.60925
G1 X118.744 Y148.923 E91.75383
G1 X117.675 Y149.456 E91.94156
G1 X116.374 Y149.724 E92.15031
G1 X115.132 Y149.773 E92.34564
G1 X114.394 Y149.843 E92.46214
G1 X113.919 Y149.922 E92.53782
G1 X113.632 Y149.982 E92.5839
G1 X113.078 Y150.123 E92.67374
G1 X111.884 Y150.229 E92.86212
G1 X110.901 Y150.118 E93.01758
G1 X110.162 Y149.925 E93.13761
G1 X109.123 Y149.483 E93.31506
G1 X108.673 Y149.17 E93.4012
G1 X108.195 Y149.201 E93.47648
G1 X106.984 Y148.991 E93.66963
G1 X106.714 Y148.92 E93.71351
G1 X99.521 Y148.92 E94.84392
G1 X98.323 Y148.724 E95.03469
G1 X97.414 Y148.379 E95.18749
G1 X96.742 Y148.006 E95.30827
G1 X95.913 Y147.373 E95.47219
G1 X95.344 Y146.789 E95.60033
G1 X94.533 Y145.642 E95.82109
G1 X94.302 Y145.478 E95.86561
G1 X93.496 Y144.78 E96.03317
G1 X91.953 Y142.591 E96.45406
G1 X91.516 Y141.711 E96.60847
G1 X91.229 Y140.803 E96.75812
G1 X91.079 Y139.837 E96.91175
G1 X91.072 Y93.035 E104.26688
G1 X90.979 Y92.468 E104.35718
G1 X90.979 Y86.702 E105.26333
G1 X90.735 Y86.366 E105.32858
G1 X90.263 Y85.124 E105.53739
G1 X90.085 Y84.065 E105.70615
G1 X90.113 Y82.952 E105.88112
G1 X90.386 Y81.739 E106.07651
G1 X90.787 Y80.712 E106.24978
G1 X90.91 Y80.494 E106.28912
G1 X91.079 Y80.272 E106.33296
G1 X91.09 Y80.092 E106.3613
G1 X91.229 Y79.197 E106.50364
G1 X91.517 Y78.285 E106.65394
G1 X91.949 Y77.416 E106.80645
G1 X93.326 Y75.464 E107.18187
G0 F6000 X94.021 Y76.04
G1 F600 X94.742 Y75.303 E107.3439
G1 X95.175 Y75.014 E107.42571
G1 X96.001 Y73.838 E107.65155
G1 X96.718 Y73.105 E107.8127
G1 X97.415 Y72.633 E107.94498
G1 X98.006 Y72.351 E108.04789
G1 X98.863 Y72.082 E108.18905
G1 X99.534 Y71.98 E108.29572
G1 X113.304 Y71.98 E110.45973
G1 X113.829 Y71.582 E110.56326
G1 X114.733 Y71.225 E110.71601
G1 X115.465 Y70.841 E110.84591
G1 X116.794 Y70.365 E111.06776
G1 X118.159 Y70.25 E111.28304
G1 X119.915 Y70.253 E111.559
G1 X121.248 Y70.565 E111.77415
G1 X122.048 Y70.896 E111.91021
G1 X122.986 Y71.471 E112.08311
G1 X123.912 Y72.29 E112.27739
G1 X125.271 Y73.848 E112.60229
G1 X125.455 Y74.048 E112.645
G1 X126.912 Y75.517 E112.97015
G1 X127.561 Y76.417 E113.14453
G1 X128.018 Y77.576 E113.34032
G1 X128.15 Y78.55 E113.49479
G1 X128.15 Y80.949 E113.8718
G1 X127.967 Y82.072 E114.05061
G1 X127.495 Y83.145 E114.23483
G1 X127.048 Y83.804 E114.35998
G1 X126.334 Y84.535 E114.52056
G1 X126.976 Y85.204 E114.66628
G1 X127.555 Y86.057 E114.8283
G1 X127.914 Y87.004 E114.98746
G1 X128.06 Y87.794 E115.11371
G1 X128.06 Y98.781 E116.84036
G1 X127.876 Y99.912 E117.02044
G1 X127.405 Y100.978 E117.20359
G1 X126.937 Y101.661 E117.33371
G1 X126.203 Y102.387 E117.49595
G1 X126.006 Y102.534 E117.53458
G1 X125.034 Y103.073 E117.70925
G1 X124.572 Y103.212 E117.78507
G1 X124.369 Y103.316 E117.82091
G1 X124.318 Y103.721 E117.88506
G1 X124.208 Y106.379 E118.30314
G1 X124.15 Y121.66 E120.70463
G1 X123.965 Y122.774 E120.88209
G1 X123.515 Y123.777 E121.05486
G1 X123.172 Y124.267 E121.14885
G1 X123.017 Y124.453 E121.1869
G1 X122.919 Y124.761 E121.2377
G1 X122.841 Y125.191 E121.30638
G1 X122.809 Y125.528 E121.35958
G1 X123.55 Y125.558 E121.47612
G1 X124.682 Y125.781 E121.65744
G1 X125.7 Y126.274 E121.8352
G1 X126.391 Y126.793 E121.97101
G1 X127.045 Y127.514 E122.12399
G1 X127.613 Y128.398 E122.28912
G1 X127.932 Y129.312 E122.44125
G1 X128.06 Y130.058 E122.5602
G1 X128.082 Y138.63 E123.90733
G1 X128.15 Y139.044 E123.97327
G1 X128.15 Y141.476 E124.35547
G1 X127.969 Y142.593 E124.5333
G1 X127.484 Y143.719 E124.72597
G1 X126.888 Y144.503 E124.88074
G1 X124.789 Y146.602 E125.34724
G1 X123.894 Y147.255 E125.52135
G1 X122.928 Y147.641 E125.68483
G1 X122.516 Y147.753 E125.75193
G1 X121.585 Y147.846 E125.89897
G1 X120.467 Y147.85 E126.07467
G1 X120.14 Y147.933 E126.12769
G1 X119.591 Y148.02 E126.21504
G1 X118.496 Y148.022 E126.38712
G1 X118.343 Y148.118 E126.41551
G1 X117.382 Y148.597 E126.58426
G1 X116.26 Y148.828 E126.76428
G1 X115.066 Y148.875 E126.95207
G1 X114.277 Y148.95 E127.07662
G1 X113.745 Y149.038 E127.16136
G1 X113.442 Y149.102 E127.21003
G1 X112.924 Y149.234 E127.29404
G1 X111.896 Y149.325 E127.45623
G1 X111.068 Y149.231 E127.58719
G1 X110.451 Y149.07 E127.6874
G1 X109.56 Y148.691 E127.83956
G1 X108.928 Y148.252 E127.96049
G1 X108.245 Y148.296 E128.06805
G1 X107.138 Y148.104 E128.24462
G1 X106.836 Y148.02 E128.29388
G1 X99.593 Y148.02 E129.43215
G1 X98.561 Y147.851 E129.59649
G1 X97.793 Y147.56 E129.72556
G1 X97.233 Y147.249 E129.82623
G1 X96.515 Y146.701 E129.96817
G1 X96.039 Y146.212 E130.07542
G1 X95.173 Y144.988 E130.31105
G1 X94.892 Y144.798 E130.36436
G1 X94.17 Y144.172 E130.51454
G1 X92.726 Y142.124 E130.90835
G1 X92.353 Y141.373 E131.04012
G1 X92.108 Y140.597 E131.16801
G1 X91.979 Y139.769 E131.2997
G1 X91.972 Y92.962 E138.65562
G1 X91.879 Y92.395 E138.74591
G1 X91.879 Y86.409 E139.68664
G1 X91.533 Y85.934 E139.77899
G1 X91.136 Y84.888 E139.95482
G1 X90.987 Y84.005 E140.09554
G1 X91.011 Y83.062 E140.24379
G1 X91.249 Y82.006 E140.41391
G1 X91.626 Y81.039 E140.57702
G1 X91.979 Y80.575 E140.66864
G1 X91.979 Y80.231 E140.7227
G1 X92.108 Y79.403 E140.85439
G1 X92.353 Y78.626 E140.98243
G1 X92.726 Y77.876 E141.11407
G1 X94.021 Y76.04 E141.46715
G0 F6000 X94.713 Y76.62
G1 F600 X95.322 Y75.998 E141.60396
G1 X95.814 Y75.669 E141.69697
G1 X96.692 Y74.419 E141.93703
G1 X97.299 Y73.799 E142.07339
G1 X97.864 Y73.416 E142.18066
G1 X98.333 Y73.192 E142.26234
G1 X99.068 Y72.961 E142.38342
G1 X99.603 Y72.88 E142.46845
G1 X113.606 Y72.88 E144.66908
G1 X114.275 Y72.374 E144.8009
G1 X115.108 Y72.045 E144.94165
G1 X115.83 Y71.666 E145.0698
G1 X116.983 Y71.253 E145.26227
G1 X118.157 Y71.15 E145.44748
G1 X119.812 Y71.153 E145.70757
G1 X120.97 Y71.424 E145.89447
G1 X121.641 Y71.701 E146.00856
G1 X122.445 Y72.194 E146.15677
G1 X123.273 Y72.927 E146.33056
G1 X124.608 Y74.457 E146.64967
G1 X124.802 Y74.668 E146.69471
G1 X126.222 Y76.1 E147.01164
G1 X126.766 Y76.854 E147.15776
G1 X127.14 Y77.803 E147.31806
G1 X127.25 Y78.612 E147.44637
G1 X127.25 Y80.878 E147.80248
G1 X127.098 Y81.812 E147.95119
G1 X126.703 Y82.708 E148.10508
G1 X126.348 Y83.233 E148.20468
G1 X125.78 Y83.814 E148.33237
G1 X125.209 Y84.206 E148.44121
G1 X124.532 Y84.5 E148.5572
G1 X125.129 Y84.766 E148.65992
G1 X125.694 Y85.164 E148.76853
G1 X126.273 Y85.771 E148.90036
G1 X126.752 Y86.477 E149.03444
G1 X127.043 Y87.244 E149.16336
G1 X127.16 Y87.877 E149.26452
G1 X127.16 Y98.711 E150.96713
G1 X127.007 Y99.653 E151.11711
G1 X126.617 Y100.534 E151.26852
G1 X126.241 Y101.083 E151.37309
G1 X125.57 Y101.747 E151.52145
G1 X124.682 Y102.239 E151.68099
G1 X124.233 Y102.375 E151.75471
G1 X123.634 Y102.682 E151.86049
G1 X123.501 Y103.005 E151.91539
G1 X123.421 Y103.644 E152.01659
G1 X123.308 Y106.376 E152.44631
G1 X123.25 Y121.584 E154.83632
G1 X123.096 Y122.513 E154.98431
G1 X122.729 Y123.331 E155.12521
G1 X122.435 Y123.751 E155.20578
G1 X122.215 Y124.003 E155.25835
