;FLAVOR:Marlin
M73 P0


; Pre-Processed for Cancel-Object support by preprocess_cancellation v0.2.0
; 2 known objects
EXCLUDE_OBJECT_DEFINE NAME=MONSTERAsupportSTICK_stl_1 CENTER=110.045,100.950 POLYGON=[[105.956,97.336],[105.956,104.465],[114.044,104.465],[114.044,97.336]]
EXCLUDE_OBJECT_DEFINE NAME=MONSTERAsupportSTICK_stl CENTER=110.036,110.054 POLYGON=[[105.956,106.436],[105.956,113.565],[114.044,113.565],[114.044,106.436]]
M117 Time Left 0h22m46s
;TIME:1366
;Filament used: 1.23984m
;Layer height: 0.3
;MINX:98.073
;MINY:89.453
;MINZ:0.45
;MAXX:121.927
;MAXY:121.447
;MAXZ:70.25
;TARGET_MACHINE.NAME:Creality Ender-3
;POSTPROCESSED
;  [InsertAtLayerChange]
;  [MeshPrintSize]
;  [DisplayProgressOnLCD]
;  [DisplayFilenameAndLayerOnLCD]
;KLIPPERSETTINGSPROCESSED
SET_RETRACTION RETRACT_LENGTH=6 RETRACT_SPEED=20 UNRETRACT_SPEED=20 ;KlipperSettingsPlugin

;Generated with Cura_SteamEngine 5.6.0
M82 ;absolute extrusion mode
;Nozzle diameter = 0.6
;Filament type = PLA
;Filament name = Rose
START_PRINT PRINT_MIN=98.073,89.453 PRINT_MAX=121.927,121.447 BED_TEMP=65 EXTRUDER_TEMP=215
G92 E0
G92 E0
G10
;LAYER_COUNT:234
TIMELAPSE_TAKE_FRAME
;LAYER:0
M117 Printing MONSTERAsupportSTICK - Layer 0 of 233
M107
G1 F300 Z0.65
G0 F6000 X99.909 Y92.585 Z0.65
;TYPE:SKIRT
G1 F300 Z0.45
G11
G1 F600 X101.201 Y91.293 E0.30766
G1 X102.483 Y90.426 E0.56825
G1 X104.04 Y89.773 E0.85254
G1 X105.628 Y89.453 E1.1253
G1 X114.382 Y89.454 E2.59929
G1 X115.983 Y89.778 E2.87433
G1 X117.511 Y90.425 E3.15373
G1 X118.805 Y91.299 E3.41666
G1 X120.095 Y92.589 E3.72384
G1 X120.962 Y93.879 E3.98555
G1 X121.614 Y95.432 E4.26915
G1 X121.927 Y97.002 E4.53871
G1 X121.926 Y104.811 E5.85358
G1 X121.795 Y105.456 E5.96441
G1 X121.927 Y106.108 E6.07642
G1 X121.926 Y113.908 E7.38978
G1 X121.613 Y115.473 E7.65851
G1 X120.96 Y117.031 E7.94295
G1 X120.091 Y118.315 E8.20401
G1 X118.799 Y119.607 E8.51167
G1 X117.517 Y120.474 E8.77226
G1 X115.96 Y121.127 E9.05655
G1 X114.372 Y121.447 E9.32931
G1 X105.618 Y121.446 E10.80331
G1 X104.017 Y121.122 E11.07835
G1 X102.489 Y120.475 E11.35775
G1 X101.195 Y119.601 E11.62067
G1 X99.905 Y118.311 E11.92785
G1 X99.038 Y117.021 E12.18956
G1 X98.386 Y115.468 E12.47317
G1 X98.073 Y113.898 E12.74272
G1 X98.074 Y106.089 E14.0576
G1 X98.205 Y105.444 E14.16842
G1 X98.073 Y104.792 E14.28043
G1 X98.074 Y96.992 E15.59379
G1 X98.387 Y95.427 E15.86252
G1 X99.04 Y93.869 E16.14697
G1 X99.909 Y92.585 E16.40803
G0 F6000 X100.606 Y93.16
G1 F600 X101.774 Y91.992 E16.68616
G1 X102.913 Y91.221 E16.91775
G1 X104.307 Y90.637 E17.17224
G1 X105.717 Y90.353 E17.41442
G1 X114.292 Y90.354 E18.85827
G1 X115.714 Y90.642 E19.10257
G1 X117.079 Y91.22 E19.35216
G1 X118.233 Y91.999 E19.5866
G1 X119.395 Y93.161 E19.8633
G1 X120.165 Y94.307 E20.09578
G1 X120.749 Y95.697 E20.34964
G1 X121.027 Y97.093 E20.58932
G1 X121.026 Y104.72 E21.87355
G1 X120.876 Y105.455 E21.99986
G1 X121.027 Y106.198 E22.12752
G1 X121.026 Y113.816 E23.41023
G1 X120.747 Y115.211 E23.64977
G1 X120.163 Y116.603 E23.90395
G1 X119.394 Y117.74 E24.13507
G1 X118.226 Y118.908 E24.4132
G1 X117.087 Y119.679 E24.64479
G1 X115.693 Y120.263 E24.89928
G1 X114.283 Y120.547 E25.14146
G1 X105.708 Y120.546 E26.58532
G1 X104.286 Y120.258 E26.82961
G1 X102.921 Y119.68 E27.07921
G1 X101.767 Y118.901 E27.31365
G1 X100.605 Y117.739 E27.59035
G1 X99.835 Y116.593 E27.82282
G1 X99.251 Y115.203 E28.07669
G1 X98.973 Y113.807 E28.31636
G1 X98.974 Y106.18 E29.60059
G1 X99.124 Y105.445 E29.7269
G1 X98.973 Y104.702 E29.85456
G1 X98.974 Y97.084 E31.13728
G1 X99.253 Y95.689 E31.37682
G1 X99.837 Y94.297 E31.631
G1 X100.606 Y93.16 E31.86212
G0 F6000 X101.306 Y93.732
G1 F600 X102.347 Y92.691 E32.11001
M73 P1
G1 X103.345 Y92.015 E32.31297
G1 X104.571 Y91.502 E32.53675
G1 X105.806 Y91.253 E32.74888
G1 X114.203 Y91.254 E34.16276
M117 Time Left 0h22m31s
G1 X115.444 Y91.505 E34.37595
G1 X116.65 Y92.016 E34.59649
G1 X117.659 Y92.697 E34.80146
G1 X118.695 Y93.733 E35.04816
G1 X119.369 Y94.736 E35.25163
G1 X119.883 Y95.96 E35.47517
G1 X120.127 Y97.184 E35.68532
G1 X120.126 Y104.628 E36.93873
G1 X119.957 Y105.455 E37.08086
G1 X120.127 Y106.289 E37.22418
G1 X120.126 Y113.724 E38.47608
G1 X119.881 Y114.949 E38.68643
G1 X119.368 Y116.171 E38.90958
G1 X118.694 Y117.168 E39.11222
G1 X117.653 Y118.209 E39.36011
G1 X116.655 Y118.885 E39.56307
G1 X115.429 Y119.398 E39.78685
G1 X114.194 Y119.647 E39.99898
G1 X105.797 Y119.646 E41.41286
G1 X104.556 Y119.395 E41.62605
G1 X103.35 Y118.884 E41.8466
G1 X102.341 Y118.203 E42.05156
G1 X101.305 Y117.167 E42.29826
G1 X100.631 Y116.164 E42.50174
G1 X100.117 Y114.94 E42.72527
G1 X99.873 Y113.716 E42.93542
G1 X99.874 Y106.272 E44.18883
G1 X100.043 Y105.445 E44.33096
G1 X99.873 Y104.611 E44.47428
G1 X99.874 Y97.176 E45.72618
G1 X100.119 Y95.951 E45.93653
G1 X100.632 Y94.729 E46.15968
G1 X101.306 Y93.732 E46.36232
G0 F6000 X102.006 Y94.304
G1 F600 X102.92 Y93.39 E46.57997
G1 X103.777 Y92.809 E46.7543
G1 X104.835 Y92.367 E46.94737
G1 X105.895 Y92.153 E47.12945
G1 X114.113 Y92.154 E48.51319
G1 X115.175 Y92.369 E48.69564
G1 X116.221 Y92.812 E48.88691
G1 X117.085 Y93.395 E49.06241
G1 X117.995 Y94.305 E49.27911
G1 X118.573 Y95.165 E49.45358
G1 X119.017 Y96.223 E49.64677
G1 X119.227 Y97.275 E49.8274
G1 X119.226 Y104.536 E51.05001
G1 X119.038 Y105.455 E51.20795
G1 X119.227 Y106.381 E51.36709
G1 X119.226 Y113.633 E52.58817
G1 X119.016 Y114.684 E52.76864
G1 X118.572 Y115.741 E52.96168
G1 X117.994 Y116.596 E53.13545
G1 X117.08 Y117.51 E53.3531
G1 X116.223 Y118.091 E53.52744
G1 X115.165 Y118.533 E53.7205
G1 X114.105 Y118.747 E53.90259
G1 X105.887 Y118.746 E55.28633
G1 X104.825 Y118.531 E55.46878
G1 X103.779 Y118.088 E55.66005
G1 X102.915 Y117.505 E55.83555
G1 X102.005 Y116.595 E56.05224
G1 X101.427 Y115.735 E56.22671
G1 X100.983 Y114.677 E56.41991
G1 X100.773 Y113.625 E56.60054
G1 X100.774 Y106.364 E57.82314
G1 X100.962 Y105.445 E57.98109
G1 X100.773 Y104.519 E58.14022
G1 X100.774 Y97.267 E59.36131
G1 X100.984 Y96.216 E59.54177
G1 X101.428 Y95.159 E59.73482
G1 X102.006 Y94.304 E59.90859
G0 F6000 X102.706 Y94.876
G1 F600 X103.493 Y94.089 E60.09599
G1 X104.209 Y93.604 E60.24161
G1 X105.099 Y93.232 E60.40403
G1 X105.984 Y93.053 E60.55606
G1 X114.023 Y93.054 E61.90967
G1 X114.906 Y93.233 E62.06137
G1 X115.792 Y93.608 E62.22337
G1 X116.511 Y94.093 E62.3694
G1 X117.295 Y94.877 E62.55609
M73 P2
G1 X117.776 Y95.593 E62.70133
G1 X118.152 Y96.488 E62.86478
G1 X118.327 Y97.366 E63.01553
G1 X118.326 Y104.442 E64.20698
G1 X118.168 Y105.232 E64.34264
G1 X118.094 Y105.453 E64.38188
G1 X118.168 Y105.677 E64.4216
G1 X118.327 Y106.47 E64.55778
G1 X118.326 Y113.542 E65.74856
M117 Time Left 0h22m16s
G1 X118.151 Y114.419 E65.89914
G1 X117.776 Y115.311 E66.06207
G1 X117.294 Y116.024 E66.20698
G1 X116.507 Y116.811 E66.39439
G1 X115.791 Y117.296 E66.54
G1 X114.901 Y117.668 E66.70242
G1 X114.016 Y117.847 E66.85446
G1 X105.977 Y117.846 E68.20806
G1 X105.094 Y117.667 E68.35976
G1 X104.208 Y117.292 E68.52176
G1 X103.489 Y116.807 E68.66779
G1 X102.705 Y116.023 E68.85448
G1 X102.224 Y115.307 E68.99972
G1 X101.848 Y114.412 E69.16318
G1 X101.673 Y113.534 E69.31392
G1 X101.674 Y106.458 E70.50538
G1 X101.832 Y105.668 E70.64103
G1 X101.906 Y105.447 E70.68027
G1 X101.832 Y105.223 E70.71999
G1 X101.673 Y104.43 E70.85618
G1 X101.674 Y97.358 E72.04696
G1 X101.849 Y96.481 E72.19754
G1 X102.224 Y95.589 E72.36046
G1 X102.706 Y94.876 E72.50538
G0 F6000 X103.406 Y95.448
G1 F600 X104.068 Y94.786 E72.66302
G1 X104.637 Y94.401 E72.77869
G1 X105.365 Y94.096 E72.9116
G1 X106.073 Y93.953 E73.03322
G1 X113.933 Y93.954 E74.35668
G1 X114.637 Y94.097 E74.47764
G1 X115.363 Y94.404 E74.61036
G1 X115.937 Y94.791 E74.72693
G1 X116.595 Y95.449 E74.88361
G1 X116.98 Y96.022 E74.99985
G1 X117.286 Y96.751 E75.13298
G1 X117.427 Y97.457 E75.2542
G1 X117.426 Y104.35 E76.41484
G1 X117.285 Y105.055 E76.5359
G1 X117.118 Y105.453 E76.60857
G1 X117.286 Y105.854 E76.68178
G1 X117.427 Y106.557 E76.80251
G1 X117.426 Y113.45 E77.96315
G1 X117.285 Y114.155 E78.0842
G1 X116.98 Y114.881 E78.2168
G1 X116.594 Y115.452 E78.33285
G1 X115.932 Y116.114 E78.49049
G1 X115.363 Y116.499 E78.60617
G1 X114.635 Y116.804 E78.73907
G1 X113.927 Y116.947 E78.86069
G1 X106.067 Y116.946 E80.18415
G1 X105.363 Y116.803 E80.30511
G1 X104.637 Y116.496 E80.43784
G1 X104.063 Y116.109 E80.5544
G1 X103.405 Y115.451 E80.71109
G1 X103.02 Y114.878 E80.82732
G1 X102.714 Y114.149 E80.96045
G1 X102.573 Y113.443 E81.08167
G1 X102.574 Y106.55 E82.24231
G1 X102.715 Y105.845 E82.36337
G1 X102.882 Y105.447 E82.43604
G1 X102.714 Y105.046 E82.50925
G1 X102.573 Y104.343 E82.62998
G1 X102.574 Y97.45 E83.79062
G1 X102.715 Y96.745 E83.91168
G1 X103.02 Y96.019 E84.04427
G1 X103.406 Y95.448 E84.16032
G0 F6000 X104.106 Y96.02
G1 F600 X104.64 Y95.486 E84.28748
G1 X105.069 Y95.196 E84.37467
G1 X105.632 Y94.96 E84.47746
G1 X106.162 Y94.853 E84.5685
G1 X113.843 Y94.854 E85.86182
G1 X114.37 Y94.961 E85.95237
G1 X114.933 Y95.199 E86.05529
G1 X115.363 Y95.489 E86.14262
G1 X115.894 Y96.02 E86.26907
M73 P3
G1 X116.183 Y96.451 E86.35644
G1 X116.422 Y97.02 E86.46036
G1 X116.527 Y97.544 E86.55034
G1 X116.526 Y104.259 E87.68101
G1 X116.42 Y104.79 E87.77218
G1 X116.218 Y105.27 E87.85987
G1 X116.116 Y105.451 E87.89485
G1 X116.218 Y105.634 E87.93013
G1 X116.422 Y106.121 E88.01904
G1 X116.527 Y106.644 E88.10885
G1 X116.526 Y113.359 E89.23952
G1 X116.42 Y113.89 E89.3307
G1 X116.184 Y114.451 E89.43318
G1 X115.894 Y114.88 E89.52037
M117 Time Left 0h22m01s
G1 X115.36 Y115.414 E89.64752
G1 X114.931 Y115.704 E89.73472
G1 X114.368 Y115.94 E89.8375
G1 X113.838 Y116.047 E89.92855
G1 X106.157 Y116.046 E91.22187
G1 X105.63 Y115.939 E91.31242
G1 X105.067 Y115.701 E91.41534
G1 X104.637 Y115.411 E91.50267
G1 X104.106 Y114.88 E91.62911
G1 X103.817 Y114.449 E91.71649
G1 X103.578 Y113.88 E91.8204
G1 X103.473 Y113.356 E91.91039
G1 X103.474 Y106.641 E93.04105
G1 X103.58 Y106.11 E93.13223
G1 X103.782 Y105.63 E93.21992
G1 X103.884 Y105.449 E93.2549
G1 X103.782 Y105.266 E93.29018
G1 X103.578 Y104.779 E93.37908
G1 X103.473 Y104.256 E93.4689
G1 X103.474 Y97.541 E94.59957
G1 X103.58 Y97.01 E94.69074
G1 X103.816 Y96.449 E94.79322
G1 X104.106 Y96.02 E94.88041
G10
G1 F300 Z0.65
G0 F6000 X105.442 Y97.228 Z0.65
G1 F300 Z0.45
G11
G1 F600 X105.848 Y96.822 E94.97709
G1 X106.25 Y96.653 E95.05052
G1 X113.753 Y96.654 E96.31387
G1 X114.153 Y96.823 E96.38698
G1 X114.558 Y97.228 E96.48342
G1 X114.727 Y97.632 E96.55716
G1 X114.726 Y104.172 E97.65836
G1 X114.558 Y104.572 E97.73141
G1 X114.152 Y104.978 E97.82809
G1 X113.75 Y105.147 E97.90152
G1 X106.247 Y105.146 E99.16487
G1 X105.847 Y104.977 E99.23799
G1 X105.442 Y104.572 E99.33443
G1 X105.273 Y104.168 E99.40816
G1 X105.274 Y97.628 E100.50937
G1 X105.442 Y97.228 E100.58242
G0 F6000 X104.806 Y96.592
G1 F600 X105.212 Y96.186 E100.67909
G1 X105.499 Y95.992 E100.73742
G1 X105.901 Y95.823 E100.81085
G1 X106.25 Y95.753 E100.87079
G1 X113.753 Y95.754 E102.13414
G1 X114.103 Y95.825 E102.19427
G1 X114.503 Y95.994 E102.26739
G1 X114.789 Y96.187 E102.32548
G1 X115.194 Y96.592 E102.42192
G1 X115.388 Y96.881 E102.48053
G1 X115.557 Y97.285 E102.55427
G1 X115.627 Y97.632 E102.61387
G1 X115.626 Y104.172 E103.71508
G1 X115.556 Y104.521 E103.77501
G1 X115.388 Y104.921 E103.84806
G1 X115.194 Y105.208 E103.90639
G1 X114.952 Y105.45 E103.96402
G1 X115.194 Y105.692 E104.02164
G1 X115.388 Y105.981 E104.08025
G1 X115.557 Y106.385 E104.15399
G1 X115.627 Y106.732 E104.21359
G1 X115.626 Y113.272 E105.3148
G1 X115.556 Y113.621 E105.37473
G1 X115.388 Y114.021 E105.44778
G1 X115.194 Y114.308 E105.50611
G1 X114.788 Y114.714 E105.60279
G1 X114.501 Y114.908 E105.66112
M73 P4
G1 X114.099 Y115.077 E105.73455
G1 X113.75 Y115.147 E105.79448
G1 X106.247 Y115.146 E107.05783
G1 X105.897 Y115.075 E107.11796
G1 X105.497 Y114.906 E107.19108
G1 X105.211 Y114.713 E107.24918
G1 X104.806 Y114.308 E107.34562
G1 X104.612 Y114.019 E107.40423
G1 X104.443 Y113.615 E107.47796
G1 X104.373 Y113.268 E107.53757
G1 X104.374 Y106.728 E108.63877
G1 X104.444 Y106.379 E108.6987
G1 X104.612 Y105.979 E108.77176
G1 X104.806 Y105.692 E108.83008
G1 X105.048 Y105.45 E108.88771
G1 X104.806 Y105.208 E108.94534
G1 X104.612 Y104.919 E109.00395
G1 X104.443 Y104.515 E109.07768
G1 X104.373 Y104.168 E109.13729
M117 Time Left 0h21m46s
G1 X104.374 Y97.628 E110.23849
G1 X104.444 Y97.279 E110.29842
G1 X104.612 Y96.879 E110.37148
G1 X104.806 Y96.592 E110.4298
G10
G1 F300 Z0.65
G0 F6000 X106.25 Y105.753 Z0.65
G1 F300 Z0.45
G11
G1 F600 X113.753 Y105.754 E111.69316
G1 X114.153 Y105.923 E111.76627
G1 X114.558 Y106.328 E111.86271
G1 X114.727 Y106.732 E111.93645
G1 X114.726 Y113.272 E113.03765
G1 X114.558 Y113.672 E113.1107
G1 X114.152 Y114.078 E113.20738
G1 X113.75 Y114.247 E113.28081
G1 X106.247 Y114.246 E114.54416
G1 X105.847 Y114.077 E114.61727
G1 X105.442 Y113.672 E114.71372
G1 X105.273 Y113.268 E114.78745
G1 X105.274 Y106.728 E115.88865
G1 X105.442 Y106.328 E115.96171
G1 X105.848 Y105.922 E116.05838
G1 X106.25 Y105.753 E116.13181
G10
G1 F300 Z0.65
;MESH:MONSTERAsupportSTICK.stl(1)
EXCLUDE_OBJECT_START NAME=MONSTERAsupportSTICK_stl_1
G0 F6000 X106.459 Y103.362 Z0.65
;TYPE:WALL-OUTER
G1 F300 Z0.45
G11
G1 F367.8 X106.454 Y98.565 E117.44929
G0 F6000 X106.2 Y97.696
G1 F630.8 X106.317 Y97.58 E117.47567
G1 X106.432 Y97.532 E117.49563
G1 X106.58 Y97.532 E117.51933
G1 F534.7 X106.819 Y97.685 E117.57295
G1 F409.4 X107.058 Y97.839 E117.64311
G1 F463.5 X106.882 Y98.262 E117.74297
G1 F536.2 X106.668 Y98.413 E117.79232
G1 F412.2 X106.454 Y98.565 E117.85665
G1 X106.303 Y98.262 E117.93962
G1 F536.2 X106.152 Y97.959 E118.0034
G1 F630.8 X106.152 Y97.808 E118.02758
G1 X106.2 Y97.696 E118.0471
G0 F6000 X107.058 Y97.839
G1 F367.8 X112.815 Y97.834 E119.62823
G0 F6000 X113.118 Y98.262
G1 F536.8 X112.967 Y98.048 E119.67753
G1 F412.2 X112.815 Y97.834 E119.74186
G1 X113.118 Y97.683 E119.82483
G1 F536.8 X113.421 Y97.532 E119.88855
G1 F631.6 X113.572 Y97.531 E119.9127
G1 X113.684 Y97.579 E119.93219
G1 X113.801 Y97.696 E119.95866
G1 X113.849 Y97.811 E119.97859
G1 X113.849 Y97.96 E120.00243
G1 F536.8 X113.698 Y98.262 E120.06598
G1 F412.8 X113.546 Y98.565 E120.14893
G1 X113.332 Y98.414 E120.21302
G1 F536.8 X113.118 Y98.262 E120.26243
G0 F6000 X113.546 Y98.565
G1 F368.6 X113.541 Y103.362 E121.57721
G0 F6000 X113.75 Y104.17
G1 F630.8 X113.569 Y104.269 E121.61025
G1 X113.42 Y104.268 E121.63411
M73 P5
G1 F534.7 X113.181 Y104.115 E121.68773
G1 F409.4 X112.942 Y103.961 E121.75789
G1 F463.5 X113.118 Y103.538 E121.85775
G1 F464.3 X113.541 Y103.362 E121.95744
G1 F410.3 X113.694 Y103.601 E122.02731
G1 F535.2 X113.848 Y103.841 E122.08114
G1 F630.8 X113.848 Y103.992 E122.10532
G1 X113.75 Y104.17 E122.13786
G0 F6000 X112.942 Y103.961
G1 F367.8 X107.185 Y103.966 E123.719
G0 F6000 X106.428 Y104.268
G1 F630.8 X106.25 Y104.17 E123.75154
G1 X106.151 Y103.989 E123.78458
G1 X106.152 Y103.84 E123.80844
G1 F534.7 X106.305 Y103.601 E123.86206
G1 F409.4 X106.459 Y103.362 E123.93222
G1 F463.5 X106.882 Y103.538 E124.03208
G1 F536.2 X107.033 Y103.752 E124.08142
G1 F412.2 X107.185 Y103.966 E124.14576
G1 X106.882 Y104.117 E124.22873
G1 F536.2 X106.579 Y104.268 E124.29251
G1 F630.8 X106.428 Y104.268 E124.31669
G10
G1 F300 Z0.65
M117 Time Left 0h21m31s
;MESH:MONSTERAsupportSTICK.stl
EXCLUDE_OBJECT_END NAME=MONSTERAsupportSTICK_stl_1
EXCLUDE_OBJECT_START NAME=MONSTERAsupportSTICK_stl
G0 F6000 X106.454 Y107.665 Z0.65
G1 F300 Z0.45
G11
G1 F367.8 X106.459 Y112.462 E125.63417
G0 F6000 X106.579 Y113.368
G1 F630.8 X106.428 Y113.368 E125.65835
G1 X106.25 Y113.27 E125.69089
G1 X106.151 Y113.089 E125.72393
G1 X106.152 Y112.94 E125.74779
G1 F534.7 X106.305 Y112.701 E125.80141
G1 F409.4 X106.459 Y112.462 E125.87158
G1 F463.5 X106.882 Y112.638 E125.97143
G1 F536.2 X107.033 Y112.852 E126.02078
G1 F412.2 X107.185 Y113.066 E126.08511
G1 X106.882 Y113.217 E126.16808
G1 F536.2 X106.579 Y113.368 E126.23186
G0 F6000 X107.185 Y113.066
G1 F367.8 X112.942 Y113.061 E127.813
G0 F6000 X113.75 Y113.27
G1 F630.8 X113.569 Y113.369 E127.84604
G1 X113.42 Y113.368 E127.8699
G1 F534.7 X113.181 Y113.215 E127.92352
G1 F409.4 X112.942 Y113.061 E127.99368
G1 F463.5 X113.118 Y112.638 E128.09354
