;FLAVOR:Marlin
M73 P0


; Pre-Processed for Cancel-Object support by preprocess_cancellation v0.2.0
; 1 known objects
EXCLUDE_OBJECT_DEFINE NAME=MONSTERAsupportLEAF_stl CENTER=109.377,109.788 POLYGON=[[48.609,24.223],[48.609,195.857],[171.433,195.857],[171.433,24.223]]
M117 Time Left 0h34m30s
;TIME:2070
;Filament used: 3.77m
;Layer height: 0.3
;MINX:40.644
;MINY:16.146
;MINZ:0.45
;MAXX:179.353
;MAXY:203.807
;MAXZ:4.25
;TARGET_MACHINE.NAME:Creality Ender-3
;POSTPROCESSED
;  [InsertAtLayerChange]
;  [MeshPrintSize]
;  [DisplayProgressOnLCD]
;  [DisplayFilenameAndLayerOnLCD]
;KLIPPERSETTINGSPROCESSED
SET_RETRACTION RETRACT_LENGTH=6 RETRACT_SPEED=20 UNRETRACT_SPEED=20 ;KlipperSettingsPlugin

;Generated with Cura_SteamEngine 5.6.0
M82 ;absolute extrusion mode
;Nozzle diameter = 0.6
;Filament type = PLA
;Filament name = Rose
START_PRINT PRINT_MIN=40.644,16.146 PRINT_MAX=179.353,203.807 BED_TEMP=65 EXTRUDER_TEMP=215
G92 E0
G92 E0
G10
;LAYER_COUNT:13
TIMELAPSE_TAKE_FRAME
;LAYER:0
M117 Printing MONSTERAsupportLEAF - Layer 0 of 12
M107
G1 F300 Z0.65
G0 F6000 X55.638 Y56.614 Z0.65
;TYPE:SKIRT
G1 F300 Z0.45
G11
G1 F600 X56.676 Y55.703 E0.23254
G1 X57.968 Y54.892 E0.4894
G1 X59.339 Y54.375 E0.73611
G1 X60.652 Y54.14 E0.96071
G1 X62.126 Y54.157 E1.20892
G1 X63.406 Y54.36 E1.42714
G1 X63.647 Y54.431 E1.46944
G1 X64.054 Y53.449 E1.64843
G1 X64.836 Y51.97 E1.93013
G1 X65.499 Y50.918 E2.13951
G1 X66.101 Y50.068 E2.31489
G1 X66.748 Y49.232 E2.49289
G1 X67.565 Y48.248 E2.70824
G1 X68.802 Y46.88 E3.01879
G1 X70.707 Y44.974 E3.47253
G1 X72.224 Y43.584 E3.81898
G1 X74.142 Y41.972 E4.24084
G1 X76.188 Y40.417 E4.67355
G1 X77.946 Y39.222 E5.03148
G1 X81.693 Y36.805 E5.78227
G1 X83.902 Y35.344 E6.22821
G1 X84.843 Y34.709 E6.41935
G1 X86.803 Y33.359 E6.82009
G1 X88.421 Y32.206 E7.15462
G1 X89.975 Y31.053 E7.48044
G1 X91.326 Y29.999 E7.76896
G1 X92.558 Y28.986 E8.03752
G1 X93.422 Y28.224 E8.2315
G1 X94.381 Y27.313 E8.45422
G1 X95.039 Y26.632 E8.61367
G1 X95.682 Y25.897 E8.7781
G1 X96.18 Y25.267 E8.91332
G1 X96.656 Y24.592 E9.05239
G1 X97.002 Y24.036 E9.16266
G1 X98.198 Y21.827 E9.58563
G1 X98.788 Y20.819 E9.78229
G1 X99.319 Y19.994 E9.94749
G1 X99.934 Y19.117 E10.12785
G1 X100.86 Y18.171 E10.35074
G1 X101.959 Y17.358 E10.58092
G1 X103.206 Y16.714 E10.81724
G1 X104.492 Y16.326 E11.04342
G1 X106.124 Y16.146 E11.31988
G1 X106.36 Y16.152 E11.35963
G1 X107.812 Y16.378 E11.60706
G1 X109.134 Y16.805 E11.84098
G1 X109.572 Y16.999 E11.92164
G1 X110.859 Y17.835 E12.18005
G1 X111.835 Y18.745 E12.40474
G1 X112.302 Y19.229 E12.51799
G1 X112.789 Y19.772 E12.6408
G1 X113.769 Y20.919 E12.89483
G1 X114.699 Y22.075 E13.14464
G1 X115.7 Y23.276 E13.4079
G1 X116.756 Y24.424 E13.67054
G1 X117.357 Y25.036 E13.81497
G1 X118.134 Y25.795 E13.99786
G1 X118.809 Y26.432 E14.15414
G1 X119.602 Y27.156 E14.33494
G1 X120.466 Y27.921 E14.52925
G1 X121.407 Y28.732 E14.73842
G1 X122.311 Y29.49 E14.93706
G1 X123.376 Y30.361 E15.16872
G1 X124.41 Y31.189 E15.39177
G1 X126.772 Y33.024 E15.8954
G1 X129.102 Y34.784 E16.38707
G1 X130.125 Y35.582 E16.60553
G1 X131.031 Y36.324 E16.80271
G1 X132.015 Y37.18 E17.02232
G1 X132.64 Y37.768 E17.16681
G1 X133.611 Y38.785 E17.40357
G1 X134.6 Y39.983 E17.66514
G1 X135.158 Y40.787 E17.82993
G1 X135.781 Y41.851 E18.03754
G1 X135.932 Y42.172 E18.09727
G1 X137.371 Y42.288 E18.34035
G1 X138.708 Y42.728 E18.57735
G1 X139.797 Y43.188 E18.7764
G1 X140.467 Y43.526 E18.90276
G1 X141.264 Y43.972 E19.05654
G1 X141.929 Y44.376 E19.18756
G1 X143.304 Y45.266 E19.46335
G1 X144.082 Y45.794 E19.62167
G1 X145.602 Y46.871 E19.93534
G1 X147.204 Y48.052 E20.27046
G1 X148.91 Y49.352 E20.63161
G1 X152.19 Y51.976 E21.33888
G1 X153.793 Y53.324 E21.69154
G1 X155.315 Y54.652 E22.03165
G1 X156.697 Y55.913 E22.34666
M117 Time Left 0h34m15s
G1 X157.361 Y56.547 E22.50125
G1 X158.011 Y57.196 E22.65591
G1 X158.629 Y57.842 E22.80644
G1 X159.19 Y58.468 E22.94798
G1 X159.841 Y59.26 E23.1206
G1 X160.22 Y59.783 E23.22936
G1 X161.412 Y61.758 E23.61778
G1 X162.259 Y63.556 E23.95244
G1 X162.921 Y65.412 E24.28424
G1 X163.506 Y67.829 E24.70296
G1 X163.642 Y68.818 E24.87105
G1 X164.587 Y69.403 E25.05819
G1 X165.714 Y70.455 E25.31778
G1 X166.349 Y71.138 E25.47481
G1 X166.637 Y71.485 E25.55074
G1 X167.258 Y72.306 E25.72407
G1 X167.702 Y72.934 E25.85357
G1 X168.397 Y74.003 E26.06827
G1 X169.291 Y75.502 E26.36215
G1 X170.075 Y76.908 E26.63321
G1 X170.886 Y78.43 E26.92359
G1 X171.69 Y80.026 E27.2245
G1 X172.514 Y81.743 E27.54518
G1 X173.993 Y85.069 E28.15808
G1 X174.677 Y86.749 E28.4635
G1 X175.327 Y88.465 E28.77248
G1 X175.909 Y90.145 E29.07185
G1 X176.316 Y91.477 E29.30637
G1 X176.994 Y94.189 E29.77707
G1 X177.404 Y96.301 E30.13932
G1 X177.789 Y98.925 E30.58588
G1 X178.022 Y101.247 E30.97882
G1 X178.141 Y103.627 E31.38006
G1 X178.15 Y104.769 E31.57236
G1 X178.129 Y105.616 E31.71502
G1 X178.042 Y106.934 E31.93743
G1 X177.898 Y108.103 E32.13575
M73 P1
G1 X177.623 Y109.491 E32.374
G1 X177.541 Y109.785 E32.4254
G1 X178.056 Y110.442 E32.56596
G1 X178.736 Y112.021 E32.85544
G1 X179.019 Y113.239 E33.06599
G1 X179.18 Y114.31 E33.24835
G1 X179.243 Y114.999 E33.36484
G1 X179.296 Y115.813 E33.50219
G1 X179.343 Y117.373 E33.76499
G1 X179.353 Y118.295 E33.92024
G1 X179.351 Y120.29 E34.25616
G1 X179.292 Y123.626 E34.81796
G1 X179.212 Y126.05 E35.22633
G1 X179.114 Y128.608 E35.65736
G1 X178.851 Y133.719 E36.51909
G1 X178.697 Y136.251 E36.94621
G1 X178.52 Y138.669 E37.35445
G1 X178.331 Y140.953 E37.74034
G1 X178.123 Y143.061 E38.09701
G1 X177.9 Y144.903 E38.40943
G1 X177.772 Y145.79 E38.56033
G1 X177.639 Y146.574 E38.69422
G1 X177.029 Y149.692 E39.22918
G1 X176.331 Y152.751 E39.75749
G1 X175.547 Y155.756 E40.28041
G1 X174.703 Y158.627 E40.78428
G1 X173.795 Y161.384 E41.27303
G1 X173.293 Y162.786 E41.52378
G1 X172.796 Y164.088 E41.75844
G1 X172.297 Y165.324 E41.98287
G1 X171.752 Y166.57 E42.21187
G1 X171.183 Y167.793 E42.43899
G1 X170.663 Y168.828 E42.63402
G1 X169.664 Y170.618 E42.97918
G1 X168.423 Y172.582 E43.37037
G1 X167.243 Y174.227 E43.71124
G1 X166.268 Y175.441 E43.97342
G1 X164.575 Y177.29 E44.39555
G1 X163.341 Y178.471 E44.68315
G1 X161.861 Y179.721 E45.00934
G1 X159.972 Y181.1 E45.40315
G1 X158.573 Y181.981 E45.68153
G1 X156.793 Y182.949 E46.0227
G1 X154.775 Y183.869 E46.39613
G1 X152.925 Y184.566 E46.72901
G1 X151.969 Y184.859 E46.89737
G1 X151.969 Y189.818 E47.73236
G1 X151.698 Y191.492 E48.0179
G1 X150.953 Y193.22 E48.33475
G1 X150.051 Y194.407 E48.58577
G1 X148.568 Y195.89 E48.93891
G1 X147.226 Y196.868 E49.21852
G1 X145.776 Y197.436 E49.48073
G1 X145.035 Y197.645 E49.61037
G1 X143.876 Y197.761 E49.80649
G1 X139.834 Y197.777 E50.48709
G1 X138.154 Y197.506 E50.77362
G1 X136.426 Y196.761 E51.09047
G1 X135.239 Y195.859 E51.3415
G1 X133.756 Y194.376 E51.69464
M117 Time Left 0h34m00s
G1 X132.778 Y193.034 E51.97424
G1 X132.21 Y191.584 E52.23645
G1 X132.001 Y190.843 E52.36609
G1 X131.885 Y189.684 E52.56222
G1 X131.872 Y185.488 E53.26874
G1 X130.396 Y185.135 E53.52428
G1 X128.89 Y184.688 E53.78879
G1 X127.027 Y184.02 E54.12204
G1 X125.623 Y183.425 E54.3788
G1 X123.897 Y182.585 E54.70201
G1 X122.644 Y181.888 E54.94343
G1 X121.14 Y180.951 E55.2418
G1 X119.667 Y179.921 E55.54445
G1 X118.181 Y178.768 E55.86114
G1 X116.841 Y177.627 E56.15748
G1 X116.191 Y177.023 E56.30689
G1 X115.394 Y178.057 E56.52671
G1 X114.259 Y179.465 E56.83123
G1 X113.043 Y180.893 E57.14704
G1 X111.877 Y182.18 E57.43945
G1 X110.69 Y183.409 E57.72715
G1 X109.717 Y184.339 E57.95378
G1 X108.329 Y185.549 E58.26383
G1 X107.089 Y186.524 E58.52943
G1 X105.619 Y187.553 E58.83157
G1 X104.298 Y188.37 E59.0931
G1 X103.17 Y188.99 E59.30983
G1 X101.444 Y189.82 E59.63231
G1 X100.328 Y190.286 E59.83595
G1 X98.734 Y190.868 E60.12168
G1 X97.111 Y191.377 E60.40808
G1 X95.788 Y191.73 E60.63864
G1 X95.788 Y195.848 E61.33202
G1 X95.517 Y197.522 E61.61756
G1 X94.772 Y199.25 E61.93441
G1 X93.87 Y200.437 E62.18544
G1 X92.387 Y201.92 E62.53857
G1 X91.045 Y202.898 E62.81818
G1 X89.595 Y203.466 E63.08039
G1 X88.854 Y203.675 E63.21003
G1 X87.695 Y203.791 E63.40616
G1 X83.653 Y203.807 E64.08675
G1 X81.973 Y203.536 E64.37329
G1 X80.245 Y202.791 E64.69013
G1 X79.058 Y201.889 E64.94116
G1 X77.575 Y200.406 E65.2943
G1 X76.597 Y199.064 E65.5739
G1 X76.029 Y197.614 E65.83612
G1 X75.82 Y196.873 E65.96575
G1 X75.704 Y195.714 E66.16188
G1 X75.69 Y190.647 E67.01506
G1 X74.126 Y190.071 E67.2957
G1 X72.641 Y189.457 E67.56627
G1 X70.699 Y188.568 E67.9259
G1 X69.216 Y187.82 E68.20557
G1 X67.443 Y186.843 E68.54643
G1 X65.968 Y185.958 E68.83607
G1 X64.274 Y184.856 E69.17634
G1 X62.871 Y183.867 E69.46538
G1 X61.31 Y182.679 E69.79568
G1 X59.949 Y181.568 E70.0915
G1 X58.545 Y180.332 E70.40646
G1 X57.18 Y179.042 E70.7227
G1 X55.935 Y177.78 E71.02119
G1 X54.625 Y176.357 E71.34687
G1 X53.465 Y175.007 E71.64657
G1 X52.305 Y173.56 E71.95884
G1 X51.202 Y172.078 E72.26991
G1 X50.149 Y170.557 E72.5814
G1 X49.106 Y168.936 E72.90596
G1 X48.193 Y167.401 E73.20668
G1 X47.262 Y165.721 E73.53009
G1 X46.443 Y164.114 E73.83379
G1 X45.646 Y162.405 E74.15131
G1 X44.907 Y160.676 E74.46791
M73 P2
G1 X44.206 Y158.864 E74.79505
G1 X43.597 Y157.132 E75.10419
G1 X43.052 Y155.4 E75.40992
G1 X42.505 Y153.433 E75.75369
G1 X42.09 Y151.726 E76.04948
G1 X41.665 Y149.674 E76.40233
G1 X41.361 Y147.92 E76.70207
G1 X41.077 Y145.868 E77.05088
G1 X40.951 Y144.648 E77.2574
G1 X40.853 Y143.379 E77.47171
G1 X40.747 Y140.966 E77.8784
G1 X40.728 Y138.534 E78.28791
G1 X40.787 Y136.349 E78.65595
G1 X40.858 Y135.151 E78.85802
G1 X40.94 Y134.077 E79.03939
G1 X41.048 Y133.088 E79.20691
G1 X41.247 Y131.789 E79.42818
G1 X41.432 Y130.939 E79.57466
G1 X41.832 Y129.535 E79.82047
G1 X42.561 Y128.137 E80.08595
G1 X42.728 Y127.894 E80.13559
G1 X42.212 Y126.69 E80.35616
M117 Time Left 0h33m45s
G1 X41.636 Y124.947 E80.66525
G1 X41.153 Y122.934 E81.01382
G1 X40.934 Y121.576 E81.24543
G1 X40.74 Y119.678 E81.56668
G1 X40.659 Y118.015 E81.84703
G1 X40.644 Y116.253 E82.14372
G1 X40.688 Y114.744 E82.39792
G1 X40.82 Y112.704 E82.74213
G1 X40.986 Y111.002 E83.03007
G1 X41.239 Y109.068 E83.35849
G1 X41.536 Y107.233 E83.67149
G1 X41.89 Y105.411 E83.98401
G1 X42.268 Y103.747 E84.27133
G1 X42.778 Y101.808 E84.60893
G1 X43.313 Y100.04 E84.91995
G1 X43.833 Y98.535 E85.18806
G1 X44.507 Y96.822 E85.49802
G1 X45.074 Y95.487 E85.74224
G1 X44.997 Y95.063 E85.8148
G1 X44.826 Y93.281 E86.11623
G1 X44.779 Y91.973 E86.33661
G1 X44.77 Y90.476 E86.58868
G1 X44.807 Y88.756 E86.87836
G1 X44.89 Y87.255 E87.13149
G1 X45.075 Y85.248 E87.47086
G1 X45.294 Y83.473 E87.772
G1 X45.571 Y81.68 E88.07748
G1 X45.922 Y79.792 E88.40083
G1 X46.655 Y76.573 E88.95672
G1 X47.793 Y72.601 E89.65243
G1 X49.016 Y69.051 E90.28465
G1 X50.338 Y65.774 E90.87964
G1 X51.903 Y62.408 E91.50467
G1 X52.555 Y61.149 E91.7434
G1 X53.095 Y60.182 E91.92989
G1 X53.646 Y59.266 E92.10988
G1 X54.236 Y58.369 E92.29066
G1 X54.798 Y57.609 E92.44982
G1 X55.638 Y56.614 E92.66907
G0 F6000 X56.282 Y57.247
G1 F600 X57.219 Y56.425 E92.87895
G1 X58.37 Y55.702 E93.10782
G1 X59.579 Y55.246 E93.32539
G1 X60.726 Y55.041 E93.52158
G1 X62.05 Y55.056 E93.74453
G1 X63.265 Y55.249 E93.95167
G1 X64.151 Y55.576 E94.11069
G1 X64.85 Y53.87 E94.42113
G1 X65.632 Y52.391 E94.70283
G1 X66.233 Y51.438 E94.89254
G1 X66.813 Y50.619 E95.06152
G1 X67.46 Y49.783 E95.23952
G1 X68.233 Y48.852 E95.44327
G1 X69.47 Y47.484 E95.75382
G1 X71.315 Y45.638 E96.19328
G1 X72.832 Y44.248 E96.53972
G1 X74.687 Y42.689 E96.94772
G1 X76.733 Y41.134 E97.38043
G1 X78.434 Y39.978 E97.72673
G1 X82.181 Y37.561 E98.47752
G1 X84.398 Y36.095 E98.92505
G1 X85.354 Y35.45 E99.11923
G1 X87.314 Y34.1 E99.51996
G1 X88.956 Y32.93 E99.85945
G1 X90.529 Y31.763 E100.18924
G1 X91.88 Y30.709 E100.47776
G1 X93.13 Y29.681 E100.75027
G1 X94.042 Y28.877 E100.95498
G1 X95.001 Y27.966 E101.1777
G1 X95.707 Y27.235 E101.34882
G1 X96.373 Y26.474 E101.5191
G1 X96.9 Y25.807 E101.66223
G1 X97.405 Y25.091 E101.80976
G1 X97.782 Y24.485 E101.92994
G1 X98.975 Y22.282 E102.35178
G1 X99.565 Y21.274 E102.54844
G1 X100.056 Y20.511 E102.70121
G1 X100.632 Y19.69 E102.87008
G1 X101.449 Y18.855 E103.06678
G1 X102.436 Y18.125 E103.27349
G1 X103.55 Y17.55 E103.48458
G1 X104.668 Y17.212 E103.68124
G1 X106.222 Y17.041 E103.94448
G1 X107.603 Y17.256 E104.17982
G1 X108.769 Y17.628 E104.3859
G1 X109.143 Y17.794 E104.4548
G1 X110.303 Y18.547 E104.68766
G1 X111.188 Y19.371 E104.89127
G1 X111.632 Y19.83 E104.99879
G1 X112.105 Y20.357 E105.11803
G1 X113.068 Y21.484 E105.36763
G1 X113.999 Y22.64 E105.61756
G1 X115.022 Y23.868 E105.88668
G1 X116.114 Y25.055 E106.15825
G1 X116.728 Y25.68 E106.30578
G1 X117.505 Y26.439 E106.48867
G1 X118.202 Y27.097 E106.65007
G1 X119.005 Y27.83 E106.83314
M117 Time Left 0h33m30s
G1 X119.878 Y28.603 E107.02947
G1 X120.819 Y29.414 E107.23864
G1 X121.741 Y30.187 E107.44123
G1 X122.813 Y31.064 E107.67444
G1 X123.847 Y31.892 E107.89749
G1 X126.22 Y33.735 E108.40341
G1 X128.548 Y35.493 E108.89461
G1 X129.555 Y36.279 E109.1097
G1 X130.44 Y37.003 E109.30223
G1 X131.398 Y37.836 E109.51599
G1 X132.023 Y38.424 E109.66048
G1 X132.918 Y39.359 E109.87841
G1 X133.862 Y40.498 E110.1275
G1 X134.381 Y41.242 E110.28025
M73 P3
G1 X135.004 Y42.306 E110.48786
G1 X135.35 Y43.069 E110.62892
G1 X135.68 Y43.054 E110.68454
G1 X137.191 Y43.176 E110.93979
G1 X138.427 Y43.583 E111.1589
G1 X139.445 Y44.016 E111.34517
G1 X140.028 Y44.312 E111.45527
G1 X140.797 Y44.742 E111.60362
G1 X141.44 Y45.132 E111.73025
G1 X142.798 Y46.01 E112.00253
G1 X143.562 Y46.529 E112.15805
G1 X145.068 Y47.595 E112.46873
G1 X146.659 Y48.768 E112.80156
G1 X148.348 Y50.055 E113.1591
G1 X151.611 Y52.665 E113.86267
G1 X153.201 Y54.002 E114.21246
G1 X154.708 Y55.317 E114.54923
G1 X156.075 Y56.564 E114.86079
G1 X156.739 Y57.198 E115.01537
G1 X157.361 Y57.818 E115.16325
G1 X157.959 Y58.443 E115.3089
G1 X158.52 Y59.069 E115.45043
G1 X159.115 Y59.793 E115.60823
G1 X159.449 Y60.248 E115.70327
G1 X160.641 Y62.223 E116.09169
G1 X161.444 Y63.938 E116.41055
G1 X162.047 Y65.625 E116.7122
G1 X162.614 Y67.952 E117.11549
G1 X162.808 Y69.36 E117.3548
G1 X164.037 Y70.121 E117.5982
G1 X165.056 Y71.069 E117.83255
G1 X165.656 Y71.713 E117.98076
G1 X165.944 Y72.06 E118.05669
G1 X166.523 Y72.825 E118.21823
G1 X166.947 Y73.425 E118.34194
G1 X167.642 Y74.494 E118.55663
G1 X168.505 Y75.94 E118.84017
G1 X169.281 Y77.331 E119.10837
G1 X170.082 Y78.835 E119.39529
G1 X170.879 Y80.415 E119.69326
G1 X171.692 Y82.109 E120.00964
G1 X173.159 Y85.408 E120.61757
G1 X173.843 Y87.088 E120.923
G1 X174.477 Y88.759 E121.22393
G1 X175.048 Y90.408 E121.51776
G1 X175.455 Y91.74 E121.75228
G1 X176.11 Y94.361 E122.20718
G1 X176.52 Y96.473 E122.56943
G1 X176.893 Y99.015 E123.00204
G1 X177.126 Y101.337 E123.39498
G1 X177.241 Y103.634 E123.78223
G1 X177.25 Y104.747 E123.96964
G1 X177.229 Y105.594 E124.1123
G1 X177.144 Y106.874 E124.3283
G1 X177.015 Y107.928 E124.5071
G1 X176.74 Y109.316 E124.74535
G1 X176.547 Y109.977 E124.8613
G1 X177.275 Y110.905 E125.0599
G1 X177.877 Y112.303 E125.31619
G1 X178.142 Y113.443 E125.51326
G1 X178.284 Y114.392 E125.67483
G1 X178.345 Y115.057 E125.78727
G1 X178.396 Y115.84 E125.91939
G1 X178.443 Y117.383 E126.17932
G1 X178.453 Y118.294 E126.33273
G1 X178.451 Y120.274 E126.66612
G1 X178.392 Y123.597 E127.22573
G1 X178.313 Y126.015 E127.63309
G1 X178.215 Y128.562 E128.06227
G1 X177.953 Y133.664 E128.92247
G1 X177.799 Y136.185 E129.34775
G1 X177.623 Y138.595 E129.75462
G1 X177.435 Y140.865 E130.13815
G1 X177.229 Y142.953 E130.49144
G1 X177.009 Y144.775 E130.80045
G1 X176.885 Y145.64 E130.94759
G1 X176.756 Y146.401 E131.07755
G1 X176.151 Y149.492 E131.60789
G1 X175.46 Y152.524 E132.13151
G1 X174.684 Y155.502 E132.64969
G1 X173.848 Y158.345 E133.14866
G1 X172.94 Y161.102 E133.63741
G1 X172.452 Y162.465 E133.88117
M117 Time Left 0h33m15s
G1 X171.961 Y163.751 E134.11296
G1 X171.472 Y164.963 E134.33302
G1 X170.927 Y166.209 E134.56201
G1 X170.378 Y167.39 E134.7813
G1 X169.877 Y168.389 E134.96948
G1 X168.878 Y170.179 E135.31464
G1 X167.692 Y172.058 E135.68878
G1 X166.541 Y173.663 E136.02134
G1 X165.566 Y174.877 E136.28351
G1 X163.952 Y176.64 E136.68598
G1 X162.76 Y177.783 E136.96405
G1 X161.28 Y179.033 E137.29024
