;FLAVOR:Marlin
M73 P0


; Pre-Processed for Cancel-Object support by preprocess_cancellation v0.2.0
; 1 known objects
EXCLUDE_OBJECT_DEFINE NAME=MONSTERAsupportLEAF_stl CENTER=110.759,109.898 POLYGON=[[34.029,3.735],[34.029,216.32],[186.024,216.32],[186.024,3.735]]
M117 Time Left 0h42m52s
;TIME:2572
;Filament used: 4.9854m
;Layer height: 0.3
;MINX:34.029
;MINY:3.735
;MINZ:0.45
;MAXX:186.024
;MAXY:216.32
;MAXZ:5.15
;TARGET_MACHINE.NAME:Creality Ender-3
;POSTPROCESSED
;  [InsertAtLayerChange]
;  [MeshPrintSize]
;  [DisplayProgressOnLCD]
;  [DisplayFilenameAndLayerOnLCD]
;KLIPPERSETTINGSPROCESSED
SET_RETRACTION RETRACT_LENGTH=6 RETRACT_SPEED=20 UNRETRACT_SPEED=20 ;KlipperSettingsPlugin

;Generated with Cura_SteamEngine 5.6.0
M82 ;absolute extrusion mode
;Nozzle diameter = 0.6
;Filament type = PLA
;Filament name = Rose
START_PRINT PRINT_MIN=34.029,3.735 PRINT_MAX=186.024,216.32 BED_TEMP=65 EXTRUDER_TEMP=215
G92 E0
G92 E0
G10
;LAYER_COUNT:16
TIMELAPSE_TAKE_FRAME
;LAYER:0
M117 Printing MONSTERAsupportLEAF - Layer 0 of 15
M107
G1 F300 Z0.65
;MESH:MONSTERAsupportLEAF.stl
EXCLUDE_OBJECT_START NAME=MONSTERAsupportLEAF_stl
G0 F6000 X49.668 Y52.515 Z0.65
;TYPE:WALL-INNER
G1 F300 Z0.45
G11
G1 F653.8 X49.566 Y52.515 E0.01576
G1 X49.514 Y52.604 E0.03169
G1 X49.566 Y52.693 E0.04762
G1 X49.668 Y52.693 E0.06338
G1 X49.72 Y52.604 E0.07931
G10
G1 F300 Z0.65
G0 F6000 X105.368 Y5.362 Z0.65
G1 F300 Z0.45
G11
G1 F650.6 X105.316 Y5.451 E0.09532
G1 X105.214 Y5.451 E0.11116
G1 X105.162 Y5.362 E0.12716
G1 X105.214 Y5.273 E0.14317
G1 X105.316 Y5.273 E0.15901
G10
G1 F300 Z0.65
G0 F6000 X171.719 Y69.162 Z0.65
G1 F300 Z0.45
G11
G1 F483.9 X171.581 Y69.162 E0.18782
G1 X171.511 Y69.282 E0.21683
G1 X171.581 Y69.402 E0.24583
G1 X171.719 Y69.402 E0.27465
G1 X171.789 Y69.282 E0.30365
G10
G1 F300 Z0.65
G0 F6000 X184.986 Y117.026 Z0.65
G1 F300 Z0.45
G11
G1 F633.8 X184.882 Y117.026 E0.32023
G1 X184.828 Y117.117 E0.3371
G1 X184.881 Y117.208 E0.35388
G1 X184.986 Y117.208 E0.37062
G1 X185.04 Y117.117 E0.38749
G10
G1 F300 Z0.65
G0 F6000 X151.12 Y194.959 Z0.65
G1 F300 Z0.45
G11
G1 F600 X149.921 Y195.064 E0.59015
G1 X147.88 Y195.11 E0.9339
G1 X147.88 Y207.609 E3.03847
G1 X148.078 Y207.807 E3.08562
G1 X150.922 Y207.807 E3.56449
G1 X151.12 Y207.609 E3.61164
G1 X151.12 Y194.959 E5.74164
G10
G1 F300 Z0.65
G0 F6000 X81.753 Y202.497 Z0.65
G1 F300 Z0.45
G11
G1 F600 X80.556 Y202.466 E5.94326
G1 X78.6 Y202.306 E6.27371
G1 X78.324 Y202.267 E6.32064
G1 X78.356 Y202.371 E6.33896
G1 X78.356 Y215.072 E8.47755
G1 X78.554 Y215.27 E8.5247
G1 X81.398 Y215.27 E9.00357
G1 X81.596 Y215.072 E9.05072
G1 X81.596 Y202.771 E11.12196
G1 X81.753 Y202.497 E11.17513
G0 F6000 X82.75 Y202.375
;TYPE:WALL-OUTER
G1 F648.3 X84.961 Y202.302 E11.51989
G1 F645.9 X86.705 Y202.153 E11.79365
G1 F634.5 X88.348 Y201.918 E12.0579
G1 F630.1 X89.825 Y201.604 E12.30001
G1 F630.8 X91.426 Y201.164 E12.56591
G1 F626.5 X92.856 Y200.703 E12.80821
G1 F612.9 X94.249 Y200.183 E13.05329
G1 F593.4 X95.586 Y199.608 E13.30107
G1 F575.1 X96.863 Y198.979 E13.55115
G1 F560.2 X98.094 Y198.288 E13.80575
G1 F548.2 X99.292 Y197.525 E14.06749
G1 F538.9 X100.466 Y196.685 E14.33811
G1 F537.8 X100.996 Y196.273 E14.4642
G1 F536.8 X101.624 Y195.768 E14.61587
G1 F535.7 X102.796 Y194.749 E14.90875
G1 F541.1 X103.971 Y193.634 E15.2112
G1 F548.2 X105.162 Y192.408 E15.52618
G1 F556.1 X106.381 Y191.064 E15.85581
G1 F564.9 X107.637 Y189.593 E16.20176
G1 F572 X108.935 Y187.989 E16.56618
G1 F575.7 X111.29 Y184.93 E17.24366
G1 F571.4 X112.499 Y183.394 E17.58925
M117 Time Left 0h42m37s
G1 F566.6 X113.186 Y182.55 E17.78328
G1 F567.8 X114.038 Y181.541 E18.01824
G1 F570.8 X114.792 Y180.689 E18.2196
G1 F576.3 X115.428 Y180.019 E18.38155
G1 F585 X115.86 Y179.616 E18.48357
G1 F603.4 X116.08 Y179.446 E18.53012
G1 F622.8 X116.364 Y179.289 E18.58276
G1 F628.6 X116.785 Y179.244 E18.6508
G1 F607.4 X117.024 Y179.269 E18.69077
G1 F569 X117.55 Y179.448 E18.78942
G1 F544.9 X118.076 Y179.74 E18.90096
G1 F529.4 X118.316 Y179.9 E18.956
G1 F518.7 X118.773 Y180.23 E19.06579
G1 F512.8 X119.036 Y180.439 E19.13197
G1 F512.3 X119.551 Y180.876 E19.26515
G1 F515.8 X119.812 Y181.113 E19.33421
G1 F526.3 X120.415 Y181.688 E19.49415
G1 F554.4 X121.401 Y182.68 E19.74902
G1 F587 X122.382 Y183.705 E19.99322
G1 F606.1 X123.823 Y185.149 E20.33328
G1 F610.9 X125.155 Y186.378 E20.63302
G1 F615.7 X125.964 Y187.072 E20.80791
G1 F616.4 X126.498 Y187.515 E20.92162
G1 F612.9 X127.85 Y188.563 E21.20357
G1 F611.6 X129.208 Y189.505 E21.4766
G1 F612.2 X129.808 Y189.887 E21.59397
G1 X130.604 Y190.376 E21.74813
G1 X132.009 Y191.159 E22.01354
G1 F619.3 X133.446 Y191.858 E22.27424
G1 F627.9 X133.942 Y192.074 E22.36128
G1 F633.8 X134.922 Y192.481 E22.53043
G1 F642.9 X136.419 Y193.026 E22.7808
G1 F665 X137.974 Y193.497 E23.02762
G1 F687.9 X139.347 Y193.835 E23.23529
G1 F596.7 X139.591 Y193.757 E23.27866
G1 F422.5 X140.021 Y193.594 E23.38861
G1 X139.7 Y193.264 E23.49869
G1 F596.7 X139.532 Y193.085 E23.54025
G1 F693.2 X138.473 Y192.817 E23.69946
G1 F670.8 X136.348 Y192.13 E24.0358
G1 F643.6 X135.228 Y191.685 E24.22498
G1 F633.8 X134.241 Y191.275 E24.39534
G1 F625.7 X132.219 Y190.283 E24.75898
G1 F612.9 X131.044 Y189.604 E24.98266
G1 F611.6 X130.25 Y189.132 E25.13525
G1 F615 X128.349 Y187.84 E25.51281
G1 F617.1 X126.5 Y186.388 E25.89767
G1 F618.6 X124.75 Y184.824 E26.28101
G1 F609.5 X123.04 Y183.095 E26.6841
G1 F587 X122.078 Y182.022 E26.93214
G1 F559 X121.411 Y181.288 E27.11139
G1 F530.5 X120.535 Y180.355 E27.35513
G1 F512.3 X119.704 Y179.614 E27.57468
G1 F515.3 X118.882 Y179.033 E27.77204
G1 F534.7 X118.119 Y178.644 E27.93388
G1 F562.5 X117.749 Y178.525 E28.00368
G1 F581.9 X117.369 Y178.42 E28.07213
G1 F595.4 X116.698 Y178.369 E28.18632
G1 F620 X116.242 Y178.457 E28.262
G1 F631.6 X115.957 Y178.531 E28.3091
G1 F621.4 X115.621 Y178.707 E28.37076
G1 F603.4 X115.304 Y178.891 E28.43214
G1 F585 X114.935 Y179.198 E28.51503
G1 F576.9 X114.498 Y179.627 E28.62226
G1 F571.4 X113.913 Y180.25 E28.77336
G1 F568.4 X113.246 Y181.003 E28.95215
G1 F567.2 X112.518 Y181.863 E29.15283
G1 F566.6 X111.753 Y182.802 E29.36878
G1 F571.4 X110.192 Y184.82 E29.81984
G1 F578.8 X108.76 Y186.701 E30.23249
G1 X107.348 Y188.465 E30.6269
G1 F570.8 X105.951 Y190.103 E31.00792
M73 P1
G1 F560.2 X104.56 Y191.625 E31.37979
G1 F549.3 X103.167 Y193.033 E31.74404
G1 F542.7 X101.766 Y194.326 E32.09894
G1 F540 X100.365 Y195.495 E32.44031
G1 F542.2 X98.956 Y196.55 E32.7683
G1 F549.3 X97.541 Y197.483 E33.08001
G1 F564.9 X96.093 Y198.318 E33.37897
G1 F587.6 X94.59 Y199.062 E33.66731
G1 F610.9 X93.109 Y199.687 E33.93317
G1 F628.6 X91.648 Y200.205 E34.18229
G1 F636.8 X90.088 Y200.661 E34.44014
G1 X88.482 Y201.025 E34.70139
G1 F639.1 X86.876 Y201.283 E34.95854
G1 F650.6 X84.732 Y201.492 E35.29305
G1 F660.1 X82.76 Y201.565 E35.59504
G1 F646.7 X82.524 Y201.591 E35.63213
G1 F616.4 X81.339 Y201.587 E35.82634
G1 F600 X80.628 Y201.569 E35.9461
G1 X78.724 Y201.414 E36.26776
G1 X77.881 Y201.296 E36.41108
G1 F629.4 X77.189 Y201.159 E36.52432
G1 F661.8 X76.84 Y201.108 E36.57817
G1 F654.5 X74.908 Y200.739 E36.88176
M117 Time Left 0h42m22s
G1 F639.1 X74.174 Y200.561 E37.00116
G1 F630.1 X73.077 Y200.279 E37.18276
G1 F628.6 X71.199 Y199.692 E37.49897
G1 F630.8 X69.341 Y198.998 E37.81661
G1 F630.1 X67.492 Y198.206 E38.13912
G1 F621.4 X65.619 Y197.295 E38.47774
G1 F608.1 X63.766 Y196.29 E38.82795
G1 F591.5 X61.925 Y195.183 E39.19488
G1 F572 X60.085 Y193.965 E39.5846
G1 F553.3 X58.248 Y192.64 E39.99818
G1 F538.4 X56.424 Y191.205 E40.43368
G1 F528.9 X54.618 Y189.666 E40.88693
G1 F523.8 X52.811 Y188.01 E41.3597
G1 F522.7 X51.085 Y186.293 E41.83021
G1 F526.3 X50.64 Y185.839 E41.95224
G1 F529.4 X49.791 Y184.915 E42.1917
G1 F535.2 X48.616 Y183.612 E42.52291
G1 F552.1 X46.757 Y181.344 E43.05948
G1 F572.6 X45.014 Y178.991 E43.57609
G1 F596.7 X43.424 Y176.585 E44.06438
G1 F621.4 X41.975 Y174.131 E44.52771
G1 F642.9 X40.668 Y171.62 E44.97258
G1 F660.1 X39.498 Y169.05 E45.40473
G1 F670.8 X38.467 Y166.429 E45.82891
G1 F674.2 X37.566 Y163.732 E46.25503
G1 F669.1 X36.803 Y160.982 E46.68591
G1 F658.5 X36.176 Y158.164 E47.1288
G1 F642.9 X35.684 Y155.285 E47.58781
G1 F625.7 X35.33 Y152.342 E48.0664
G1 F612.9 X35.218 Y150.792 E48.32255
G1 F613.6 X35.127 Y149.319 E48.56552
G1 F618.6 X35.058 Y146.254 E49.06625
G1 X35.069 Y144.936 E49.28152
G1 F620 X35.099 Y143.725 E49.47892
G1 F619.3 X35.143 Y142.631 E49.65754
G1 F617.8 X35.197 Y141.757 E49.80072
G1 F615 X35.278 Y140.834 E49.95292
G1 F606.7 X35.358 Y140.274 E50.04711
G1 F586.3 X35.468 Y139.805 E50.13012
G1 F532.5 X35.674 Y139.426 E50.21195
G1 F498.6 X35.804 Y139.435 E50.23836
G1 F547.7 X36.203 Y139.571 E50.31612
G1 F608.1 X37.496 Y140.377 E50.56925
G1 F619.3 X40.244 Y142.164 E51.10401
G1 F630.8 X42.552 Y143.68 E51.54624
G1 X44.891 Y145.148 E51.98849
G1 F629.4 X47.372 Y146.585 E52.44872
G1 F630.8 X50.073 Y148.048 E52.94066
G1 F634.5 X52.908 Y149.494 E53.44735
G1 F633.8 X55.863 Y150.907 E53.96945
G1 X58.881 Y152.282 E54.49809
G1 F633.1 X61.928 Y153.586 E55.02701
G1 F633.8 X63.35 Y154.17 E55.27205
G1 F631.6 X64.974 Y154.819 E55.5518
G1 F624.3 X68.062 Y156.003 E56.08701
G1 F618.6 X70.837 Y156.982 E56.56762
G1 F617.1 X73.671 Y157.924 E57.05651
G1 F622.8 X76.302 Y158.713 E57.50205
G1 F629.4 X77.544 Y159.054 E57.7088
G1 F638.3 X78.729 Y159.361 E57.90255
G1 F649 X79.945 Y159.646 E58.09695
G1 F658.5 X80.928 Y159.845 E58.25082
G1 F667.5 X81.921 Y160.02 E58.40343
G1 F675 X82.923 Y160.159 E58.55483
G1 F685.3 X83.68 Y160.231 E58.66694
G1 F696.8 X84.446 Y160.263 E58.7781
G1 F718.1 X85.52 Y160.243 E58.92923
G1 F728.7 X86.055 Y160.218 E59.00348
G1 F730.7 X86.833 Y160.132 E59.1117
G1 F723.9 X87.509 Y160.033 E59.20705
G1 F708.7 X88.178 Y159.879 E59.30492
G1 F688.8 X88.758 Y159.724 E59.39298
G1 F667.5 X89.238 Y159.544 E59.47057
G1 F645.2 X89.811 Y159.304 E59.56785
G1 F620.7 X90.216 Y159.086 E59.64271
G1 F612.2 X90.601 Y158.832 E59.71882
G1 F604 X90.897 Y158.583 E59.78352
G1 F594.7 X91.139 Y158.311 E59.84537
G1 F579.4 X91.327 Y158.013 E59.9068
G1 F565.4 X91.444 Y157.747 E59.95872
G1 F553.8 X91.514 Y157.445 E60.01527
G1 F540 X91.529 Y157.117 E60.0767
G1 F525.3 X91.471 Y156.567 E60.18307
G1 F511.4 X91.36 Y156.384 E60.22535
G1 F508 X91.18 Y156.189 E60.27813
G1 F523.3 X90.899 Y155.949 E60.34948
G1 F547.7 X90.327 Y155.579 E60.47515
G1 F566.6 X89.611 Y155.197 E60.61984
G1 F577.5 X88.626 Y154.731 E60.81045
G1 F581.9 X87.456 Y154.218 E61.03225
G1 X85.964 Y153.59 E61.3133
G1 F581.3 X84.167 Y152.851 E61.65101
G1 F586.3 X78.866 Y150.72 E62.63546
G1 F596.7 X73.565 Y148.588 E63.60287
M117 Time Left 0h42m07s
G1 F611.6 X69.158 Y146.808 E64.38804
G1 F627.2 X65.044 Y145.107 E65.10515
G1 F633.8 X61.406 Y143.566 E65.73492
G1 F634.5 X58.018 Y142.088 E66.32342
G1 F631.6 X54.91 Y140.682 E66.86909
G1 F627.2 X53.458 Y140.005 E67.12715
G1 F624.3 X52.033 Y139.326 E67.3826
G1 F617.1 X49.501 Y138.071 E67.84522
G1 F610.2 X48.308 Y137.454 E68.0676
G1 F606.1 X47.181 Y136.851 E68.28067
G1 F602 X46.113 Y136.262 E68.48535
G1 F598 X45.104 Y135.681 E68.68205
G1 F594.7 X43.271 Y134.558 E69.04722
G1 F592.8 X41.67 Y133.474 E69.37676
G1 F594.7 X40.295 Y132.427 E69.67034
G1 F604.7 X39.106 Y131.38 E69.93503
G1 F617.1 X38.369 Y130.615 E70.10892
G1 F628.6 X38.167 Y130.394 E70.15704
G1 F643.6 X37.393 Y129.409 E70.35368
G1 F657.7 X36.795 Y128.416 E70.53172
G1 F665 X36.465 Y127.718 E70.64901
G1 F661 X36.173 Y127.003 E70.76706
G1 F650.6 X35.65 Y125.348 E71.03659
G1 F639.8 X35.399 Y124.224 E71.21844
G1 F641.3 X35.259 Y123.54 E71.32842
G1 F645.2 X35.159 Y122.873 E71.43404
G1 F652.2 X34.986 Y121.583 E71.63566
G1 F673.3 X34.837 Y119.546 E71.94212
G1 F695.9 X34.805 Y117.391 E72.25501
G1 F710.5 X34.888 Y115.213 E72.56492
G1 F709.6 X35.095 Y112.963 E72.88662
G1 F697.7 X35.221 Y112.029 E73.02309
G1 F681.8 X35.416 Y110.743 E73.21582
G1 F660.1 X35.85 Y108.37 E73.58501
G1 F639.1 X36.384 Y105.886 E73.98667
G1 F631.6 X36.968 Y103.508 E74.37836
G1 F632.3 X37.27 Y102.404 E74.56123
G1 F636.8 X37.565 Y101.384 E74.72969
G1 F642.9 X37.853 Y100.467 E74.88074
G1 F647.5 X38.125 Y99.668 E75.01243
G1 X38.383 Y98.993 E75.12519
G1 F638.3 X38.621 Y98.466 E75.21671
G1 F596 X38.888 Y98.016 E75.3054
G1 F499.1 X39.197 Y97.713 E75.39301
G1 F472.4 X39.376 Y97.773 E75.43338
G1 F547.7 X39.663 Y97.966 E75.49718
G1 F616.4 X40.056 Y98.352 E75.58746
G1 F641.3 X40.923 Y99.287 E75.78832
G1 F654.5 X41.527 Y99.963 E75.92824
M73 P2
G1 F651.4 X42.513 Y101.105 E76.16225
G1 F620 X44.245 Y103.089 E76.59141
G1 F587.6 X45.054 Y103.956 E76.79529
G1 F576.3 X45.93 Y104.845 E77.01408
G1 F573.2 X46.862 Y105.754 E77.24352
G1 F578.2 X48.917 Y107.623 E77.72892
G1 F592.8 X51.198 Y109.545 E78.2373
G1 F617.1 X53.686 Y111.5 E78.75528
G1 F644.4 X56.379 Y113.48 E79.27933
G1 F662.6 X59.261 Y115.465 E79.81291
G1 F656.9 X62.311 Y117.432 E80.37105
G1 F630.8 X65.439 Y119.338 E80.95766
G1 F602.7 X68.842 Y121.315 E81.61739
G1 F578.2 X72.281 Y123.213 E82.30377
G1 F564.9 X75.81 Y125.082 E83.01801
G1 F563.1 X79.406 Y126.9 E83.74096
G1 F566.6 X83.062 Y128.657 E84.46417
G1 F577.5 X86.719 Y130.327 E85.16743
G1 F593.4 X90.478 Y131.947 E85.8643
G1 F605.4 X91.644 Y132.421 E86.07435
G1 F611.6 X92.717 Y132.836 E86.2644
G1 F620 X93.704 Y133.192 E86.43538
G1 F630.8 X94.561 Y133.475 E86.57992
G1 F643.6 X95.426 Y133.732 E86.72156
G1 F657.7 X96.157 Y133.912 E86.8372
G1 F671.6 X96.793 Y134.03 E86.93449
G1 F680.1 X97.367 Y134.089 E87.02021
G1 F676.7 X97.84 Y134.083 E87.09083
G1 F661 X98.211 Y134.02 E87.14835
G1 F641.3 X98.511 Y133.912 E87.19858
G1 F626.5 X98.715 Y133.784 E87.23742
G1 F620 X98.865 Y133.629 E87.27257
G1 X98.975 Y133.434 E87.30905
G1 F627.9 X99.056 Y133.178 E87.35225
G1 F647.5 X99.099 Y132.848 E87.40418
G1 F668.3 X99.078 Y132.569 E87.44647
G1 F672.5 X99.029 Y132.195 E87.50314
G1 F669.1 X98.826 Y131.86 E87.56228
G1 F675.8 X98.604 Y131.597 E87.61373
G1 F679.2 X98.271 Y131.308 E87.67931
G1 F674.2 X97.798 Y130.97 E87.76643
G1 F667.5 X97.13 Y130.558 E87.88522
G1 F659.3 X96.426 Y130.168 E88.00853
G1 F650.6 X95.492 Y129.682 E88.17203
G1 F644.4 X94.378 Y129.128 E88.36709
G1 F641.3 X93.062 Y128.495 E88.59713
M117 Time Left 0h41m52s
G1 F638.3 X91.528 Y127.775 E88.86534
G1 F636 X85.481 Y125.003 E89.92194
G1 F633.8 X81.864 Y123.317 E90.55805
G1 F634.5 X78.371 Y121.597 E91.17794
G1 F638.3 X75.011 Y119.849 E91.77741
G1 F644.4 X71.777 Y118.067 E92.35632
G1 F652.2 X68.668 Y116.254 E92.91384
G1 F657.7 X65.687 Y114.414 E93.45192
G1 F659.3 X62.823 Y112.54 E93.97635
G1 F656.9 X60.116 Y110.66 E94.4832
G1 F649.8 X57.433 Y108.681 E95.00152
G1 F638.3 X54.952 Y106.727 E95.50137
G1 F622.1 X53.575 Y105.58 E95.7924
G1 F615 X52.568 Y104.726 E96.00929
G1 F606.7 X51.134 Y103.445 E96.32946
G1 F598.7 X50.293 Y102.68 E96.52131
G1 F591.5 X48.911 Y101.355 E96.84834
G1 F584.4 X48.139 Y100.598 E97.03525
G1 F578.8 X46.873 Y99.289 E97.35312
G1 F574.5 X46.103 Y98.474 E97.5503
G1 F573.2 X45.022 Y97.262 E97.83652
G1 F573.9 X44.191 Y96.305 E98.05965
G1 F577.5 X43.352 Y95.283 E98.29095
G1 F588.2 X42.404 Y94.092 E98.55239
G1 F604 X41.846 Y93.358 E98.70661
G1 F612.2 X41.357 Y92.669 E98.84602
G1 F622.8 X40.925 Y91.997 E98.97561
G1 F634.5 X40.579 Y91.368 E99.0899
G1 F653.8 X40.289 Y90.713 E99.2006
G1 F687.9 X40.067 Y90.027 E99.30649
G1 F732.7 X39.904 Y89.297 E99.40963
G1 F778.1 X39.798 Y88.512 E99.51248
G1 F810.8 X39.747 Y87.696 E99.61435
G1 F820.7 X39.737 Y86.771 E99.72823
G1 F806 X39.77 Y85.755 E99.85565
G1 F774.7 X39.84 Y84.691 E99.99469
G1 F734.7 X39.963 Y83.342 E100.18097
G1 F695 X40.126 Y81.91 E100.39048
G1 F662.6 X40.278 Y80.743 E100.56992
G1 F642.1 X40.593 Y78.498 E100.92661
G1 F629.4 X41.057 Y75.804 E101.36542
G1 F620.7 X41.226 Y74.995 E101.49994
G1 F619.3 X41.672 Y72.975 E101.83743
G1 F613.6 X42.135 Y71.103 E102.15491
G1 F609.5 X42.381 Y70.165 E102.31566
G1 F612.9 X43.239 Y67.185 E102.82679
G1 F618.6 X44.185 Y64.318 E103.31988
G1 F622.8 X44.551 Y63.298 E103.49566
G1 F629.4 X45.159 Y61.68 E103.77312
G1 F639.1 X46.177 Y59.196 E104.19751
G1 F641.3 X46.701 Y58.047 E104.39644
G1 F640.6 X47.213 Y56.982 E104.58281
G1 F628.6 X47.825 Y55.749 E104.80403
G1 F630.8 X48.898 Y53.666 E105.17928
G1 F620.7 X49.167 Y53.44 E105.23646
G1 F600 X49.493 Y53.462 E105.29148
G1 F593.4 X49.73 Y53.621 E105.34007
