;FLAVOR:Marlin
M73 P0


; Pre-Processed for Cancel-Object support by preprocess_cancellation v0.2.0
; 1 known objects
EXCLUDE_OBJECT_DEFINE NAME=parametrizable_rugged_box_v2_top_115x100_stl CENTER=113.148,109.880 POLYGON=[[41.18,41.179],[41.18,178.821],[178.82,178.821],[178.82,41.179]]
M117 Time Left 6h14m37s
;TIME:22477
;Filament used: 33.8153m
;Layer height: 0.3
;MINX:39.38
;MINY:39.379
;MINZ:0.42
;MAXX:180.62
;MAXY:180.621
;MAXZ:39.32
;TARGET_MACHINE.NAME:Creality Ender-3
;POSTPROCESSED
;  [InsertAtLayerChange]
;  [MeshPrintSize]
;  [DisplayProgressOnLCD]
;  [DisplayFilenameAndLayerOnLCD]
;KLIPPERSETTINGSPROCESSED
SET_RETRACTION RETRACT_LENGTH=4 RETRACT_SPEED=45 UNRETRACT_SPEED=45 ;KlipperSettingsPlugin

;Generated with Cura_SteamEngine 5.6.0
M82 ;absolute extrusion mode
;Nozzle diameter = 0.6
;Filament type = PLA
;Filament name = PLA
START_PRINT PRINT_MIN=39.38,39.379 PRINT_MAX=180.62,180.621 BED_TEMP=60.0 EXTRUDER_TEMP=200.0
G92 E0
G92 E0
G10
;LAYER_COUNT:130
TIMELAPSE_TAKE_FRAME
;LAYER:0
M117 Printing parametrizable-rugged-box-v2-top-115x100 - Layer 0 of 129
M107
G1 F300 Z0.62
G0 F6000 X47.532 Y47.285 Z0.62
;TYPE:SKIRT
G1 F300 Z0.42
G11
G1 F600 X47.997 Y46.849 E0.10018
G1 X48.827 Y46.142 E0.27152
G1 X49.337 Y45.75 E0.37261
G1 X50.172 Y45.166 E0.53274
G1 X50.651 Y44.864 E0.62173
G1 X51.229 Y44.522 E0.72728
G1 X51.946 Y44.126 E0.856
G1 X53.137 Y43.494 E1.06789
G1 X55.299 Y42.267 E1.45856
M117 Time Left 6h14m22s
G1 X55.946 Y41.875 E1.57745
G1 X56.15 Y41.762 E1.6141
G1 X57.284 Y41.086 E1.82157
G1 X58.16 Y40.617 E1.97773
G1 X59.144 Y40.193 E2.14611
G1 X60.237 Y39.834 E2.32691
G1 X61.127 Y39.624 E2.47062
G1 X62.329 Y39.447 E2.66155
G1 X63.143 Y39.395 E2.78974
G1 X63.83 Y39.38 E2.89773
G1 X72.811 Y39.379 E4.30913
G1 X73.654 Y39.39 E4.44162
G1 X74.84 Y39.467 E4.6284
G1 X76.237 Y39.703 E4.85105
G1 X79.332 Y40.418 E5.35026
G1 X81.771 Y40.907 E5.74118
M117 Time Left 6h14m07s
G1 X84.174 Y41.317 E6.12428
G1 X86.671 Y41.672 E6.52064
G1 X89.066 Y41.945 E6.89946
G1 X91.594 Y42.159 E7.29817
G1 X94.021 Y42.296 E7.68019
G1 X97.937 Y42.379 E8.29575
G1 X122.109 Y42.379 E12.09447
G1 X124.702 Y42.342 E12.50202
G1 X127.155 Y42.238 E12.88786
G1 X129.646 Y42.061 E13.28032
G1 X132.113 Y41.817 E13.66991
G1 X134.624 Y41.495 E14.06776
G1 X137.008 Y41.121 E14.44699
G1 X139.462 Y40.665 E14.83925
G1 X141.872 Y40.148 E15.22661
G1 X142.567 Y39.977 E15.33909
M117 Time Left 6h13m52s
G1 X143.85 Y39.683 E15.54595
G1 X144.837 Y39.505 E15.70356
G1 X146.161 Y39.394 E15.91236
G1 X146.814 Y39.38 E16.01501
G1 X155.811 Y39.379 E17.42892
G1 X156.669 Y39.39 E17.56377
G1 X157.821 Y39.462 E17.74517
G1 X158.878 Y39.623 E17.91319
G1 X159.768 Y39.834 E18.05694
G1 X160.936 Y40.223 E18.25041
G1 X161.913 Y40.653 E18.41816
G1 X162.741 Y41.1 E18.56603
G1 X165.082 Y42.495 E18.9943
G1 X168.867 Y44.576 E19.6731
G1 X169.643 Y45.041 E19.81527
G1 X170.323 Y45.499 E19.94412
G1 X170.838 Y45.874 E20.04423
M117 Time Left 6h13m37s
G1 X171.728 Y46.593 E20.22404
G1 X172.012 Y46.847 E20.28392
G1 X172.732 Y47.549 E20.44195
G1 X173.112 Y47.953 E20.52911
G1 X173.858 Y48.827 E20.7097
G1 X174.25 Y49.337 E20.81078
G1 X174.834 Y50.172 E20.97092
G1 X175.136 Y50.651 E21.05991
G1 X175.478 Y51.229 E21.16545
G1 X175.874 Y51.946 E21.29418
G1 X176.496 Y53.119 E21.50283
G1 X177.732 Y55.299 E21.89666
G1 X178.914 Y57.284 E22.25973
G1 X179.383 Y58.16 E22.41589
G1 X179.807 Y59.144 E22.58427
G1 X180.166 Y60.237 E22.76507
M117 Time Left 6h13m22s
G1 X180.376 Y61.127 E22.90878
G1 X180.553 Y62.329 E23.09971
G1 X180.605 Y63.143 E23.2279
G1 X180.62 Y63.83 E23.33589
G1 X180.619 Y72.943 E24.76803
G1 X180.609 Y73.663 E24.88119
G1 X180.532 Y74.847 E25.06766
G1 X180.294 Y76.264 E25.29346
G1 X179.579 Y79.344 E25.79037
G1 X179.109 Y81.687 E26.16592
G1 X178.676 Y84.213 E26.56868
G1 X178.331 Y86.637 E26.95346
G1 X178.053 Y89.08 E27.33987
G1 X177.844 Y91.539 E27.7277
G1 X177.701 Y94.052 E28.12327
G1 X177.63 Y96.58 E28.52071
M117 Time Left 6h13m07s
G1 X177.621 Y97.852 E28.72062
G1 X177.62 Y122.129 E32.53585
G1 X177.657 Y124.697 E32.93946
G1 X177.761 Y127.158 E33.32656
G1 X177.934 Y129.606 E33.71223
G1 X178.186 Y132.147 E34.11352
G1 X178.498 Y134.583 E34.49948
G1 X178.877 Y137 E34.88396
G1 X179.34 Y139.488 E35.28167
G1 X179.862 Y141.917 E35.67211
G1 X180.055 Y142.704 E35.79946
G1 X180.313 Y143.826 E35.98039
G1 X180.492 Y144.813 E36.13803
G1 X180.605 Y146.143 E36.3478
G1 X180.62 Y146.83 E36.45579
G1 X180.619 Y155.943 E37.88793
M117 Time Left 6h12m52s
G1 X180.609 Y156.666 E38.00157
G1 X180.538 Y157.814 E38.18232
G1 X180.392 Y158.793 E38.33788
G1 X180.144 Y159.839 E38.50682
G1 X179.777 Y160.932 E38.68801
G1 X179.348 Y161.911 E38.85599
G1 X178.921 Y162.702 E38.99726
G1 X177.499 Y165.09 E39.43404
G1 X175.425 Y168.864 E40.1108
G1 X174.934 Y169.682 E40.26073
G1 X174.505 Y170.319 E40.38142
G1 X174.133 Y170.831 E40.48088
G1 X173.458 Y171.671 E40.65023
G1 X173.143 Y172.024 E40.72458
G1 X172.468 Y172.715 E40.87639
G1 X172.003 Y173.151 E40.97656
G1 X171.173 Y173.858 E41.14791
M117 Time Left 6h12m37s
G1 X170.663 Y174.25 E41.249
G1 X169.828 Y174.834 E41.40913
G1 X169.349 Y175.136 E41.49812
G1 X168.771 Y175.478 E41.60367
G1 X168.054 Y175.874 E41.73239
G1 X166.863 Y176.506 E41.94428
G1 X164.692 Y177.738 E42.33657
G1 X164.056 Y178.124 E42.45349
G1 X163.819 Y178.255 E42.49604
G1 X162.696 Y178.923 E42.70139
G1 X161.75 Y179.424 E42.86962
G1 X160.766 Y179.84 E43.03751
G1 X159.897 Y180.127 E43.18133
G1 X158.699 Y180.408 E43.37471
G1 X157.661 Y180.553 E43.53942
G1 X156.91 Y180.603 E43.65771
M117 Time Left 6h12m22s
G1 X156.186 Y180.62 E43.77152
G1 X147.189 Y180.621 E45.18543
G1 X146.331 Y180.61 E45.32028
G1 X145.182 Y180.539 E45.5012
G1 X144.278 Y180.407 E45.64477
G1 X140.685 Y179.585 E46.22402
G1 X138.229 Y179.093 E46.61765
G1 X135.826 Y178.683 E47.00075
G1 X133.329 Y178.328 E47.39711
G1 X130.934 Y178.055 E47.77593
G1 X128.406 Y177.841 E48.17464
G1 X125.979 Y177.704 E48.55666
G1 X122.063 Y177.621 E49.17221
G1 X97.891 Y177.621 E52.97094
G1 X95.298 Y177.658 E53.37849
G1 X92.845 Y177.762 E53.76433
M117 Time Left 6h12m07s
G1 X90.354 Y177.939 E54.15679
G1 X87.887 Y178.183 E54.54638
G1 X85.376 Y178.505 E54.94423
G1 X82.989 Y178.879 E55.32393
G1 X80.538 Y179.335 E55.71572
G1 X78.106 Y179.857 E56.10663
G1 X77.277 Y180.06 E56.24076
G1 X76.146 Y180.318 E56.42307
G1 X75.075 Y180.506 E56.59395
G1 X73.839 Y180.606 E56.78883
G1 X73.186 Y180.62 E56.89147
G1 X64.189 Y180.621 E58.30539
G1 X63.334 Y180.61 E58.43977
G1 X62.182 Y180.538 E58.62116
G1 X61.125 Y180.377 E58.78919
G1 X60.236 Y180.166 E58.93278
M117 Time Left 6h11m52s
G1 X59.067 Y179.777 E59.1264
G1 X58.158 Y179.38 E59.28228
G1 X57.236 Y178.885 E59.44674
G1 X54.912 Y177.5 E59.8719
G1 X51.129 Y175.422 E60.55021
G1 X50.298 Y174.921 E60.7027
G1 X49.68 Y174.504 E60.81986
G1 X49.168 Y174.132 E60.91932
G1 X48.33 Y173.459 E61.08823
G1 X47.978 Y173.145 E61.16236
G1 X47.313 Y172.496 E61.30839
G1 X46.879 Y172.035 E61.40789
G1 X46.118 Y171.141 E61.59239
G1 X45.752 Y170.665 E61.68675
G1 X45.162 Y169.821 E61.84859
G1 X44.861 Y169.343 E61.93736
G1 X44.522 Y168.771 E62.04185
M117 Time Left 6h11m37s
G1 X44.126 Y168.054 E62.17058
G1 X43.48 Y166.837 E62.38711
G1 X42.282 Y164.725 E62.7687
G1 X41.876 Y164.056 E62.89168
G1 X41.745 Y163.819 E62.93424
G1 X41.077 Y162.696 E63.13958
G1 X40.576 Y161.75 E63.30781
G1 X40.16 Y160.766 E63.4757
G1 X39.873 Y159.897 E63.61953
G1 X39.592 Y158.699 E63.81291
G1 X39.447 Y157.658 E63.97808
G1 X39.397 Y156.893 E64.09856
G1 X39.38 Y156.17 E64.21222
G1 X39.381 Y147.016 E65.6508
G1 X39.392 Y146.31 E65.76177
G1 X39.471 Y145.127 E65.9481
M117 Time Left 6h11m22s
G1 X39.708 Y143.73 E66.17078
G1 X40.416 Y140.68 E66.66284
G1 X40.891 Y138.313 E67.04224
G1 X41.324 Y135.787 E67.445
G1 X41.669 Y133.363 E67.82978
G1 X41.947 Y130.92 E68.21619
G1 X42.156 Y128.453 E68.60528
G1 X42.299 Y125.948 E68.99959
G1 X42.37 Y123.42 E69.39703
G1 X42.379 Y122.148 E69.59694
G1 X42.38 Y97.84 E73.41704
G1 X42.343 Y95.299 E73.81641
G1 X42.238 Y92.837 E74.20368
G1 X42.067 Y90.396 E74.58823
G1 X41.815 Y87.869 E74.98733
G1 X41.497 Y85.389 E75.38026
M117 Time Left 6h11m07s
G1 X41.121 Y82.986 E75.7625
G1 X40.671 Y80.562 E76.14995
G1 X40.134 Y78.07 E76.55057
G1 X39.942 Y77.282 E76.67803
G1 X39.683 Y76.147 E76.86098
G1 X39.495 Y75.076 E77.03187
G1 X39.393 Y73.821 E77.22975
G1 X39.38 Y73.17 E77.33207
G1 X39.381 Y64.033 E78.76799
G1 X39.391 Y63.329 E78.87864
G1 X39.463 Y62.179 E79.05972
G1 X39.624 Y61.12 E79.22806
G1 X39.836 Y60.23 E79.37184
G1 X40.224 Y59.064 E79.56496
G1 X40.621 Y58.153 E79.72113
G1 X41.117 Y57.232 E79.88552
M117 Time Left 6h10m52s
G1 X42.51 Y54.893 E80.31336
G1 X44.498 Y51.275 E80.96212
G1 X44.887 Y50.602 E81.08428
G1 X45.05 Y50.342 E81.13251
G1 X45.499 Y49.676 E81.25874
G1 X45.876 Y49.157 E81.35955
G1 X46.556 Y48.313 E81.52988
G1 X46.865 Y47.967 E81.60278
G1 X47.532 Y47.285 E81.7527
G0 F6000 X48.148 Y47.942
G1 F600 X48.613 Y47.506 E81.85288
G1 X49.377 Y46.855 E82.01062
G1 X49.853 Y46.488 E82.10508
G1 X50.688 Y45.904 E82.26521
G1 X51.11 Y45.638 E82.3436
G1 X51.664 Y45.31 E82.44478
G1 X52.368 Y44.921 E82.57118
M117 Time Left 6h10m37s
G1 X53.572 Y44.282 E82.7854
G1 X55.752 Y43.045 E83.1793
G1 X56.412 Y42.645 E83.30059
M73 P1
G1 X56.608 Y42.537 E83.33576
G1 X57.712 Y41.878 E83.53781
G1 X58.516 Y41.444 E83.6814
G1 X59.5 Y41.02 E83.84978
G1 X60.444 Y40.71 E84.00593
G1 X61.334 Y40.5 E84.14964
G1 X62.387 Y40.345 E84.31691
G1 X63.163 Y40.295 E84.43911
G1 X63.83 Y40.28 E84.54396
G1 X72.799 Y40.279 E85.95347
G1 X73.642 Y40.29 E86.08597
G1 X74.691 Y40.355 E86.25114
G1 X76.034 Y40.58 E86.46514
M117 Time Left 6h10m22s
G1 X79.129 Y41.295 E86.96434
G1 X81.613 Y41.793 E87.36248
G1 X84.044 Y42.208 E87.75005
G1 X86.549 Y42.564 E88.14767
G1 X88.99 Y42.842 E88.53377
G1 X91.539 Y43.058 E88.93579
G1 X93.979 Y43.196 E89.31986
G1 X97.918 Y43.279 E89.93902
G1 X122.122 Y43.279 E93.74278
G1 X124.717 Y43.242 E94.15064
G1 X127.219 Y43.136 E94.54419
G1 X129.727 Y42.958 E94.93933
G1 X132.209 Y42.712 E95.33129
G1 X134.738 Y42.388 E95.73199
G1 X137.176 Y42.006 E96.1198
G1 X139.632 Y41.549 E96.5124
M117 Time Left 6h10m07s
G1 X142.074 Y41.025 E96.9049
G1 X142.768 Y40.854 E97.01723
G1 X144.01 Y40.569 E97.21749
G1 X144.997 Y40.391 E97.3751
G1 X146.181 Y40.294 E97.5618
G1 X146.814 Y40.28 E97.6613
G1 X155.799 Y40.279 E99.07333
G1 X156.657 Y40.29 E99.20818
G1 X157.688 Y40.352 E99.3705
G1 X158.67 Y40.499 E99.52654
G1 X159.56 Y40.71 E99.67029
G1 X160.576 Y41.048 E99.83856
G1 X161.485 Y41.445 E99.99444
G1 X162.313 Y41.892 E100.14232
G1 X164.634 Y43.276 E100.567
G1 X168.404 Y45.348 E101.24305
M117 Time Left 6h09m52s
G1 X169.18 Y45.813 E101.38522
G1 X169.794 Y46.227 E101.5016
G1 X170.272 Y46.574 E101.59443
G1 X171.162 Y47.293 E101.77423
G1 X171.384 Y47.492 E101.82109
G1 X172.076 Y48.166 E101.9729
G1 X172.456 Y48.57 E102.06006
G1 X173.145 Y49.377 E102.22682
G1 X173.512 Y49.853 E102.32128
G1 X174.096 Y50.688 E102.48141
G1 X174.362 Y51.11 E102.5598
G1 X174.69 Y51.664 E102.66098
G1 X175.079 Y52.368 E102.78739
G1 X175.713 Y53.563 E102.99998
G1 X176.949 Y55.743 E103.39381
G1 X177.355 Y56.412 E103.51679
G1 X177.463 Y56.608 E103.55196
M117 Time Left 6h09m37s
G1 X178.122 Y57.712 E103.75402
G1 X178.556 Y58.516 E103.8976
G1 X178.98 Y59.5 E104.06599
G1 X179.29 Y60.444 E104.22214
G1 X179.5 Y61.334 E104.36584
G1 X179.655 Y62.387 E104.53311
G1 X179.705 Y63.163 E104.65531
G1 X179.72 Y63.83 E104.76016
G1 X179.719 Y72.931 E106.19042
G1 X179.709 Y73.651 E106.30358
G1 X179.644 Y74.699 E106.4686
G1 X179.417 Y76.06 E106.68544
G1 X178.702 Y79.14 E107.18235
G1 X178.222 Y81.535 E107.56622
G1 X177.789 Y84.061 E107.96898
G1 X177.44 Y86.51 E108.35774
M117 Time Left 6h09m22s
G1 X177.156 Y89.004 E108.75221
G1 X176.945 Y91.488 E109.14399
G1 X176.802 Y94.001 E109.53955
G1 X176.73 Y96.555 E109.94109
G1 X176.721 Y97.846 E110.14398
G1 X176.72 Y122.129 E113.96015
G1 X176.757 Y124.712 E114.36612
G1 X176.863 Y127.222 E114.76093
G1 X177.038 Y129.695 E115.15054
G1 X177.291 Y132.243 E115.55294
G1 X177.605 Y134.697 E115.94174
G1 X177.992 Y137.165 E116.33434
G1 X178.456 Y139.659 E116.73301
G1 X178.983 Y142.11 E117.12699
G1 X179.178 Y142.906 E117.25579
G1 X179.427 Y143.987 E117.43012
M117 Time Left 6h09m07s
G1 X179.606 Y144.974 E117.58776
G1 X179.705 Y146.163 E117.77526
G1 X179.72 Y146.83 E117.88011
G1 X179.719 Y155.931 E119.31037
G1 X179.709 Y156.654 E119.42401
G1 X179.647 Y157.684 E119.58617
G1 X179.515 Y158.589 E119.7299
G1 X179.29 Y159.555 E119.88577
G1 X178.952 Y160.573 E120.05434
G1 X178.556 Y161.483 E120.21031
G1 X178.129 Y162.274 E120.35157
G1 X176.71 Y164.657 E120.78744
G1 X174.653 Y168.402 E121.45891
G1 X174.187 Y169.18 E121.60144
G1 X173.776 Y169.791 E121.71716
G1 X173.431 Y170.267 E121.80955
G1 X172.756 Y171.107 E121.9789
M117 Time Left 6h08m52s
G1 X172.499 Y171.395 E122.03956
G1 X171.852 Y172.058 E122.18514
G1 X171.387 Y172.494 E122.28532
G1 X170.623 Y173.145 E122.44306
G1 X170.147 Y173.512 E122.53752
G1 X169.312 Y174.096 E122.69765
G1 X168.89 Y174.362 E122.77605
G1 X168.336 Y174.69 E122.87722
G1 X167.632 Y175.079 E123.00363
G1 X166.428 Y175.718 E123.21784
G1 X164.248 Y176.955 E123.61175
G1 X163.621 Y177.336 E123.72705
G1 X163.384 Y177.467 E123.7696
G1 X162.272 Y178.129 E123.97298
G1 X161.397 Y178.596 E124.12885
G1 X160.484 Y178.985 E124.28481
M117 Time Left 6h08m37s
G1 X159.615 Y179.272 E124.42864
G1 X158.573 Y179.517 E124.59686
G1 X157.6 Y179.655 E124.7513
G1 X156.888 Y179.703 E124.86344
G1 X156.186 Y179.72 E124.9738
G1 X147.201 Y179.721 E126.38583
G1 X146.343 Y179.71 E126.52068
G1 X145.312 Y179.648 E126.683
G1 X144.408 Y179.516 E126.82657
G1 X140.88 Y178.707 E127.3954
G1 X138.387 Y178.207 E127.79499
G1 X135.956 Y177.792 E128.18256
G1 X133.451 Y177.436 E128.58018
G1 X131.01 Y177.158 E128.96628
G1 X128.461 Y176.942 E129.3683
G1 X126.021 Y176.804 E129.75237
M117 Time Left 6h08m22s
G1 X122.082 Y176.721 E130.37153
G1 X97.878 Y176.721 E134.17529
G1 X95.283 Y176.758 E134.58315
G1 X92.781 Y176.864 E134.9767
G1 X90.273 Y177.042 E135.37184
G1 X87.791 Y177.288 E135.7638
G1 X85.262 Y177.612 E136.1645
G1 X82.824 Y177.994 E136.55231
G1 X80.368 Y178.451 E136.94491
G1 X77.913 Y178.978 E137.33951
G1 X77.077 Y179.183 E137.47478
G1 X75.987 Y179.432 E137.65049
G1 X75.001 Y179.609 E137.80792
G1 X73.819 Y179.706 E137.99431
G1 X73.186 Y179.72 E138.09381
G1 X64.201 Y179.721 E139.50584
M117 Time Left 6h08m07s
G1 X63.346 Y179.71 E139.64022
G1 X62.315 Y179.648 E139.80253
G1 X61.333 Y179.501 E139.95858
G1 X60.444 Y179.29 E140.10217
G1 X59.427 Y178.952 E140.27059
G1 X58.518 Y178.555 E140.42648
G1 X57.697 Y178.112 E140.57308
G1 X55.36 Y176.719 E141.00065
G1 X51.593 Y174.651 E141.67599
G1 X50.801 Y174.175 E141.8212
G1 X50.208 Y173.775 E141.93362
G1 X49.732 Y173.43 E142.026
G1 X48.894 Y172.757 E142.19491
G1 X48.607 Y172.501 E142.25535
G1 X47.942 Y171.852 E142.40138
G1 X47.535 Y171.419 E142.49477
G1 X46.831 Y170.592 E142.66545
M117 Time Left 6h07m52s
G1 X46.49 Y170.149 E142.7533
G1 X45.9 Y169.305 E142.91514
G1 X45.635 Y168.884 E142.99332
G1 X45.31 Y168.336 E143.09344
G1 X44.921 Y167.632 E143.21985
G1 X44.275 Y166.415 E143.43638
G1 X43.051 Y164.257 E143.82627
G1 X42.664 Y163.621 E143.94327
G1 X42.533 Y163.384 E143.98582
G1 X41.871 Y162.272 E144.1892
G1 X41.404 Y161.397 E144.34507
G1 X41.015 Y160.484 E144.50104
G1 X40.728 Y159.615 E144.64486
G1 X40.483 Y158.573 E144.81308
G1 X40.345 Y157.599 E144.96767
G1 X40.297 Y156.871 E145.08233
M117 Time Left 6h07m37s
G1 X40.28 Y156.17 E145.19253
G1 X40.281 Y147.03 E146.62892
G1 X40.292 Y146.324 E146.73988
G1 X40.358 Y145.277 E146.90475
G1 X40.585 Y143.934 E147.1188
G1 X41.293 Y140.884 E147.61087
G1 X41.778 Y138.465 E147.99859
G1 X42.211 Y135.939 E148.40135
G1 X42.56 Y133.49 E148.79011
G1 X42.844 Y130.996 E149.18458
G1 X43.055 Y128.508 E149.57699
G1 X43.198 Y125.999 E149.97192
G1 X43.27 Y123.445 E150.37346
G1 X43.279 Y122.154 E150.57635
G1 X43.28 Y97.84 E154.39739
G1 X43.243 Y95.286 E154.79881
M117 Time Left 6h07m22s
G1 X43.136 Y92.774 E155.19394
G1 X42.963 Y90.307 E155.58259
G1 X42.711 Y87.78 E155.98169
G1 X42.39 Y85.275 E156.37858
G1 X42.006 Y82.822 E156.76877
G1 X41.551 Y80.372 E157.16038
G1 X41.014 Y77.88 E157.561
G1 X40.819 Y77.081 E157.69025
