;FLAVOR:Marlin
M73 P0


; Pre-Processed for Cancel-Object support by preprocess_cancellation v0.2.0
; 1 known objects
EXCLUDE_OBJECT_DEFINE NAME=parametrizable_rugged_box_v2_bottom_stl CENTER=110.562,109.984 POLYGON=[[72.68,71.179],[72.68,148.821],[150.32,148.821],[150.32,71.179]]
M117 Time Left 2h44m41s
;TIME:9881
;Filament used: 12.7595m
;Layer height: 0.3
;MINX:70.88
;MINY:69.379
;MINZ:0.42
;MAXX:152.12
;MAXY:150.621
;MAXZ:38.12
;TARGET_MACHINE.NAME:Creality Ender-3
;POSTPROCESSED
;  [InsertAtLayerChange]
;  [MeshPrintSize]
;  [DisplayProgressOnLCD]
;  [DisplayFilenameAndLayerOnLCD]
;Generated with Cura_SteamEngine 5.6.0
M82 ;absolute extrusion mode
;Nozzle diameter = 0.6
;Filament type = PLA
;Filament name = Black
START_PRINT PRINT_MIN=70.88,69.379 PRINT_MAX=152.12,150.621 BED_TEMP=65 EXTRUDER_TEMP=200.0
G92 E0
G92 E0
G1 F2700 E-5
;LAYER_COUNT:126
TIMELAPSE_TAKE_FRAME
;LAYER:0
M117 Printing parametrizable-rugged-box-v2-bottom - Layer 0 of 125
M107
G1 F300 Z0.62
G0 F6000 X79.032 Y77.285 Z0.62
;TYPE:SKIRT
G1 F300 Z0.42
G1 F2700 E0
G1 F600 X79.497 Y76.849 E0.10018
G1 X80.327 Y76.142 E0.27152
G1 X80.837 Y75.75 E0.37261
G1 X81.672 Y75.166 E0.53274
G1 X82.151 Y74.864 E0.62173
G1 X82.729 Y74.522 E0.72728
G1 X83.446 Y74.126 E0.856
G1 X84.637 Y73.494 E1.06789
G1 X86.799 Y72.267 E1.45856
G1 X87.446 Y71.875 E1.57745
G1 X87.65 Y71.762 E1.6141
G1 X88.784 Y71.086 E1.82157
G1 X89.66 Y70.617 E1.97773
G1 X90.644 Y70.193 E2.14611
G1 X91.737 Y69.834 E2.32691
G1 X92.627 Y69.624 E2.47062
G1 X93.829 Y69.447 E2.66155
G1 X94.643 Y69.395 E2.78974
G1 X95.33 Y69.38 E2.89773
G1 X104.322 Y69.379 E4.31086
G1 X105.684 Y69.406 E4.52495
G1 X107.708 Y69.515 E4.84349
G1 X110.249 Y69.588 E5.24298
G1 X112.668 Y69.59 E5.62314
G1 X115.237 Y69.518 E6.02702
G1 X117.75 Y69.393 E6.42244
G1 X118.314 Y69.38 E6.5111
G1 X127.311 Y69.379 E7.92501
G1 X128.169 Y69.39 E8.05986
G1 X129.321 Y69.462 E8.24126
G1 X130.378 Y69.623 E8.40929
G1 X131.268 Y69.834 E8.55303
G1 X132.436 Y70.223 E8.7465
G1 X133.413 Y70.653 E8.91425
G1 X134.241 Y71.1 E9.06213
G1 X136.582 Y72.495 E9.49039
G1 X140.367 Y74.576 E10.16919
G1 X141.143 Y75.041 E10.31136
G1 X141.823 Y75.499 E10.44021
G1 X142.338 Y75.874 E10.54033
M117 Time Left 2h44m26s
G1 X143.228 Y76.593 E10.72013
G1 X143.512 Y76.847 E10.78001
G1 X144.232 Y77.549 E10.93804
G1 X144.612 Y77.953 E11.0252
G1 X145.358 Y78.827 E11.20579
G1 X145.75 Y79.337 E11.30688
G1 X146.334 Y80.172 E11.46701
G1 X146.636 Y80.651 E11.556
G1 X146.978 Y81.229 E11.66154
G1 X147.374 Y81.946 E11.79027
G1 X147.996 Y83.119 E11.99892
G1 X149.232 Y85.299 E12.39275
G1 X150.414 Y87.284 E12.75582
G1 X150.883 Y88.16 E12.91198
G1 X151.307 Y89.144 E13.08036
G1 X151.666 Y90.237 E13.26116
G1 X151.876 Y91.127 E13.40487
G1 X152.053 Y92.329 E13.5958
G1 X152.105 Y93.143 E13.72399
G1 X152.12 Y93.83 E13.83198
G1 X152.119 Y102.95 E15.26522
G1 X152.099 Y104.016 E15.43278
G1 X152.074 Y104.634 E15.52998
G1 X151.98 Y106.299 E15.79206
G1 X151.911 Y108.791 E16.18384
G1 X151.911 Y111.209 E16.56384
G1 X151.983 Y113.738 E16.96144
G1 X152.094 Y115.875 E17.29773
G1 X152.116 Y116.524 E17.39978
G1 X152.119 Y125.943 E18.88002
G1 X152.109 Y126.666 E18.99365
G1 X152.038 Y127.814 E19.17441
G1 X151.892 Y128.793 E19.32996
G1 X151.644 Y129.839 E19.4989
G1 X151.277 Y130.932 E19.6801
G1 X150.848 Y131.911 E19.84808
G1 X150.421 Y132.702 E19.98934
G1 X148.999 Y135.09 E20.42612
G1 X146.925 Y138.864 E21.10288
G1 X146.434 Y139.682 E21.25281
G1 X146.005 Y140.319 E21.37351
G1 X145.633 Y140.831 E21.47297
G1 X144.958 Y141.671 E21.64231
G1 X144.643 Y142.024 E21.71667
G1 X143.968 Y142.715 E21.86847
G1 X143.503 Y143.151 E21.96865
G1 X142.673 Y143.858 E22.13999
G1 X142.163 Y144.25 E22.24108
M117 Time Left 2h44m11s
G1 X141.328 Y144.834 E22.40122
G1 X140.849 Y145.136 E22.49021
G1 X140.271 Y145.478 E22.59575
G1 X139.554 Y145.874 E22.72447
G1 X138.363 Y146.506 E22.93636
G1 X136.206 Y147.73 E23.32612
G1 X135.554 Y148.125 E23.44592
G1 X135.353 Y148.236 E23.48201
G1 X134.216 Y148.914 E23.69005
G1 X133.34 Y149.383 E23.8462
G1 X132.356 Y149.807 E24.01459
G1 X131.263 Y150.166 E24.19538
G1 X130.373 Y150.376 E24.33909
G1 X129.174 Y150.553 E24.52956
G1 X128.373 Y150.605 E24.65571
G1 X127.686 Y150.62 E24.7637
G1 X118.678 Y150.621 E26.17934
G1 X117.315 Y150.594 E26.39359
G1 X115.292 Y150.485 E26.71197
G1 X112.751 Y150.412 E27.11146
G1 X110.331 Y150.41 E27.49178
G1 X107.762 Y150.482 E27.89566
G1 X105.25 Y150.607 E28.29092
G1 X104.686 Y150.62 E28.37958
G1 X95.689 Y150.621 E29.7935
G1 X94.832 Y150.61 E29.92819
G1 X93.681 Y150.538 E30.10943
G1 X92.623 Y150.377 E30.27761
G1 X91.734 Y150.166 E30.4212
G1 X90.565 Y149.777 E30.61482
G1 X89.588 Y149.347 E30.78257
G1 X88.731 Y148.883 E30.93573
G1 X86.415 Y147.503 E31.35941
G1 X82.629 Y145.422 E32.03835
G1 X81.798 Y144.921 E32.19084
G1 X81.18 Y144.504 E32.30801
G1 X80.668 Y144.132 E32.40747
G1 X79.83 Y143.459 E32.57637
G1 X79.478 Y143.145 E32.6505
G1 X78.813 Y142.496 E32.79653
G1 X78.379 Y142.035 E32.89603
G1 X77.618 Y141.141 E33.08054
G1 X77.252 Y140.665 E33.1749
G1 X76.662 Y139.821 E33.33673
G1 X76.361 Y139.343 E33.42551
G1 X76.022 Y138.771 E33.53
G1 X75.626 Y138.054 E33.65872
G1 X74.98 Y136.837 E33.87525
M117 Time Left 2h43m56s
G1 X73.782 Y134.725 E34.25684
G1 X73.376 Y134.056 E34.37982
G1 X73.245 Y133.819 E34.42238
G1 X72.577 Y132.696 E34.62773
G1 X72.076 Y131.75 E34.79596
G1 X71.66 Y130.766 E34.96385
G1 X71.373 Y129.897 E35.10767
G1 X71.092 Y128.699 E35.30105
G1 X70.947 Y127.658 E35.46623
G1 X70.897 Y126.893 E35.58671
G1 X70.88 Y126.17 E35.70036
G1 X70.881 Y117.026 E37.13738
G1 X70.901 Y115.984 E37.30116
G1 X70.926 Y115.366 E37.39836
G1 X71.02 Y113.701 E37.66044
G1 X71.089 Y111.209 E38.05222
G1 X71.089 Y108.79 E38.43238
G1 X71.016 Y106.238 E38.8336
G1 X70.906 Y104.125 E39.16611
G1 X70.884 Y103.475 E39.26832
G1 X70.881 Y94.033 E40.75217
G1 X70.891 Y93.329 E40.86282
G1 X70.963 Y92.179 E41.0439
G1 X71.124 Y91.12 E41.21224
G1 X71.336 Y90.23 E41.35602
G1 X71.724 Y89.064 E41.54914
G1 X72.121 Y88.153 E41.70531
G1 X72.617 Y87.232 E41.86971
G1 X74.01 Y84.893 E42.29754
G1 X75.998 Y81.275 E42.9463
G1 X76.387 Y80.602 E43.06847
G1 X76.55 Y80.342 E43.11669
G1 X76.999 Y79.676 E43.24292
G1 X77.376 Y79.157 E43.34373
G1 X78.056 Y78.313 E43.51406
G1 X78.365 Y77.967 E43.58697
G1 X79.032 Y77.285 E43.73688
G0 F6000 X79.648 Y77.942
G1 F600 X80.113 Y77.506 E43.83706
G1 X80.877 Y76.855 E43.9948
G1 X81.353 Y76.488 E44.08926
G1 X82.188 Y75.904 E44.24939
G1 X82.61 Y75.638 E44.32779
G1 X83.164 Y75.31 E44.42896
G1 X83.868 Y74.921 E44.55537
G1 X85.072 Y74.282 E44.76958
G1 X87.252 Y73.045 E45.16349
G1 X87.912 Y72.645 E45.28477
M117 Time Left 2h43m41s
G1 X88.108 Y72.537 E45.31994
G1 X89.212 Y71.878 E45.522
G1 X90.016 Y71.444 E45.66558
G1 X91 Y71.02 E45.83397
G1 X91.944 Y70.71 E45.99011
G1 X92.834 Y70.5 E46.13382
G1 X93.887 Y70.345 E46.30109
G1 X94.663 Y70.295 E46.42329
G1 X95.33 Y70.28 E46.52814
G1 X104.304 Y70.279 E47.93844
G1 X105.635 Y70.305 E48.14765
G1 X107.672 Y70.415 E48.46824
G1 X110.223 Y70.488 E48.86931
G1 X112.692 Y70.49 E49.25732
G1 X115.262 Y70.418 E49.66137
G1 X117.772 Y70.293 E50.05631
G1 X118.314 Y70.28 E50.14151
G1 X127.299 Y70.279 E51.55354
G1 X128.157 Y70.29 E51.68839
G1 X129.188 Y70.352 E51.85071
G1 X130.17 Y70.499 E52.00676
G1 X131.06 Y70.71 E52.1505
G1 X132.076 Y71.048 E52.31877
G1 X132.985 Y71.445 E52.47466
G1 X133.813 Y71.892 E52.62253
G1 X136.134 Y73.276 E53.04721
G1 X139.904 Y75.348 E53.72327
G1 X140.68 Y75.813 E53.86544
G1 X141.294 Y76.227 E53.98182
G1 X141.772 Y76.574 E54.07464
G1 X142.662 Y77.293 E54.25445
G1 X142.884 Y77.492 E54.3013
G1 X143.576 Y78.166 E54.45311
G1 X143.956 Y78.57 E54.54027
G1 X144.645 Y79.377 E54.70703
G1 X145.012 Y79.853 E54.80149
G1 X145.596 Y80.688 E54.96163
G1 X145.862 Y81.11 E55.04002
G1 X146.19 Y81.664 E55.1412
G1 X146.579 Y82.368 E55.2676
G1 X147.213 Y83.563 E55.48019
G1 X148.449 Y85.743 E55.87402
G1 X148.855 Y86.412 E55.99701
G1 X148.963 Y86.608 E56.03218
G1 X149.622 Y87.712 E56.23423
G1 X150.056 Y88.516 E56.37782
G1 X150.48 Y89.5 E56.5462
G1 X150.79 Y90.444 E56.70235
M117 Time Left 2h43m26s
G1 X151 Y91.334 E56.84606
G1 X151.155 Y92.387 E57.01333
G1 X151.205 Y93.163 E57.13553
G1 X151.22 Y93.83 E57.24038
G1 X151.219 Y102.934 E58.67111
G1 X151.2 Y103.979 E58.83536
G1 X151.175 Y104.583 E58.93037
G1 X151.081 Y106.248 E59.19244
G1 X151.011 Y108.766 E59.58831
G1 X151.011 Y111.235 E59.97632
G1 X151.083 Y113.768 E60.37456
G1 X151.195 Y115.906 E60.71101
G1 X151.216 Y116.524 E60.80819
G1 X151.219 Y125.931 E62.28654
G1 X151.209 Y126.654 E62.40017
G1 X151.147 Y127.684 E62.56233
G1 X151.015 Y128.589 E62.70606
G1 X150.79 Y129.555 E62.86194
G1 X150.452 Y130.573 E63.03051
G1 X150.056 Y131.483 E63.18647
G1 X149.629 Y132.274 E63.32774
G1 X148.21 Y134.657 E63.7636
G1 X146.153 Y138.402 E64.43508
G1 X145.687 Y139.18 E64.5776
G1 X145.276 Y139.791 E64.69333
G1 X144.931 Y140.267 E64.78571
G1 X144.256 Y141.107 E64.95506
G1 X143.999 Y141.395 E65.01572
G1 X143.352 Y142.058 E65.16131
G1 X142.887 Y142.494 E65.26148
G1 X142.123 Y143.145 E65.41923
G1 X141.647 Y143.512 E65.51368
G1 X140.812 Y144.096 E65.67382
G1 X140.39 Y144.362 E65.75221
G1 X139.836 Y144.69 E65.85339
G1 X139.132 Y145.079 E65.97979
G1 X137.928 Y145.718 E66.194
G1 X135.748 Y146.955 E66.58791
G1 X135.088 Y147.355 E66.7092
G1 X134.892 Y147.463 E66.74436
G1 X133.788 Y148.122 E66.94642
G1 X132.984 Y148.556 E67.09001
G1 X132 Y148.98 E67.25839
G1 X131.056 Y149.29 E67.41454
G1 X130.166 Y149.5 E67.55825
G1 X129.115 Y149.655 E67.7252
G1 X128.353 Y149.705 E67.84521
G1 X127.686 Y149.72 E67.95006
M117 Time Left 2h43m11s
G1 X118.696 Y149.721 E69.36288
G1 X117.364 Y149.695 E69.57225
G1 X115.328 Y149.585 E69.89268
G1 X112.777 Y149.512 E70.29374
G1 X110.307 Y149.51 E70.68191
G1 X107.737 Y149.582 E71.08596
G1 X105.228 Y149.707 E71.48075
G1 X104.686 Y149.72 E71.56595
G1 X95.701 Y149.721 E72.97798
G1 X94.844 Y149.71 E73.11267
G1 X93.814 Y149.648 E73.27483
G1 X92.831 Y149.501 E73.43103
G1 X91.942 Y149.29 E73.57462
G1 X90.925 Y148.952 E73.74305
G1 X90.016 Y148.555 E73.89893
G1 X89.192 Y148.11 E74.0461
G1 X86.863 Y146.722 E74.47218
G1 X83.093 Y144.651 E75.14816
G1 X82.301 Y144.175 E75.29338
G1 X81.708 Y143.775 E75.40579
G1 X81.232 Y143.43 E75.49818
G1 X80.394 Y142.757 E75.66709
G1 X80.107 Y142.501 E75.72753
G1 X79.442 Y141.852 E75.87355
M73 P1
G1 X79.035 Y141.419 E75.96694
G1 X78.331 Y140.592 E76.13762
G1 X77.99 Y140.149 E76.22548
G1 X77.4 Y139.305 E76.38731
G1 X77.135 Y138.884 E76.46549
G1 X76.81 Y138.336 E76.56562
G1 X76.421 Y137.632 E76.69202
G1 X75.775 Y136.415 E76.90855
G1 X74.551 Y134.257 E77.29844
G1 X74.164 Y133.621 E77.41544
G1 X74.033 Y133.384 E77.458
G1 X73.371 Y132.272 E77.66138
G1 X72.904 Y131.397 E77.81725
G1 X72.515 Y130.484 E77.97321
G1 X72.228 Y129.615 E78.11703
G1 X71.983 Y128.573 E78.28525
G1 X71.845 Y127.599 E78.43985
G1 X71.797 Y126.871 E78.55451
G1 X71.78 Y126.17 E78.6647
G1 X71.781 Y117.043 E80.09905
G1 X71.8 Y116.021 E80.25969
G1 X71.825 Y115.417 E80.35469
G1 X71.919 Y113.752 E80.61677
G1 X71.989 Y111.234 E81.01264
M117 Time Left 2h42m56s
G1 X71.989 Y108.764 E81.40081
G1 X71.916 Y106.212 E81.80203
G1 X71.805 Y104.094 E82.13534
G1 X71.784 Y103.475 E82.23267
G1 X71.781 Y94.046 E83.71448
G1 X71.791 Y93.342 E83.82513
G1 X71.853 Y92.312 E83.98729
G1 X72 Y91.329 E84.14349
G1 X72.212 Y90.439 E84.28727
G1 X72.549 Y89.424 E84.45534
G1 X72.946 Y88.513 E84.61151
G1 X73.39 Y87.693 E84.75806
G1 X74.791 Y85.341 E85.18829
G1 X76.778 Y81.725 E85.8367
G1 X77.15 Y81.08 E85.95372
G1 X77.313 Y80.82 E86.00195
G1 X77.728 Y80.204 E86.11867
G1 X78.077 Y79.722 E86.21219
G1 X78.757 Y78.878 E86.38252
G1 X79.009 Y78.596 E86.44196
G1 X79.648 Y77.942 E86.58565
G0 F6000 X80.292 Y78.571
G1 F600 X80.697 Y78.191 E86.67293
G1 X81.461 Y77.54 E86.83067
G1 X81.869 Y77.225 E86.91168
G1 X82.669 Y76.665 E87.06514
G1 X83.069 Y76.412 E87.13952
G1 X83.599 Y76.098 E87.23633
G1 X84.29 Y75.716 E87.36042
G1 X85.507 Y75.07 E87.57695
G1 X87.711 Y73.82 E87.97514
G1 X88.347 Y73.433 E88.09214
G1 X88.555 Y73.318 E88.12949
G1 X89.64 Y72.67 E88.3281
G1 X90.444 Y72.236 E88.47169
G1 X91.283 Y71.874 E88.61529
G1 X92.151 Y71.586 E88.75901
G1 X93.041 Y71.376 E88.90272
G1 X93.945 Y71.243 E89.04632
G1 X94.684 Y71.195 E89.1627
G1 X95.33 Y71.18 E89.26425
G1 X104.287 Y71.179 E90.67188
G1 X105.586 Y71.204 E90.87606
G1 X107.636 Y71.315 E91.1987
G1 X110.197 Y71.388 E91.60133
G1 X112.716 Y71.39 E91.9972
G1 X115.287 Y71.318 E92.4014
G1 X117.794 Y71.193 E92.79588
M117 Time Left 2h42m41s
G1 X118.314 Y71.18 E92.87762
G1 X127.287 Y71.179 E94.28777
G1 X128.145 Y71.19 E94.42262
G1 X129.058 Y71.243 E94.56634
G1 X129.962 Y71.375 E94.70992
G1 X130.852 Y71.586 E94.85366
G1 X131.719 Y71.874 E94.99723
G1 X132.558 Y72.237 E95.1409
G1 X133.352 Y72.665 E95.28265
G1 X135.686 Y74.057 E95.70973
G1 X139.442 Y76.12 E96.38318
G1 X140.178 Y76.56 E96.51794
G1 X140.767 Y76.956 E96.62947
G1 X141.207 Y77.274 E96.71479
G1 X142.061 Y77.963 E96.88723
G1 X142.283 Y78.162 E96.93409
G1 X142.92 Y78.783 E97.07389
G1 X143.3 Y79.187 E97.16106
G1 X143.96 Y79.961 E97.32091
G1 X144.275 Y80.369 E97.40192
G1 X144.835 Y81.169 E97.55538
G1 X145.088 Y81.569 E97.62976
G1 X145.402 Y82.099 E97.72657
G1 X145.784 Y82.79 E97.85066
G1 X146.43 Y84.007 E98.06719
G1 X147.68 Y86.211 E98.46538
G1 X148.067 Y86.847 E98.58238
G1 X148.182 Y87.055 E98.61974
G1 X148.83 Y88.14 E98.81834
G1 X149.264 Y88.944 E98.96193
G1 X149.626 Y89.783 E99.10553
G1 X149.914 Y90.651 E99.24925
G1 X150.124 Y91.541 E99.39296
G1 X150.257 Y92.445 E99.53656
G1 X150.305 Y93.184 E99.65294
G1 X150.32 Y93.83 E99.75449
G1 X150.319 Y102.918 E101.1827
G1 X150.301 Y103.941 E101.3435
G1 X150.276 Y104.532 E101.43646
G1 X150.182 Y106.197 E101.69854
G1 X150.111 Y108.741 E102.09849
G1 X150.111 Y111.261 E102.49452
G1 X150.184 Y113.815 E102.89606
G1 X150.296 Y115.937 E103.23
G1 X150.316 Y116.524 E103.32231
G1 X150.319 Y125.919 E104.79877
G1 X150.309 Y126.642 E104.9124
G1 X150.256 Y127.554 E105.05597
M117 Time Left 2h42m26s
G1 X150.124 Y128.459 E105.1997
G1 X149.914 Y129.348 E105.34325
G1 X149.626 Y130.216 E105.48698
G1 X149.264 Y131.055 E105.63058
G1 X148.837 Y131.846 E105.77184
G1 X147.429 Y134.209 E106.20412
G1 X145.38 Y137.941 E106.87321
G1 X144.94 Y138.678 E107.0081
G1 X144.546 Y139.264 E107.11907
G1 X144.229 Y139.703 E107.20417
G1 X143.554 Y140.543 E107.37352
G1 X143.355 Y140.766 E107.42049
G1 X142.708 Y141.429 E107.56607
G1 X142.303 Y141.809 E107.65335
G1 X141.539 Y142.46 E107.81109
G1 X141.131 Y142.775 E107.8921
G1 X140.331 Y143.335 E108.04556
G1 X139.931 Y143.588 E108.11994
G1 X139.401 Y143.902 E108.21675
G1 X138.71 Y144.284 E108.34084
G1 X137.493 Y144.93 E108.55737
G1 X135.289 Y146.18 E108.95556
G1 X134.653 Y146.567 E109.07256
G1 X134.445 Y146.682 E109.10992
G1 X133.36 Y147.33 E109.30852
G1 X132.556 Y147.764 E109.45211
G1 X131.717 Y148.126 E109.59571
G1 X130.849 Y148.414 E109.73943
G1 X129.959 Y148.624 E109.88314
G1 X129.055 Y148.757 E110.02674
G1 X128.332 Y148.805 E110.14061
G1 X127.686 Y148.82 E110.24216
G1 X118.713 Y148.821 E111.6523
G1 X117.413 Y148.796 E111.85664
G1 X115.364 Y148.685 E112.17912
G1 X112.803 Y148.612 E112.58176
G1 X110.283 Y148.61 E112.97779
G1 X107.712 Y148.682 E113.38199
G1 X105.205 Y148.807 E113.77646
G1 X104.686 Y148.82 E113.85805
G1 X95.713 Y148.821 E115.2682
G1 X94.856 Y148.81 E115.40289
G1 X93.944 Y148.757 E115.54645
G1 X93.039 Y148.625 E115.69018
G1 X92.15 Y148.414 E115.83377
G1 X91.282 Y148.126 E115.9775
G1 X90.443 Y147.763 E116.12116
G1 X89.653 Y147.337 E116.26221
M117 Time Left 2h42m11s
G1 X87.311 Y145.941 E116.69069
G1 X83.556 Y143.879 E117.36393
G1 X82.804 Y143.428 E117.50173
G1 X82.235 Y143.045 E117.60952
G1 X81.796 Y142.728 E117.69462
G1 X80.958 Y142.055 E117.86353
G1 X80.736 Y141.857 E117.91028
G1 X80.071 Y141.208 E118.0563
G1 X79.691 Y140.803 E118.14358
G1 X79.043 Y140.042 E118.30066
G1 X78.727 Y139.633 E118.38188
G1 X78.161 Y138.824 E118.53705
G1 X77.909 Y138.425 E118.61121
G1 X77.598 Y137.901 E118.70697
G1 X77.216 Y137.21 E118.83106
G1 X76.57 Y135.993 E119.04759
G1 X75.32 Y133.789 E119.44578
G1 X74.933 Y133.153 E119.56278
G1 X74.814 Y132.936 E119.60168
G1 X74.164 Y131.846 E119.80112
G1 X73.731 Y131.041 E119.94477
