;FLAVOR:Marlin
M73 P0


; Pre-Processed for Cancel-Object support by preprocess_cancellation v0.2.0
; 1 known objects
EXCLUDE_OBJECT_DEFINE NAME=parametrizable_rugged_box_v2_top_stl CENTER=109.567,109.984 POLYGON=[[71.18,71.179],[71.18,148.821],[148.82,148.821],[148.82,71.179]]
M117 Time Left 1h37m20s
;TIME:5840
;Filament used: 8.20043m
;Layer height: 0.3
;MINX:69.38
;MINY:69.379
;MINZ:0.42
;MAXX:150.62
;MAXY:150.621
;MAXZ:24.32
;TARGET_MACHINE.NAME:Creality Ender-3
;POSTPROCESSED
;  [InsertAtLayerChange]
;  [MeshPrintSize]
;  [DisplayProgressOnLCD]
;  [DisplayFilenameAndLayerOnLCD]
;Generated with Cura_SteamEngine 5.6.0
M82 ;absolute extrusion mode
;Nozzle diameter = 0.6
;Filament type = PLA
;Filament name = Black
START_PRINT PRINT_MIN=69.38,69.379 PRINT_MAX=150.62,150.621 BED_TEMP=65 EXTRUDER_TEMP=200.0
G92 E0
G92 E0
G1 F2700 E-5
;LAYER_COUNT:80
TIMELAPSE_TAKE_FRAME
;LAYER:0
M117 Printing parametrizable-rugged-box-v2-top - Layer 0 of 79
M107
G1 F300 Z0.62
G0 F6000 X77.532 Y77.285 Z0.62
;TYPE:SKIRT
G1 F300 Z0.42
G1 F2700 E0
G1 F600 X77.997 Y76.849 E0.10018
G1 X78.827 Y76.142 E0.27152
G1 X79.337 Y75.75 E0.37261
G1 X80.172 Y75.166 E0.53274
G1 X80.651 Y74.864 E0.62173
G1 X81.229 Y74.522 E0.72728
G1 X81.946 Y74.126 E0.856
G1 X83.137 Y73.494 E1.06789
G1 X85.299 Y72.267 E1.45856
G1 X85.946 Y71.875 E1.57745
G1 X86.15 Y71.762 E1.6141
G1 X87.284 Y71.086 E1.82157
G1 X88.16 Y70.617 E1.97773
G1 X89.144 Y70.193 E2.14611
G1 X90.237 Y69.834 E2.32691
G1 X91.127 Y69.624 E2.47062
G1 X92.329 Y69.447 E2.66155
G1 X93.143 Y69.395 E2.78974
G1 X93.83 Y69.38 E2.89773
G1 X102.822 Y69.379 E4.31086
G1 X104.184 Y69.406 E4.52495
G1 X106.208 Y69.515 E4.84349
G1 X108.749 Y69.588 E5.24298
G1 X111.168 Y69.59 E5.62314
G1 X113.737 Y69.518 E6.02702
G1 X116.25 Y69.393 E6.42244
G1 X116.814 Y69.38 E6.5111
G1 X125.811 Y69.379 E7.92501
G1 X126.669 Y69.39 E8.05986
G1 X127.821 Y69.462 E8.24126
G1 X128.878 Y69.623 E8.40929
G1 X129.768 Y69.834 E8.55303
G1 X130.936 Y70.223 E8.7465
G1 X131.913 Y70.653 E8.91425
G1 X132.741 Y71.1 E9.06213
G1 X135.082 Y72.495 E9.49039
G1 X138.867 Y74.576 E10.16919
G1 X139.643 Y75.041 E10.31136
G1 X140.323 Y75.499 E10.44021
G1 X140.838 Y75.874 E10.54033
M117 Time Left 1h37m05s
G1 X141.728 Y76.593 E10.72013
G1 X142.012 Y76.847 E10.78001
G1 X142.732 Y77.549 E10.93804
G1 X143.112 Y77.953 E11.0252
G1 X143.858 Y78.827 E11.20579
G1 X144.25 Y79.337 E11.30688
G1 X144.834 Y80.172 E11.46701
G1 X145.136 Y80.651 E11.556
G1 X145.478 Y81.229 E11.66154
G1 X145.874 Y81.946 E11.79027
G1 X146.496 Y83.119 E11.99892
G1 X147.732 Y85.299 E12.39275
G1 X148.914 Y87.284 E12.75582
G1 X149.383 Y88.16 E12.91198
G1 X149.807 Y89.144 E13.08036
G1 X150.166 Y90.237 E13.26116
G1 X150.376 Y91.127 E13.40487
G1 X150.553 Y92.329 E13.5958
G1 X150.605 Y93.143 E13.72399
G1 X150.62 Y93.83 E13.83198
G1 X150.619 Y102.95 E15.26522
G1 X150.599 Y104.016 E15.43278
G1 X150.574 Y104.634 E15.52998
G1 X150.48 Y106.299 E15.79206
G1 X150.411 Y108.791 E16.18384
G1 X150.411 Y111.209 E16.56384
G1 X150.483 Y113.738 E16.96144
G1 X150.594 Y115.875 E17.29773
G1 X150.616 Y116.524 E17.39978
G1 X150.619 Y125.943 E18.88002
G1 X150.609 Y126.666 E18.99365
G1 X150.538 Y127.814 E19.17441
G1 X150.392 Y128.793 E19.32996
G1 X150.144 Y129.839 E19.4989
G1 X149.777 Y130.932 E19.6801
G1 X149.348 Y131.911 E19.84808
G1 X148.921 Y132.702 E19.98934
G1 X147.499 Y135.09 E20.42612
G1 X145.425 Y138.864 E21.10288
G1 X144.934 Y139.682 E21.25281
G1 X144.505 Y140.319 E21.37351
G1 X144.133 Y140.831 E21.47297
G1 X143.458 Y141.671 E21.64231
G1 X143.143 Y142.024 E21.71667
G1 X142.468 Y142.715 E21.86847
G1 X142.003 Y143.151 E21.96865
G1 X141.173 Y143.858 E22.13999
G1 X140.663 Y144.25 E22.24108
M117 Time Left 1h36m50s
G1 X139.828 Y144.834 E22.40122
G1 X139.349 Y145.136 E22.49021
G1 X138.771 Y145.478 E22.59575
G1 X138.054 Y145.874 E22.72447
G1 X136.863 Y146.506 E22.93636
G1 X134.706 Y147.73 E23.32612
G1 X134.054 Y148.125 E23.44592
G1 X133.853 Y148.236 E23.48201
G1 X132.716 Y148.914 E23.69005
G1 X131.84 Y149.383 E23.8462
G1 X130.856 Y149.807 E24.01459
G1 X129.763 Y150.166 E24.19538
G1 X128.873 Y150.376 E24.33909
G1 X127.674 Y150.553 E24.52956
G1 X126.873 Y150.605 E24.65571
G1 X126.186 Y150.62 E24.7637
G1 X117.178 Y150.621 E26.17934
G1 X115.815 Y150.594 E26.39359
G1 X113.792 Y150.485 E26.71197
G1 X111.251 Y150.412 E27.11146
G1 X108.831 Y150.41 E27.49178
G1 X106.262 Y150.482 E27.89566
G1 X103.75 Y150.607 E28.29092
G1 X103.186 Y150.62 E28.37958
G1 X94.189 Y150.621 E29.7935
G1 X93.332 Y150.61 E29.92819
G1 X92.181 Y150.538 E30.10943
G1 X91.123 Y150.377 E30.27761
G1 X90.234 Y150.166 E30.4212
G1 X89.065 Y149.777 E30.61482
G1 X88.088 Y149.347 E30.78257
G1 X87.231 Y148.883 E30.93573
G1 X84.915 Y147.503 E31.35941
G1 X81.129 Y145.422 E32.03835
G1 X80.298 Y144.921 E32.19084
G1 X79.68 Y144.504 E32.30801
G1 X79.168 Y144.132 E32.40747
G1 X78.33 Y143.459 E32.57637
G1 X77.978 Y143.145 E32.6505
G1 X77.313 Y142.496 E32.79653
G1 X76.879 Y142.035 E32.89603
G1 X76.118 Y141.141 E33.08054
G1 X75.752 Y140.665 E33.1749
G1 X75.162 Y139.821 E33.33673
G1 X74.861 Y139.343 E33.42551
G1 X74.522 Y138.771 E33.53
G1 X74.126 Y138.054 E33.65872
G1 X73.48 Y136.837 E33.87525
M117 Time Left 1h36m35s
G1 X72.282 Y134.725 E34.25684
G1 X71.876 Y134.056 E34.37982
G1 X71.745 Y133.819 E34.42238
G1 X71.077 Y132.696 E34.62773
G1 X70.576 Y131.75 E34.79596
G1 X70.16 Y130.766 E34.96385
G1 X69.873 Y129.897 E35.10767
G1 X69.592 Y128.699 E35.30105
G1 X69.447 Y127.658 E35.46623
G1 X69.397 Y126.893 E35.58671
G1 X69.38 Y126.17 E35.70036
G1 X69.381 Y117.026 E37.13738
G1 X69.401 Y115.984 E37.30116
G1 X69.426 Y115.366 E37.39836
G1 X69.52 Y113.701 E37.66044
G1 X69.589 Y111.209 E38.05222
G1 X69.589 Y108.79 E38.43238
G1 X69.516 Y106.238 E38.8336
G1 X69.406 Y104.125 E39.16611
G1 X69.384 Y103.475 E39.26832
G1 X69.381 Y94.033 E40.75217
G1 X69.391 Y93.329 E40.86282
G1 X69.463 Y92.179 E41.0439
G1 X69.624 Y91.12 E41.21224
G1 X69.836 Y90.23 E41.35602
G1 X70.224 Y89.064 E41.54914
G1 X70.621 Y88.153 E41.70531
G1 X71.117 Y87.232 E41.86971
G1 X72.51 Y84.893 E42.29754
G1 X74.498 Y81.275 E42.9463
G1 X74.887 Y80.602 E43.06847
G1 X75.05 Y80.342 E43.11669
G1 X75.499 Y79.676 E43.24292
G1 X75.876 Y79.157 E43.34373
G1 X76.556 Y78.313 E43.51406
G1 X76.865 Y77.967 E43.58697
G1 X77.532 Y77.285 E43.73688
G0 F6000 X78.148 Y77.942
G1 F600 X78.613 Y77.506 E43.83706
G1 X79.377 Y76.855 E43.9948
G1 X79.853 Y76.488 E44.08926
G1 X80.688 Y75.904 E44.24939
G1 X81.11 Y75.638 E44.32779
G1 X81.664 Y75.31 E44.42896
G1 X82.368 Y74.921 E44.55537
G1 X83.572 Y74.282 E44.76958
G1 X85.752 Y73.045 E45.16349
G1 X86.412 Y72.645 E45.28477
M117 Time Left 1h36m20s
G1 X86.608 Y72.537 E45.31994
G1 X87.712 Y71.878 E45.522
G1 X88.516 Y71.444 E45.66558
G1 X89.5 Y71.02 E45.83397
G1 X90.444 Y70.71 E45.99011
G1 X91.334 Y70.5 E46.13382
G1 X92.387 Y70.345 E46.30109
G1 X93.163 Y70.295 E46.42329
G1 X93.83 Y70.28 E46.52814
G1 X102.804 Y70.279 E47.93844
G1 X104.135 Y70.305 E48.14765
G1 X106.172 Y70.415 E48.46824
G1 X108.723 Y70.488 E48.86931
G1 X111.192 Y70.49 E49.25732
G1 X113.762 Y70.418 E49.66137
G1 X116.272 Y70.293 E50.05631
M73 P1
G1 X116.814 Y70.28 E50.14151
G1 X125.799 Y70.279 E51.55354
G1 X126.657 Y70.29 E51.68839
G1 X127.688 Y70.352 E51.85071
G1 X128.67 Y70.499 E52.00676
G1 X129.56 Y70.71 E52.1505
G1 X130.576 Y71.048 E52.31877
G1 X131.485 Y71.445 E52.47466
G1 X132.313 Y71.892 E52.62253
G1 X134.634 Y73.276 E53.04721
G1 X138.404 Y75.348 E53.72327
G1 X139.18 Y75.813 E53.86544
G1 X139.794 Y76.227 E53.98182
G1 X140.272 Y76.574 E54.07464
G1 X141.162 Y77.293 E54.25445
G1 X141.384 Y77.492 E54.3013
G1 X142.076 Y78.166 E54.45311
G1 X142.456 Y78.57 E54.54027
G1 X143.145 Y79.377 E54.70703
G1 X143.512 Y79.853 E54.80149
G1 X144.096 Y80.688 E54.96163
G1 X144.362 Y81.11 E55.04002
G1 X144.69 Y81.664 E55.1412
G1 X145.079 Y82.368 E55.2676
G1 X145.713 Y83.563 E55.48019
G1 X146.949 Y85.743 E55.87402
G1 X147.355 Y86.412 E55.99701
G1 X147.463 Y86.608 E56.03218
G1 X148.122 Y87.712 E56.23423
G1 X148.556 Y88.516 E56.37782
G1 X148.98 Y89.5 E56.5462
G1 X149.29 Y90.444 E56.70235
M117 Time Left 1h36m05s
G1 X149.5 Y91.334 E56.84606
G1 X149.655 Y92.387 E57.01333
G1 X149.705 Y93.163 E57.13553
G1 X149.72 Y93.83 E57.24038
G1 X149.719 Y102.934 E58.67111
G1 X149.7 Y103.979 E58.83536
G1 X149.675 Y104.583 E58.93037
G1 X149.581 Y106.248 E59.19244
G1 X149.511 Y108.766 E59.58831
G1 X149.511 Y111.235 E59.97632
G1 X149.583 Y113.768 E60.37456
G1 X149.695 Y115.906 E60.71101
G1 X149.716 Y116.524 E60.80819
G1 X149.719 Y125.931 E62.28654
G1 X149.709 Y126.654 E62.40017
G1 X149.647 Y127.684 E62.56233
G1 X149.515 Y128.589 E62.70606
G1 X149.29 Y129.555 E62.86194
G1 X148.952 Y130.573 E63.03051
G1 X148.556 Y131.483 E63.18647
G1 X148.129 Y132.274 E63.32774
G1 X146.71 Y134.657 E63.7636
G1 X144.653 Y138.402 E64.43508
G1 X144.187 Y139.18 E64.5776
G1 X143.776 Y139.791 E64.69333
G1 X143.431 Y140.267 E64.78571
G1 X142.756 Y141.107 E64.95506
G1 X142.499 Y141.395 E65.01572
G1 X141.852 Y142.058 E65.16131
G1 X141.387 Y142.494 E65.26148
G1 X140.623 Y143.145 E65.41923
G1 X140.147 Y143.512 E65.51368
G1 X139.312 Y144.096 E65.67382
G1 X138.89 Y144.362 E65.75221
G1 X138.336 Y144.69 E65.85339
G1 X137.632 Y145.079 E65.97979
G1 X136.428 Y145.718 E66.194
G1 X134.248 Y146.955 E66.58791
G1 X133.588 Y147.355 E66.7092
G1 X133.392 Y147.463 E66.74436
G1 X132.288 Y148.122 E66.94642
G1 X131.484 Y148.556 E67.09001
G1 X130.5 Y148.98 E67.25839
G1 X129.556 Y149.29 E67.41454
G1 X128.666 Y149.5 E67.55825
G1 X127.615 Y149.655 E67.7252
G1 X126.853 Y149.705 E67.84521
G1 X126.186 Y149.72 E67.95006
M117 Time Left 1h35m50s
G1 X117.196 Y149.721 E69.36288
G1 X115.864 Y149.695 E69.57225
G1 X113.828 Y149.585 E69.89268
G1 X111.277 Y149.512 E70.29374
G1 X108.807 Y149.51 E70.68191
G1 X106.237 Y149.582 E71.08596
G1 X103.728 Y149.707 E71.48075
G1 X103.186 Y149.72 E71.56595
G1 X94.201 Y149.721 E72.97798
G1 X93.344 Y149.71 E73.11267
G1 X92.314 Y149.648 E73.27483
G1 X91.331 Y149.501 E73.43103
G1 X90.442 Y149.29 E73.57462
G1 X89.425 Y148.952 E73.74305
G1 X88.516 Y148.555 E73.89893
G1 X87.692 Y148.11 E74.0461
G1 X85.363 Y146.722 E74.47218
G1 X81.593 Y144.651 E75.14816
G1 X80.801 Y144.175 E75.29338
G1 X80.208 Y143.775 E75.40579
G1 X79.732 Y143.43 E75.49818
G1 X78.894 Y142.757 E75.66709
G1 X78.607 Y142.501 E75.72753
G1 X77.942 Y141.852 E75.87355
G1 X77.535 Y141.419 E75.96694
G1 X76.831 Y140.592 E76.13762
G1 X76.49 Y140.149 E76.22548
G1 X75.9 Y139.305 E76.38731
G1 X75.635 Y138.884 E76.46549
G1 X75.31 Y138.336 E76.56562
G1 X74.921 Y137.632 E76.69202
G1 X74.275 Y136.415 E76.90855
G1 X73.051 Y134.257 E77.29844
G1 X72.664 Y133.621 E77.41544
G1 X72.533 Y133.384 E77.458
G1 X71.871 Y132.272 E77.66138
G1 X71.404 Y131.397 E77.81725
G1 X71.015 Y130.484 E77.97321
G1 X70.728 Y129.615 E78.11703
G1 X70.483 Y128.573 E78.28525
G1 X70.345 Y127.599 E78.43985
G1 X70.297 Y126.871 E78.55451
G1 X70.28 Y126.17 E78.6647
G1 X70.281 Y117.043 E80.09905
G1 X70.3 Y116.021 E80.25969
G1 X70.325 Y115.417 E80.35469
G1 X70.419 Y113.752 E80.61677
M117 Time Left 1h35m35s
G1 X70.489 Y111.234 E81.01264
G1 X70.489 Y108.764 E81.40081
G1 X70.416 Y106.212 E81.80203
G1 X70.305 Y104.094 E82.13534
G1 X70.284 Y103.475 E82.23267
G1 X70.281 Y94.046 E83.71448
G1 X70.291 Y93.342 E83.82513
G1 X70.353 Y92.312 E83.98729
G1 X70.5 Y91.329 E84.14349
G1 X70.712 Y90.439 E84.28727
G1 X71.049 Y89.424 E84.45534
G1 X71.446 Y88.513 E84.61151
G1 X71.89 Y87.693 E84.75806
G1 X73.291 Y85.341 E85.18829
G1 X75.278 Y81.725 E85.8367
G1 X75.65 Y81.08 E85.95372
G1 X75.813 Y80.82 E86.00195
G1 X76.228 Y80.204 E86.11867
G1 X76.577 Y79.722 E86.21219
G1 X77.257 Y78.878 E86.38252
G1 X77.509 Y78.596 E86.44196
G1 X78.148 Y77.942 E86.58565
G0 F6000 X78.792 Y78.571
G1 F600 X79.197 Y78.191 E86.67293
G1 X79.961 Y77.54 E86.83067
G1 X80.369 Y77.225 E86.91168
G1 X81.169 Y76.665 E87.06514
G1 X81.569 Y76.412 E87.13952
G1 X82.099 Y76.098 E87.23633
G1 X82.79 Y75.716 E87.36042
G1 X84.007 Y75.07 E87.57695
G1 X86.211 Y73.82 E87.97514
G1 X86.847 Y73.433 E88.09214
G1 X87.055 Y73.318 E88.12949
G1 X88.14 Y72.67 E88.3281
G1 X88.944 Y72.236 E88.47169
G1 X89.783 Y71.874 E88.61529
G1 X90.651 Y71.586 E88.75901
G1 X91.541 Y71.376 E88.90272
G1 X92.445 Y71.243 E89.04632
G1 X93.184 Y71.195 E89.1627
G1 X93.83 Y71.18 E89.26425
G1 X102.787 Y71.179 E90.67188
G1 X104.086 Y71.204 E90.87606
G1 X106.136 Y71.315 E91.1987
G1 X108.697 Y71.388 E91.60133
G1 X111.216 Y71.39 E91.9972
G1 X113.787 Y71.318 E92.4014
M117 Time Left 1h35m20s
G1 X116.294 Y71.193 E92.79588
G1 X116.814 Y71.18 E92.87762
G1 X125.787 Y71.179 E94.28777
G1 X126.645 Y71.19 E94.42262
G1 X127.558 Y71.243 E94.56634
G1 X128.462 Y71.375 E94.70992
G1 X129.352 Y71.586 E94.85366
G1 X130.219 Y71.874 E94.99723
G1 X131.058 Y72.237 E95.1409
G1 X131.852 Y72.665 E95.28265
G1 X134.186 Y74.057 E95.70973
G1 X137.942 Y76.12 E96.38318
G1 X138.678 Y76.56 E96.51794
G1 X139.267 Y76.956 E96.62947
G1 X139.707 Y77.274 E96.71479
G1 X140.561 Y77.963 E96.88723
G1 X140.783 Y78.162 E96.93409
G1 X141.42 Y78.783 E97.07389
G1 X141.8 Y79.187 E97.16106
G1 X142.46 Y79.961 E97.32091
G1 X142.775 Y80.369 E97.40192
G1 X143.335 Y81.169 E97.55538
G1 X143.588 Y81.569 E97.62976
G1 X143.902 Y82.099 E97.72657
G1 X144.284 Y82.79 E97.85066
G1 X144.93 Y84.007 E98.06719
G1 X146.18 Y86.211 E98.46538
G1 X146.567 Y86.847 E98.58238
G1 X146.682 Y87.055 E98.61974
G1 X147.33 Y88.14 E98.81834
G1 X147.764 Y88.944 E98.96193
G1 X148.126 Y89.783 E99.10553
M73 P2
G1 X148.414 Y90.651 E99.24925
G1 X148.624 Y91.541 E99.39296
G1 X148.757 Y92.445 E99.53656
G1 X148.805 Y93.184 E99.65294
G1 X148.82 Y93.83 E99.75449
G1 X148.819 Y102.918 E101.1827
G1 X148.801 Y103.941 E101.3435
G1 X148.776 Y104.532 E101.43646
G1 X148.682 Y106.197 E101.69854
G1 X148.611 Y108.741 E102.09849
G1 X148.611 Y111.261 E102.49452
G1 X148.684 Y113.815 E102.89606
G1 X148.796 Y115.937 E103.23
G1 X148.816 Y116.524 E103.32231
G1 X148.819 Y125.919 E104.79877
G1 X148.809 Y126.642 E104.9124
M117 Time Left 1h35m05s
G1 X148.756 Y127.554 E105.05597
G1 X148.624 Y128.459 E105.1997
G1 X148.414 Y129.348 E105.34325
G1 X148.126 Y130.216 E105.48698
G1 X147.764 Y131.055 E105.63058
G1 X147.337 Y131.846 E105.77184
G1 X145.929 Y134.209 E106.20412
G1 X143.88 Y137.941 E106.87321
G1 X143.44 Y138.678 E107.0081
G1 X143.046 Y139.264 E107.11907
G1 X142.729 Y139.703 E107.20417
G1 X142.054 Y140.543 E107.37352
G1 X141.855 Y140.766 E107.42049
G1 X141.208 Y141.429 E107.56607
G1 X140.803 Y141.809 E107.65335
G1 X140.039 Y142.46 E107.81109
G1 X139.631 Y142.775 E107.8921
G1 X138.831 Y143.335 E108.04556
G1 X138.431 Y143.588 E108.11994
G1 X137.901 Y143.902 E108.21675
G1 X137.21 Y144.284 E108.34084
G1 X135.993 Y144.93 E108.55737
G1 X133.789 Y146.18 E108.95556
G1 X133.153 Y146.567 E109.07256
G1 X132.945 Y146.682 E109.10992
G1 X131.86 Y147.33 E109.30852
G1 X131.056 Y147.764 E109.45211
G1 X130.217 Y148.126 E109.59571
G1 X129.349 Y148.414 E109.73943
G1 X128.459 Y148.624 E109.88314
G1 X127.555 Y148.757 E110.02674
G1 X126.832 Y148.805 E110.14061
G1 X126.186 Y148.82 E110.24216
G1 X117.213 Y148.821 E111.6523
G1 X115.913 Y148.796 E111.85664
G1 X113.864 Y148.685 E112.17912
G1 X111.303 Y148.612 E112.58176
G1 X108.783 Y148.61 E112.97779
G1 X106.212 Y148.682 E113.38199
G1 X103.705 Y148.807 E113.77646
G1 X103.186 Y148.82 E113.85805
G1 X94.213 Y148.821 E115.2682
G1 X93.356 Y148.81 E115.40289
G1 X92.444 Y148.757 E115.54645
G1 X91.539 Y148.625 E115.69018
G1 X90.65 Y148.414 E115.83377
G1 X89.782 Y148.126 E115.9775
G1 X88.943 Y147.763 E116.12116
M117 Time Left 1h34m50s
G1 X88.153 Y147.337 E116.26221
G1 X85.811 Y145.941 E116.69069
G1 X82.056 Y143.879 E117.36393
G1 X81.304 Y143.428 E117.50173
G1 X80.735 Y143.045 E117.60952
G1 X80.296 Y142.728 E117.69462
G1 X79.458 Y142.055 E117.86353
G1 X79.236 Y141.857 E117.91028
G1 X78.571 Y141.208 E118.0563
G1 X78.191 Y140.803 E118.14358
G1 X77.543 Y140.042 E118.30066
G1 X77.227 Y139.633 E118.38188
G1 X76.661 Y138.824 E118.53705
G1 X76.409 Y138.425 E118.61121
G1 X76.098 Y137.901 E118.70697
G1 X75.716 Y137.21 E118.83106
G1 X75.07 Y135.993 E119.04759
G1 X73.82 Y133.789 E119.44578
G1 X73.433 Y133.153 E119.56278
G1 X73.314 Y132.936 E119.60168
G1 X72.664 Y131.846 E119.80112
G1 X72.231 Y131.041 E119.94477
