;FLAVOR:Marlin
M73 P0


; Pre-Processed for Cancel-Object support by preprocess_cancellation v0.2.0
; 1 known objects
EXCLUDE_OBJECT_DEFINE NAME=parametrizable_rugged_box_v2_bigger_top_stl CENTER=111.334,110.068 POLYGON=[[56.18,56.179],[56.18,163.821],[163.82,163.821],[163.82,56.179]]
M117 Time Left 3h48m36s
;TIME:13716
;Filament used: 19.5314m
;Layer height: 0.3
;MINX:54.38
;MINY:54.379
;MINZ:0.42
;MAXX:165.62
;MAXY:165.621
;MAXZ:33.32
;TARGET_MACHINE.NAME:Creality Ender-3
;POSTPROCESSED
;  [InsertAtLayerChange]
;  [MeshPrintSize]
;  [DisplayProgressOnLCD]
;  [DisplayFilenameAndLayerOnLCD]
;Generated with Cura_SteamEngine 5.6.0
M82 ;absolute extrusion mode
;Nozzle diameter = 0.6
;Filament type = PLA
;Filament name = Black
START_PRINT PRINT_MIN=54.38,54.379 PRINT_MAX=165.62,165.621 BED_TEMP=65 EXTRUDER_TEMP=200.0
G92 E0
G92 E0
G1 F2700 E-5
;LAYER_COUNT:110
TIMELAPSE_TAKE_FRAME
;LAYER:0
M117 Printing parametrizable-rugged-box-v2-bigger-top - Layer 0 of 109
M107
G1 F300 Z0.62
G0 F6000 X62.532 Y62.285 Z0.62
;TYPE:SKIRT
G1 F300 Z0.42
G1 F2700 E0
G1 F600 X62.997 Y61.849 E0.10018
G1 X63.827 Y61.142 E0.27152
G1 X64.337 Y60.75 E0.37261
G1 X65.172 Y60.166 E0.53274
G1 X65.651 Y59.864 E0.62173
G1 X66.229 Y59.522 E0.72728
G1 X66.946 Y59.126 E0.856
G1 X68.137 Y58.494 E1.06789
G1 X70.308 Y57.262 E1.46018
G1 X70.944 Y56.876 E1.5771
G1 X71.178 Y56.747 E1.61909
G1 X72.284 Y56.086 E1.82158
G1 X73.16 Y55.617 E1.97773
G1 X74.144 Y55.193 E2.14612
G1 X75.237 Y54.834 E2.32692
G1 X76.127 Y54.624 E2.47062
G1 X77.329 Y54.447 E2.66156
G1 X78.143 Y54.395 E2.78975
G1 X78.83 Y54.38 E2.89774
M117 Time Left 3h48m21s
G1 X87.811 Y54.379 E4.30914
G1 X88.654 Y54.39 E4.44163
G1 X89.813 Y54.463 E4.62413
G1 X90.81 Y54.614 E4.7826
G1 X93.976 Y55.25 E5.29009
G1 X96.408 Y55.665 E5.67782
G1 X98.888 Y56.019 E6.07151
G1 X101.317 Y56.293 E6.45566
G1 X103.832 Y56.506 E6.85231
G1 X106.282 Y56.644 E7.23795
G1 X108.806 Y56.715 E7.63477
G1 X111.224 Y56.715 E8.01476
G1 X113.745 Y56.642 E8.41112
G1 X116.228 Y56.5 E8.80197
G1 X118.708 Y56.289 E9.19312
G1 X121.131 Y56.013 E9.57636
G1 X123.623 Y55.658 E9.97195
G1 X126.078 Y55.236 E10.36342
G1 X129.175 Y54.615 E10.85981
G1 X130.155 Y54.465 E11.01562
G1 X131.161 Y54.394 E11.17411
G1 X131.814 Y54.38 E11.27675
G1 X140.811 Y54.379 E12.69067
G1 X141.668 Y54.39 E12.82536
G1 X142.819 Y54.462 E13.0066
G1 X143.877 Y54.623 E13.17478
M117 Time Left 3h48m06s
G1 X144.766 Y54.834 E13.31837
G1 X145.935 Y55.223 E13.51199
G1 X146.844 Y55.62 E13.66787
G1 X147.768 Y56.116 E13.83268
G1 X150.102 Y57.506 E14.2596
G1 X153.867 Y59.576 E14.93482
G1 X154.643 Y60.041 E15.07699
G1 X155.323 Y60.499 E15.20583
G1 X155.838 Y60.874 E15.30595
G1 X156.728 Y61.593 E15.48576
G1 X157.012 Y61.847 E15.54563
G1 X157.732 Y62.549 E15.70367
G1 X158.112 Y62.953 E15.79083
G1 X158.858 Y63.827 E15.97141
G1 X159.25 Y64.337 E16.0725
G1 X159.834 Y65.172 E16.23263
G1 X160.136 Y65.651 E16.32162
G1 X160.478 Y66.229 E16.42717
G1 X160.874 Y66.946 E16.55589
G1 X161.496 Y68.119 E16.76455
G1 X162.732 Y70.299 E17.15838
G1 X163.914 Y72.284 E17.52144
G1 X164.383 Y73.16 E17.6776
G1 X164.807 Y74.144 E17.84599
G1 X165.166 Y75.237 E18.02678
G1 X165.376 Y76.127 E18.17049
M117 Time Left 3h47m51s
G1 X165.553 Y77.329 E18.36143
G1 X165.605 Y78.143 E18.48961
G1 X165.62 Y78.83 E18.5976
G1 X165.619 Y87.96 E20.03242
G1 X165.608 Y88.686 E20.14653
G1 X165.534 Y89.843 E20.32873
G1 X165.381 Y90.846 E20.48817
G1 X164.746 Y93.988 E20.99194
G1 X164.33 Y96.422 E21.38
G1 X163.982 Y98.871 E21.76873
G1 X163.708 Y101.287 E22.15085
G1 X163.497 Y103.765 E22.54169
G1 X163.354 Y106.277 E22.9371
G1 X163.284 Y108.78 E23.33061
G1 X163.284 Y111.199 E23.71076
G1 X163.354 Y113.701 E24.10412
G1 X163.497 Y116.205 E24.49827
G1 X163.708 Y118.688 E24.88989
G1 X163.98 Y121.09 E25.26979
G1 X164.329 Y123.552 E25.66057
G1 X164.752 Y126.022 E26.05439
G1 X165.383 Y129.158 E26.55711
G1 X165.541 Y130.209 E26.72413
G1 X165.605 Y131.142 E26.8711
G1 X165.62 Y131.83 E26.97925
G1 X165.619 Y140.943 E28.41139
G1 X165.609 Y141.666 E28.52503
M117 Time Left 3h47m36s
G1 X165.538 Y142.814 E28.70578
G1 X165.392 Y143.793 E28.86134
G1 X165.144 Y144.839 E29.03028
G1 X164.777 Y145.932 E29.21147
G1 X164.348 Y146.911 E29.37945
G1 X163.921 Y147.702 E29.52072
G1 X162.499 Y150.09 E29.9575
G1 X160.425 Y153.864 E30.63426
G1 X159.934 Y154.682 E30.78419
G1 X159.505 Y155.319 E30.90488
G1 X159.133 Y155.831 E31.00434
G1 X158.458 Y156.671 E31.17369
G1 X158.143 Y157.024 E31.24804
G1 X157.468 Y157.715 E31.39985
G1 X157.003 Y158.151 E31.50002
G1 X156.173 Y158.858 E31.67137
G1 X155.663 Y159.25 E31.77246
G1 X154.828 Y159.834 E31.93259
G1 X154.349 Y160.136 E32.02158
G1 X153.771 Y160.478 E32.12713
G1 X153.054 Y160.874 E32.25585
G1 X151.863 Y161.506 E32.46774
G1 X149.692 Y162.738 E32.86003
G1 X149.056 Y163.124 E32.97695
G1 X148.819 Y163.255 E33.0195
G1 X147.696 Y163.923 E33.22485
M117 Time Left 3h47m21s
G1 X146.75 Y164.424 E33.39308
G1 X145.766 Y164.84 E33.56097
G1 X144.897 Y165.127 E33.70479
G1 X143.699 Y165.408 E33.89817
G1 X142.661 Y165.553 E34.06288
G1 X141.91 Y165.603 E34.18117
G1 X141.186 Y165.62 E34.29498
G1 X132.189 Y165.621 E35.70889
G1 X131.333 Y165.61 E35.84343
G1 X130.175 Y165.537 E36.02578
G1 X129.164 Y165.384 E36.18647
G1 X126.003 Y164.747 E36.69322
G1 X123.592 Y164.335 E37.07761
G1 X121.112 Y163.981 E37.4713
G1 X118.683 Y163.707 E37.85545
G1 X116.168 Y163.494 E38.25211
G1 X113.718 Y163.356 E38.63775
G1 X111.194 Y163.285 E39.03456
G1 X108.776 Y163.285 E39.41456
G1 X106.255 Y163.358 E39.81091
G1 X103.772 Y163.5 E40.20176
G1 X101.292 Y163.711 E40.59291
G1 X98.869 Y163.987 E40.97616
G1 X96.377 Y164.342 E41.37174
G1 X93.922 Y164.764 E41.76321
G1 X90.825 Y165.385 E42.25961
M117 Time Left 3h47m06s
G1 X89.845 Y165.535 E42.41541
G1 X88.839 Y165.606 E42.5739
G1 X88.186 Y165.62 E42.67655
G1 X79.189 Y165.621 E44.09046
G1 X78.334 Y165.61 E44.22484
G1 X77.182 Y165.538 E44.40624
G1 X76.125 Y165.377 E44.57426
G1 X75.236 Y165.166 E44.71785
G1 X74.067 Y164.777 E44.91147
G1 X73.158 Y164.38 E45.06736
G1 X72.236 Y163.885 E45.23181
G1 X69.913 Y162.501 E45.65676
G1 X66.129 Y160.422 E46.33528
G1 X65.298 Y159.921 E46.48777
G1 X64.68 Y159.504 E46.60493
G1 X64.168 Y159.132 E46.70439
G1 X63.33 Y158.459 E46.8733
G1 X62.978 Y158.145 E46.94743
G1 X62.313 Y157.496 E47.09346
G1 X61.879 Y157.035 E47.19296
G1 X61.118 Y156.141 E47.37746
G1 X60.752 Y155.665 E47.47183
G1 X60.162 Y154.821 E47.63366
G1 X59.861 Y154.343 E47.72243
G1 X59.522 Y153.771 E47.82693
G1 X59.126 Y153.054 E47.95565
G1 X58.48 Y151.837 E48.17218
M117 Time Left 3h46m51s
G1 X57.282 Y149.725 E48.55377
G1 X56.876 Y149.056 E48.67675
G1 X56.745 Y148.819 E48.71931
G1 X56.077 Y147.696 E48.92465
G1 X55.576 Y146.75 E49.09288
G1 X55.16 Y145.766 E49.26077
G1 X54.873 Y144.897 E49.4046
G1 X54.592 Y143.699 E49.59798
G1 X54.447 Y142.658 E49.76315
G1 X54.397 Y141.893 E49.88363
G1 X54.38 Y141.17 E49.99729
G1 X54.381 Y132.016 E51.43588
G1 X54.392 Y131.309 E51.547
G1 X54.466 Y130.153 E51.72904
G1 X54.619 Y129.152 E51.88818
G1 X55.258 Y125.994 E52.39453
G1 X55.666 Y123.6 E52.77618
G1 X56.018 Y121.129 E53.16843
G1 X56.292 Y118.713 E53.55055
G1 X56.503 Y116.227 E53.94264
G1 X56.646 Y113.723 E54.33679
G1 X56.716 Y111.22 E54.7303
G1 X56.716 Y108.801 E55.11046
G1 X56.644 Y106.247 E55.51199
G1 X56.503 Y103.784 E55.89969
G1 X56.293 Y101.315 E56.28911
M117 Time Left 3h46m36s
G1 X56.019 Y98.902 E56.67076
G1 X55.664 Y96.402 E57.06758
G1 X55.243 Y93.953 E57.4581
G1 X54.615 Y90.826 E57.95933
G1 X54.465 Y89.845 E58.11529
G1 X54.393 Y88.821 E58.27662
G1 X54.38 Y88.17 E58.37894
G1 X54.381 Y79.033 E59.81486
G1 X54.391 Y78.329 E59.92551
G1 X54.463 Y77.179 E60.10659
G1 X54.624 Y76.12 E60.27493
G1 X54.836 Y75.23 E60.41871
G1 X55.224 Y74.064 E60.61183
G1 X55.621 Y73.153 E60.768
G1 X56.117 Y72.232 E60.9324
G1 X57.51 Y69.893 E61.36023
G1 X59.498 Y66.275 E62.00899
G1 X59.887 Y65.602 E62.13116
G1 X60.05 Y65.342 E62.17938
G1 X60.499 Y64.676 E62.30561
G1 X60.876 Y64.157 E62.40642
G1 X61.556 Y63.313 E62.57675
G1 X61.865 Y62.967 E62.64965
G1 X62.532 Y62.285 E62.79957
G0 F6000 X63.148 Y62.942
G1 F600 X63.613 Y62.506 E62.89975
M117 Time Left 3h46m21s
G1 X64.377 Y61.855 E63.05749
G1 X64.853 Y61.488 E63.15195
G1 X65.688 Y60.904 E63.31208
G1 X66.11 Y60.638 E63.39048
G1 X66.664 Y60.31 E63.49165
G1 X67.368 Y59.921 E63.61806
G1 X68.572 Y59.282 E63.83227
G1 X70.752 Y58.045 E64.22618
G1 X71.379 Y57.664 E64.34148
M73 P1
G1 X71.613 Y57.535 E64.38347
G1 X72.712 Y56.878 E64.58469
G1 X73.516 Y56.444 E64.72828
G1 X74.5 Y56.02 E64.89666
G1 X75.444 Y55.71 E65.05281
G1 X76.334 Y55.5 E65.19652
G1 X77.387 Y55.345 E65.36378
G1 X78.163 Y55.295 E65.48599
G1 X78.83 Y55.28 E65.59084
G1 X87.799 Y55.279 E67.00035
G1 X88.642 Y55.29 E67.13284
G1 X89.678 Y55.353 E67.29596
G1 X90.675 Y55.504 E67.45442
G1 X93.824 Y56.137 E67.9592
G1 X96.271 Y56.555 E68.34933
G1 X98.763 Y56.91 E68.74491
G1 X101.241 Y57.19 E69.13682
G1 X103.777 Y57.405 E69.53679
M117 Time Left 3h46m06s
G1 X106.241 Y57.544 E69.92463
G1 X108.781 Y57.615 E70.32396
G1 X111.25 Y57.615 E70.71197
G1 X113.786 Y57.542 E71.11068
G1 X116.284 Y57.399 E71.5039
G1 X118.784 Y57.186 E71.8982
G1 X121.253 Y56.905 E72.28872
G1 X123.766 Y56.547 E72.68764
G1 X126.231 Y56.123 E73.08071
G1 X129.311 Y55.505 E73.5744
G1 X130.291 Y55.355 E73.7302
G1 X131.181 Y55.294 E73.8704
G1 X131.814 Y55.28 E73.9699
G1 X140.799 Y55.279 E75.38193
G1 X141.656 Y55.29 E75.51662
G1 X142.686 Y55.352 E75.67878
G1 X143.669 Y55.499 E75.83498
G1 X144.558 Y55.71 E75.97857
G1 X145.575 Y56.048 E76.14699
G1 X146.484 Y56.445 E76.30288
G1 X147.307 Y56.889 E76.44984
G1 X149.654 Y58.287 E76.87915
G1 X153.404 Y60.348 E77.55162
G1 X154.18 Y60.813 E77.69379
G1 X154.794 Y61.227 E77.81017
G1 X155.272 Y61.574 E77.903
M117 Time Left 3h45m51s
G1 X156.162 Y62.293 E78.0828
G1 X156.384 Y62.492 E78.12966
G1 X157.076 Y63.166 E78.28147
G1 X157.456 Y63.57 E78.36863
G1 X158.145 Y64.377 E78.53539
G1 X158.512 Y64.853 E78.62985
G1 X159.096 Y65.688 E78.78998
G1 X159.362 Y66.11 E78.86838
G1 X159.69 Y66.664 E78.96955
G1 X160.079 Y67.368 E79.09596
G1 X160.713 Y68.563 E79.30855
G1 X161.949 Y70.743 E79.70238
G1 X162.355 Y71.412 E79.82536
G1 X162.463 Y71.608 E79.86053
G1 X163.122 Y72.712 E80.06259
G1 X163.556 Y73.516 E80.20617
G1 X163.98 Y74.5 E80.37456
G1 X164.29 Y75.444 E80.53071
G1 X164.5 Y76.334 E80.67441
G1 X164.655 Y77.387 E80.84168
G1 X164.705 Y78.163 E80.96389
G1 X164.72 Y78.83 E81.06873
G1 X164.719 Y87.946 E82.50135
G1 X164.708 Y88.672 E82.61546
G1 X164.644 Y89.707 E82.77842
G1 X164.491 Y90.71 E82.93787
M117 Time Left 3h45m36s
G1 X163.859 Y93.836 E83.43908
G1 X163.443 Y96.27 E83.82714
G1 X163.091 Y98.744 E84.21985
G1 X162.811 Y101.211 E84.61004
G1 X162.598 Y103.714 E85.00482
G1 X162.455 Y106.226 E85.40023
G1 X162.384 Y108.755 E85.79783
G1 X162.384 Y111.224 E86.18584
G1 X162.455 Y113.752 E86.58328
G1 X162.598 Y116.26 E86.97807
G1 X162.811 Y118.767 E87.37347
G1 X163.089 Y121.216 E87.76081
G1 X163.442 Y123.704 E88.15573
G1 X163.869 Y126.196 E88.55306
G1 X164.493 Y129.294 E89.04971
G1 X164.643 Y130.272 E89.2052
G1 X164.705 Y131.162 E89.34541
G1 X164.72 Y131.83 E89.45041
G1 X164.719 Y140.931 E90.88067
G1 X164.709 Y141.654 E90.9943
G1 X164.647 Y142.684 E91.15647
G1 X164.515 Y143.589 E91.30019
G1 X164.29 Y144.555 E91.45607
G1 X163.952 Y145.573 E91.62464
G1 X163.556 Y146.483 E91.7806
G1 X163.129 Y147.274 E91.92187
G1 X161.71 Y149.657 E92.35773
M117 Time Left 3h45m21s
G1 X159.653 Y153.402 E93.02921
G1 X159.187 Y154.18 E93.17173
G1 X158.776 Y154.791 E93.28746
G1 X158.431 Y155.267 E93.37984
G1 X157.756 Y156.107 E93.54919
G1 X157.499 Y156.395 E93.60986
G1 X156.852 Y157.058 E93.75544
G1 X156.387 Y157.494 E93.85561
G1 X155.623 Y158.145 E94.01336
G1 X155.147 Y158.512 E94.10782
G1 X154.312 Y159.096 E94.26795
G1 X153.89 Y159.362 E94.34634
G1 X153.336 Y159.69 E94.44752
G1 X152.632 Y160.079 E94.57392
G1 X151.428 Y160.718 E94.78814
G1 X149.248 Y161.955 E95.18204
G1 X148.621 Y162.336 E95.29734
G1 X148.384 Y162.467 E95.3399
G1 X147.272 Y163.129 E95.54328
G1 X146.397 Y163.596 E95.69915
G1 X145.484 Y163.985 E95.85511
G1 X144.615 Y164.272 E95.99893
G1 X143.573 Y164.517 E96.16715
G1 X142.6 Y164.655 E96.3216
G1 X141.888 Y164.703 E96.43374
G1 X141.186 Y164.72 E96.5441
M117 Time Left 3h45m06s
G1 X132.201 Y164.721 E97.95613
G1 X131.345 Y164.71 E98.09066
G1 X130.31 Y164.647 E98.25362
G1 X129.299 Y164.494 E98.41431
G1 X126.163 Y163.861 E98.91708
G1 X123.729 Y163.445 E99.30514
G1 X121.237 Y163.09 E99.70073
G1 X118.759 Y162.81 E100.09263
G1 X116.223 Y162.595 E100.49261
G1 X113.759 Y162.456 E100.88045
G1 X111.219 Y162.385 E101.27978
G1 X108.75 Y162.385 E101.66779
G1 X106.214 Y162.458 E102.0665
G1 X103.716 Y162.601 E102.45971
G1 X101.216 Y162.814 E102.85402
G1 X98.747 Y163.095 E103.24454
G1 X96.234 Y163.453 E103.64345
G1 X93.769 Y163.877 E104.03653
G1 X90.689 Y164.495 E104.53021
G1 X89.709 Y164.645 E104.68602
G1 X88.819 Y164.706 E104.82621
G1 X88.186 Y164.72 E104.92571
G1 X79.201 Y164.721 E106.33774
G1 X78.346 Y164.71 E106.47212
G1 X77.315 Y164.648 E106.63444
G1 X76.333 Y164.501 E106.79048
M117 Time Left 3h44m51s
G1 X75.444 Y164.29 E106.93408
G1 X74.427 Y163.952 E107.1025
G1 X73.518 Y163.555 E107.25838
G1 X72.697 Y163.112 E107.40499
G1 X70.361 Y161.72 E107.83234
G1 X66.593 Y159.651 E108.50789
G1 X65.801 Y159.175 E108.65311
G1 X65.208 Y158.775 E108.76552
G1 X64.732 Y158.43 E108.85791
G1 X63.894 Y157.757 E109.02681
G1 X63.607 Y157.501 E109.08725
G1 X62.942 Y156.852 E109.23328
G1 X62.535 Y156.419 E109.32667
G1 X61.831 Y155.592 E109.49735
G1 X61.49 Y155.149 E109.58521
G1 X60.9 Y154.305 E109.74704
G1 X60.635 Y153.884 E109.82522
G1 X60.31 Y153.336 E109.92535
G1 X59.921 Y152.632 E110.05175
G1 X59.275 Y151.415 E110.26828
G1 X58.051 Y149.257 E110.65817
G1 X57.664 Y148.621 E110.77517
G1 X57.533 Y148.384 E110.81773
G1 X56.871 Y147.272 E111.02111
G1 X56.404 Y146.397 E111.17698
G1 X56.015 Y145.484 E111.33294
M117 Time Left 3h44m36s
G1 X55.728 Y144.615 E111.47676
G1 X55.483 Y143.573 E111.64498
G1 X55.345 Y142.599 E111.79958
G1 X55.297 Y141.871 E111.91423
G1 X55.28 Y141.17 E112.02443
G1 X55.281 Y132.03 E113.46082
G1 X55.292 Y131.323 E113.57194
G1 X55.356 Y130.289 E113.73475
G1 X55.509 Y129.288 E113.89389
G1 X56.14 Y126.173 E114.39337
G1 X56.557 Y123.73 E114.78285
G1 X56.909 Y121.256 E115.17556
G1 X57.189 Y118.789 E115.56575
G1 X57.402 Y116.282 E115.96116
G1 X57.545 Y113.774 E116.35594
G1 X57.616 Y111.245 E116.75354
G1 X57.616 Y108.776 E117.14155
G1 X57.544 Y106.222 E117.54308
G1 X57.402 Y103.733 E117.93487
G1 X57.19 Y101.239 E118.32823
G1 X56.91 Y98.775 E118.71795
G1 X56.555 Y96.275 E119.11478
G1 X56.13 Y93.801 E119.50927
G1 X55.505 Y90.69 E120.00795
G1 X55.355 Y89.709 E120.16391
G1 X55.293 Y88.803 E120.30662
G1 X55.28 Y88.17 E120.40612
M117 Time Left 3h44m21s
G1 X55.281 Y79.046 E121.84
G1 X55.291 Y78.342 E121.95064
G1 X55.353 Y77.312 E122.11281
G1 X55.5 Y76.329 E122.26901
G1 X55.712 Y75.439 E122.41279
G1 X56.049 Y74.424 E122.58086
G1 X56.446 Y73.513 E122.73703
G1 X56.89 Y72.693 E122.88358
G1 X58.291 Y70.341 E123.31381
G1 X60.278 Y66.725 E123.96222
G1 X60.65 Y66.08 E124.07924
G1 X60.813 Y65.82 E124.12746
G1 X61.228 Y65.204 E124.24419
G1 X61.577 Y64.722 E124.33771
G1 X62.257 Y63.878 E124.50804
G1 X62.509 Y63.596 E124.56747
G1 X63.148 Y62.942 E124.71117
G0 F6000 X63.792 Y63.571
G1 F600 X64.197 Y63.191 E124.79845
G1 X64.961 Y62.54 E124.95619
G1 X65.369 Y62.225 E125.03719
G1 X66.169 Y61.665 E125.19066
G1 X66.569 Y61.412 E125.26504
G1 X67.099 Y61.098 E125.36185
G1 X67.79 Y60.716 E125.48593
G1 X69.007 Y60.07 E125.70246
M117 Time Left 3h44m06s
G1 X71.211 Y58.82 E126.10066
G1 X71.847 Y58.433 E126.21766
G1 X72.063 Y58.314 E126.25642
G1 X73.14 Y57.67 E126.45362
G1 X73.944 Y57.236 E126.59721
G1 X74.783 Y56.874 E126.74081
G1 X75.651 Y56.586 E126.88453
G1 X76.541 Y56.376 E127.02824
G1 X77.445 Y56.243 E127.17184
G1 X78.184 Y56.195 E127.28822
G1 X78.83 Y56.18 E127.38977
G1 X87.787 Y56.179 E128.7974
G1 X88.63 Y56.19 E128.92989
G1 X89.543 Y56.243 E129.07361
G1 X90.54 Y56.394 E129.23208
G1 X93.672 Y57.024 E129.73415
G1 X96.134 Y57.445 E130.12668
M73 P2
G1 X98.638 Y57.801 E130.52415
G1 X101.165 Y58.087 E130.92381
G1 X103.722 Y58.304 E131.3271
