;FLAVOR:Marlin
M73 P0


; Pre-Processed for Cancel-Object support by preprocess_cancellation v0.2.0
; 1 known objects
EXCLUDE_OBJECT_DEFINE NAME=pin_stl CENTER=108.047,110.014 POLYGON=[[82.223,95.72],[82.223,124.27],[137.782,124.27],[137.782,95.72]]
M117 Time Left 0h02m33s
;TIME:153
;Filament used: 0.088375m
;Layer height: 0.2
;MINX:81.023
;MINY:94.52
;MINZ:0.32
;MAXX:138.982
;MAXY:125.47
;MAXZ:1.12
;TARGET_MACHINE.NAME:Creality Ender-3
;POSTPROCESSED
;  [InsertAtLayerChange]
;  [MeshPrintSize]
;  [DisplayProgressOnLCD]
;  [DisplayFilenameAndLayerOnLCD]
;Generated with Cura_SteamEngine 5.6.0
M82 ;absolute extrusion mode
;Nozzle diameter = 0.4
;Filament type = PLA
;Filament name = Sakura Pink
START_PRINT PRINT_MIN=81.023,94.52 PRINT_MAX=138.982,125.47 BED_TEMP=65 EXTRUDER_TEMP=210.0
G92 E0
G92 E0
G1 F2700 E-5
;LAYER_COUNT:4
TIMELAPSE_TAKE_FRAME
;LAYER:0
M117 Printing pin - Layer 0 of 3
M107
G1 F300 Z0.52
G0 F6000 X85.42 Y100.024 Z0.52
;TYPE:SKIRT
G1 F300 Z0.32
G1 F2700 E0
G1 F600 X86.112 Y99.437 E0.07244
G1 X86.842 Y98.909 E0.14435
G1 X87.23 Y98.652 E0.1815
G1 X88.007 Y98.184 E0.25391
G1 X88.844 Y97.768 E0.32852
M73 P1
G1 X89.292 Y97.569 E0.36765
G1 X90.236 Y97.202 E0.4485
G1 X91.203 Y96.92 E0.5289
G1 X92.022 Y96.752 E0.59564
G1 X92.534 Y96.668 E0.63706
G1 X93.613 Y96.543 E0.72376
G1 X94.43 Y96.489 E0.78912
G1 X97.024 Y96.279 E0.99686
G1 X99.472 Y96.01 E1.19345
G1 X101.977 Y95.662 E1.39533
G1 X104.439 Y95.25 E1.59459
G1 X106.996 Y94.756 E1.80247
G1 X107.743 Y94.635 E1.86288
M73 P2
G1 X108.757 Y94.532 E1.94424
G1 X109.844 Y94.52 E2.03101
G1 X110.493 Y94.546 E2.08286
G1 X127.199 Y95.472 E3.41845
G1 X127.94 Y95.525 E3.47775
G1 X128.971 Y95.648 E3.56064
G1 X129.963 Y95.856 E3.64154
G1 X130.932 Y96.15 E3.72238
G1 X131.815 Y96.503 E3.79828
G1 X132.523 Y96.847 E3.86112
G1 X133.467 Y97.379 E3.94761
G1 X134.302 Y97.954 E4.02854
G1 X135.081 Y98.599 E4.10927
M73 P3
G1 X135.729 Y99.234 E4.1817
G1 X136.457 Y100.086 E4.27115
G1 X136.984 Y100.825 E4.34361
G1 X137.543 Y101.776 E4.43166
G1 X137.86 Y102.426 E4.48939
G1 X138 Y102.741 E4.51691
G1 X138.334 Y103.585 E4.58936
G1 X138.652 Y104.657 E4.67862
G1 X138.833 Y105.546 E4.75104
G1 X138.959 Y106.656 E4.84021
G1 X138.982 Y107.554 E4.91192
G1 X138.963 Y108.881 E5.01785
M73 P4
G1 X138.982 Y112.668 E5.32015
G1 X138.946 Y113.575 E5.39261
G1 X138.803 Y114.684 E5.48187
G1 X138.582 Y115.674 E5.56284
G1 X138.276 Y116.638 E5.64357
G1 X137.93 Y117.477 E5.71602
G1 X137.412 Y118.471 E5.80549
G1 X136.876 Y119.305 E5.88463
G1 X136.523 Y119.779 E5.93181
G1 X136.243 Y120.132 E5.96777
G1 X135.581 Y120.897 E6.04853
G1 X134.931 Y121.53 E6.12095
G1 X134.063 Y122.238 E6.21036
M73 P5
G1 X133.312 Y122.747 E6.28278
G1 X132.336 Y123.291 E6.37198
G1 X131.507 Y123.661 E6.44444
G1 X130.447 Y124.026 E6.53393
G1 X129.503 Y124.257 E6.61151
G1 X128.11 Y124.45 E6.72377
G1 X126.72 Y124.554 E6.83503
G1 X110.668 Y125.444 E8.11834
G1 X110.034 Y125.47 E8.16899
G1 X109.031 Y125.464 E8.24906
G1 X108.504 Y125.436 E8.29119
G1 X107.515 Y125.34 E8.3705
G1 X106.931 Y125.241 E8.41779
M73 P6
G1 X105.903 Y125.036 E8.50146
G1 X103.351 Y124.565 E8.70861
G1 X100.834 Y124.175 E8.91193
G1 X98.435 Y123.872 E9.10495
G1 X94.679 Y123.527 E9.40603
G1 X93.469 Y123.436 E9.50289
G1 X92.865 Y123.373 E9.55137
G1 X91.831 Y123.215 E9.63486
G1 X90.861 Y122.977 E9.71459
G1 X90.37 Y122.831 E9.75548
G1 X89.463 Y122.516 E9.83212
G1 X88.507 Y122.086 E9.9158
G1 X87.911 Y121.764 E9.96987
M73 P7
G1 X87.457 Y121.498 E10.01187
G1 X86.694 Y121.008 E10.08426
G1 X85.81 Y120.324 E10.17348
G1 X85.168 Y119.732 E10.24319
G1 X84.847 Y119.41 E10.27948
G1 X84.149 Y118.642 E10.36233
G1 X83.583 Y117.903 E10.43663
G1 X83.291 Y117.486 E10.47727
G1 X82.75 Y116.629 E10.55817
G1 X82.312 Y115.78 E10.63442
G1 X81.964 Y114.951 E10.70619
G1 X81.804 Y114.521 E10.74282
M73 P8
G1 X81.524 Y113.658 E10.81524
G1 X81.3 Y112.709 E10.89307
G1 X81.223 Y112.307 E10.92575
G1 X81.091 Y111.409 E10.9982
G1 X81.03 Y110.461 E11.07403
G1 X81.023 Y110.104 E11.10253
G1 X81.048 Y109.108 E11.18206
G1 X81.124 Y108.33 E11.24446
G1 X81.293 Y107.285 E11.32896
G1 X81.573 Y106.202 E11.41825
G1 X81.735 Y105.686 E11.46143
G1 X82.073 Y104.759 E11.54019
G1 X82.524 Y103.797 E11.625
M73 P9
G1 X82.981 Y103.003 E11.69813
G1 X83.227 Y102.614 E11.73487
G1 X83.745 Y101.869 E11.8073
G1 X84.388 Y101.092 E11.88781
G1 X84.687 Y100.762 E11.92335
G1 X85.42 Y100.024 E12.00638
G0 F6000 X85.808 Y100.482
G1 F600 X86.5 Y99.895 E12.07882
G1 X87.173 Y99.409 E12.14508
G1 X87.54 Y99.166 E12.18022
G1 X88.317 Y98.698 E12.25262
M117 Time Left 0h02m18s
G1 X89.11 Y98.306 E12.32324
M73 P10
G1 X89.511 Y98.128 E12.35826
G1 X90.405 Y97.778 E12.43489
G1 X91.324 Y97.508 E12.51135
G1 X92.12 Y97.344 E12.57623
G1 X92.603 Y97.264 E12.61531
G1 X93.653 Y97.142 E12.69969
G1 X94.47 Y97.088 E12.76505
G1 X97.072 Y96.877 E12.97343
G1 X99.546 Y96.605 E13.17211
G1 X102.076 Y96.254 E13.376
G1 X104.538 Y95.842 E13.57526
G1 X107.092 Y95.348 E13.78291
G1 X107.805 Y95.232 E13.84057
M73 P11
G1 X108.764 Y95.132 E13.91754
G1 X109.851 Y95.12 E14.00431
G1 X110.46 Y95.145 E14.05296
G1 X127.157 Y96.071 E15.38784
G1 X127.87 Y96.121 E15.44489
G1 X128.849 Y96.236 E15.52358
G1 X129.79 Y96.431 E15.60029
G1 X130.71 Y96.708 E15.67698
G1 X131.553 Y97.043 E15.7494
G1 X132.261 Y97.387 E15.81223
G1 X133.128 Y97.874 E15.89161
G1 X133.92 Y98.417 E15.96826
M73 P12
G1 X134.661 Y99.028 E16.04492
G1 X135.309 Y99.663 E16.11735
G1 X135.968 Y100.434 E16.19831
G1 X136.495 Y101.173 E16.27076
G1 X137.004 Y102.04 E16.35102
G1 X137.312 Y102.67 E16.40699
G1 X137.442 Y102.962 E16.43251
G1 X137.776 Y103.806 E16.50496
G1 X138.064 Y104.777 E16.58581
G1 X138.245 Y105.666 E16.65823
G1 X138.359 Y106.672 E16.73905
G1 X138.382 Y107.545 E16.80876
G1 X138.363 Y108.872 E16.91469
M73 P13
G1 X138.382 Y112.644 E17.2158
G1 X138.346 Y113.551 E17.28825
G1 X138.217 Y114.555 E17.36906
G1 X138.01 Y115.493 E17.44573
G1 X137.721 Y116.409 E17.5224
G1 X137.375 Y117.248 E17.59485
G1 X136.907 Y118.147 E17.67575
G1 X136.394 Y118.947 E17.75161
G1 X136.052 Y119.407 E17.79737
G1 X135.789 Y119.74 E17.83124
G1 X135.162 Y120.467 E17.90788
G1 X134.512 Y121.1 E17.9803
G1 X133.726 Y121.741 E18.06126
M73 P14
G1 X132.975 Y122.25 E18.13368
G1 X132.091 Y122.743 E18.21448
G1 X131.262 Y123.113 E18.28694
G1 X130.304 Y123.443 E18.36782
G1 X129.36 Y123.674 E18.4454
G1 X128.065 Y123.852 E18.54975
G1 X126.687 Y123.955 E18.66005
G1 X110.643 Y124.845 E19.94272
G1 X110.037 Y124.87 E19.99114
G1 X109.062 Y124.865 E20.06897
G1 X108.561 Y124.839 E20.10901
G1 X107.615 Y124.748 E20.18487
G1 X107.031 Y124.649 E20.23216
M73 P15
G1 X106.012 Y124.446 E20.3151
G1 X103.448 Y123.973 E20.52322
G1 X100.926 Y123.582 E20.72694
G1 X98.505 Y123.276 E20.92173
G1 X94.724 Y122.929 E21.22482
G1 X93.531 Y122.839 E21.32032
G1 X92.927 Y122.776 E21.36879
G1 X91.974 Y122.632 E21.44573
G1 X91.004 Y122.394 E21.52546
G1 X90.567 Y122.264 E21.56185
G1 X89.66 Y121.949 E21.63849
G1 X88.792 Y121.558 E21.71449
M73 P16
G1 X88.214 Y121.246 E21.76692
G1 X87.781 Y120.993 E21.80695
G1 X87.018 Y120.503 E21.87933
G1 X86.217 Y119.883 E21.96019
G1 X85.593 Y119.308 E22.02792
G1 X85.272 Y118.986 E22.06422
G1 X84.625 Y118.277 E22.14083
G1 X84.074 Y117.559 E22.21308
G1 X83.798 Y117.165 E22.25148
G1 X83.283 Y116.353 E22.32823
G1 X82.865 Y115.547 E22.40071
G1 X82.526 Y114.741 E22.47051
G1 X82.375 Y114.336 E22.50501
M73 P17
G1 X82.095 Y113.473 E22.57743
G1 X81.889 Y112.596 E22.64934
G1 X81.817 Y112.22 E22.6799
G1 X81.685 Y111.322 E22.75236
G1 X81.63 Y110.448 E22.82226
G1 X81.623 Y110.118 E22.84861
G1 X81.645 Y109.166 E22.92462
G1 X81.721 Y108.388 E22.98702
G1 X81.874 Y107.435 E23.06407
G1 X82.146 Y106.381 E23.15096
G1 X82.299 Y105.892 E23.19186
G1 X82.637 Y104.965 E23.27062
G1 X83.044 Y104.096 E23.34722
M73 P18
G1 X83.488 Y103.324 E23.41831
G1 X83.72 Y102.957 E23.45297
G1 X84.238 Y102.212 E23.5254
G1 X84.833 Y101.495 E23.59977
G1 X85.132 Y101.165 E23.63532
G1 X85.808 Y100.482 E23.71203
G0 F6000 X86.196 Y100.94
G1 F600 X86.888 Y100.353 E23.78446
G1 X87.505 Y99.909 E23.84514
G1 X87.85 Y99.68 E23.8782
G1 X88.627 Y99.212 E23.9506
G1 X89.354 Y98.854 E24.01529
G1 X89.731 Y98.686 E24.04823
M73 P19
G1 X90.575 Y98.353 E24.12066
G1 X91.445 Y98.096 E24.19307
G1 X92.219 Y97.936 E24.25617
G1 X92.672 Y97.86 E24.29283
G1 X93.693 Y97.741 E24.37488
G1 X94.51 Y97.687 E24.44024
G1 X97.121 Y97.475 E24.64935
G1 X99.62 Y97.2 E24.85003
G1 X102.175 Y96.846 E25.05593
G1 X104.637 Y96.434 E25.25519
M117 Time Left 0h02m03s
G1 X107.189 Y95.94 E25.46269
M73 P20
G1 X107.869 Y95.829 E25.51769
G1 X108.771 Y95.732 E25.5901
G1 X109.827 Y95.72 E25.6744
G1 X110.427 Y95.744 E25.72234
G1 X127.115 Y96.67 E27.05649
G1 X127.828 Y96.72 E27.11355
G1 X128.729 Y96.824 E27.18595
G1 X129.618 Y97.006 E27.25838
G1 X130.488 Y97.266 E27.33086
G1 X131.331 Y97.601 E27.40328
G1 X131.998 Y97.926 E27.4625
G1 X132.79 Y98.37 E27.53498
G1 X133.539 Y98.881 E27.60736
M73 P21
G1 X134.241 Y99.457 E27.67984
G1 X134.889 Y100.092 E27.75226
G1 X135.479 Y100.782 E27.82473
G1 X136.006 Y101.521 E27.89719
G1 X136.465 Y102.303 E27.96957
G1 X136.764 Y102.915 E28.02394
G1 X136.884 Y103.183 E28.04738
G1 X137.218 Y104.027 E28.11983
G1 X137.476 Y104.897 E28.19227
G1 X137.657 Y105.786 E28.26469
G1 X137.759 Y106.688 E28.33715
G1 X137.782 Y107.536 E28.40487
G1 X137.763 Y108.863 E28.5108
M73 P22
G1 X137.782 Y112.62 E28.81071
G1 X137.746 Y113.527 E28.88317
G1 X137.631 Y114.427 E28.95559
G1 X137.437 Y115.314 E29.02807
G1 X137.166 Y116.18 E29.1005
G1 X136.82 Y117.019 E29.17295
G1 X136.401 Y117.824 E29.24539
G1 X135.912 Y118.589 E29.31786
G1 X135.58 Y119.036 E29.36231
G1 X135.334 Y119.349 E29.39409
G1 X134.743 Y120.037 E29.46649
G1 X134.093 Y120.67 E29.53891
G1 X133.389 Y121.244 E29.61142
M73 P23
G1 X132.638 Y121.753 E29.68384
G1 X131.846 Y122.195 E29.75624
G1 X131.017 Y122.565 E29.82871
G1 X130.159 Y122.861 E29.90116
G1 X129.278 Y123.08 E29.97362
G1 X128.02 Y123.254 E30.075
G1 X126.654 Y123.356 E30.18434
G1 X110.618 Y124.246 E31.46637
G1 X110.04 Y124.27 E31.51255
G1 X109.092 Y124.266 E31.58823
G1 X108.618 Y124.242 E31.62611
G1 X107.715 Y124.156 E31.69852
M73 P24
G1 X107.131 Y124.057 E31.7458
G1 X106.121 Y123.856 E31.82801
G1 X103.545 Y123.381 E32.0371
G1 X101.018 Y122.989 E32.24123
G1 X98.56 Y122.678 E32.439
G1 X94.779 Y122.332 E32.74208
G1 X93.593 Y122.242 E32.83702
G1 X93.015 Y122.182 E32.88341
G1 X92.117 Y122.049 E32.95587
G1 X91.147 Y121.811 E33.0356
G1 X90.763 Y121.697 E33.06757
G1 X89.905 Y121.401 E33.14002
G1 X89.077 Y121.03 E33.21245
M73 P25
G1 X88.516 Y120.727 E33.26335
G1 X88.105 Y120.488 E33.3013
G1 X87.342 Y119.998 E33.37368
G1 X86.624 Y119.442 E33.44617
G1 X86 Y118.867 E33.5139
G1 X85.714 Y118.581 E33.54619
G1 X85.101 Y117.912 E33.61862
G1 X84.565 Y117.214 E33.68887
G1 X84.304 Y116.842 E33.72514
G1 X83.816 Y116.077 E33.79758
G1 X83.398 Y115.271 E33.87005
G1 X83.088 Y114.531 E33.9341
G1 X82.946 Y114.151 E33.96648
M73 P26
G1 X82.666 Y113.288 E34.0389
G1 X82.478 Y112.483 E34.10489
G1 X82.411 Y112.133 E34.13334
G1 X82.279 Y111.235 E34.20579
G1 X82.23 Y110.434 E34.26985
G1 X82.223 Y110.131 E34.29404
G1 X82.242 Y109.224 E34.36646
G1 X82.314 Y108.481 E34.42604
G1 X82.455 Y107.585 E34.49845
G1 X82.719 Y106.56 E34.58294
G1 X82.872 Y106.071 E34.62384
G1 X83.181 Y105.218 E34.69626
M73 P27
G1 X83.564 Y104.395 E34.76872
G1 X83.995 Y103.645 E34.83777
G1 X84.213 Y103.3 E34.87034
G1 X84.731 Y102.555 E34.94278
G1 X85.278 Y101.897 E35.01108
G1 X85.559 Y101.586 E35.04454
G1 X86.196 Y100.94 E35.11696
G1 F2700 E30.11696
G1 F300 Z0.52
;MESH:pin.stl
EXCLUDE_OBJECT_START NAME=pin_stl
G0 F6000 X108.509 Y108.25 Z0.52
;TYPE:WALL-INNER
G1 F300 Z0.32
M73 P28
G1 F2700 E35.11696
G1 F604 X108.557 Y107.946 E35.14136
G1 F535.7 X108.664 Y107.641 E35.17026
G1 F504.2 X108.802 Y107.421 E35.19493
G1 F500.7 X109.129 Y107.172 E35.23424
G1 F527.9 X109.393 Y107.067 E35.26002
G1 F577.8 X109.581 Y107.036 E35.27581
G1 F2700 E30.27581
G1 F300 Z0.52
G0 F6000 X107.718 Y110.967 Z0.52
G1 F300 Z0.32
G1 F2700 E35.27581
G1 F600 X107.565 Y110.626 E35.30565
M73 P29
G1 X107.477 Y110.144 E35.34476
G1 X107.485 Y109.767 E35.37486
G1 X107.527 Y109.51 E35.39565
G1 X107.684 Y109.034 E35.43566
G1 X96.119 Y109.033 E36.35883
G1 X96.204 Y109.177 E36.37217
G1 X96.328 Y109.509 E36.40046
G1 X96.383 Y109.769 E36.42168
G1 X96.398 Y110.029 E36.44247
M117 Time Left 0h01m48s
G1 X96.327 Y110.561 E36.48531
G1 X96.124 Y110.968 E36.52161
G1 X107.718 Y110.967 E37.4471
M73 P30
G0 F6000 X108.557 Y112.043
G1 F535.7 X108.672 Y112.371 E37.47817
G1 F495.9 X108.862 Y112.624 E37.50873
G1 F489.1 X109.094 Y112.803 E37.53742
G1 F525.5 X109.422 Y112.945 E37.57
G1 F587.3 X109.575 Y112.962 E37.58255
G0 F6000 X109.373 Y113.569
;TYPE:WALL-OUTER
G1 F600 X109.608 Y113.555 E37.60134
G1 F495.9 X109.996 Y113.41 E37.64135
G1 F426 X110.569 Y113.387 E37.70582
G1 F434.3 X111.143 Y113.363 E37.76918
M73 P31
G1 F442.8 X111.716 Y113.339 E37.83121
G1 F451.7 X112.29 Y113.315 E37.89213
G1 F460.9 X112.863 Y113.291 E37.95172
G1 F470.6 X113.437 Y113.268 E38.01018
G1 F480.6 X114.01 Y113.244 E38.06733
G1 F491.1 X114.584 Y113.22 E38.12336
G1 F502.1 X115.157 Y113.196 E38.17806
G1 F513.6 X115.731 Y113.172 E38.23164
G1 F524.8 X116.304 Y113.149 E38.28398
G1 F537.3 X116.878 Y113.125 E38.33519
G1 F550.5 X117.451 Y113.101 E38.38509
G1 F564.3 X118.025 Y113.077 E38.43385
G1 F578.8 X118.598 Y113.053 E38.48131
M73 P32
G1 F594.1 X119.172 Y113.03 E38.52763
G1 F610.2 X119.745 Y113.006 E38.57264
G1 F627.2 X120.319 Y112.982 E38.61651
G1 F645.2 X120.892 Y112.958 E38.65909
G1 F664.2 X121.466 Y112.934 E38.70051
G1 F684.4 X122.04 Y112.911 E38.74071
G1 F469.4 X122.428 Y112.64 E38.78901
G1 X122.029 Y112.391 E38.837
G1 F684.4 X121.101 Y112.403 E38.90195
G1 F664.2 X120.172 Y112.416 E38.96894
G1 F645.2 X119.243 Y112.429 E39.03791
G1 F627.2 X118.314 Y112.442 E39.10886
G1 F610.2 X117.385 Y112.455 E39.18179
M73 P33
G1 F594.1 X116.456 Y112.468 E39.2567
G1 F578.8 X115.527 Y112.48 E39.33358
G1 F564.3 X114.598 Y112.493 E39.41244
G1 F550.5 X113.669 Y112.506 E39.49328
G1 F537.3 X112.74 Y112.519 E39.5761
G1 F524.8 X111.811 Y112.532 E39.66089
G1 F512.8 X110.882 Y112.545 E39.74766
G1 F501.4 X109.954 Y112.558 E39.83632
G1 F543 X109.724 Y112.388 E39.86155
G1 F600 X109.575 Y112.334 E39.8742
G1 X109.247 Y112.066 E39.90801
G1 X109.115 Y111.781 E39.93308
G1 F514.3 X108.982 Y111.693 E39.94793
M73 P34
G1 F450 X108.959 Y111.448 E39.97412
G1 X108.722 Y111.33 E40.0023
G1 F442.3 X108.642 Y111.305 E40.01138
G1 F455.1 X108.464 Y111.09 E40.04075
G1 F509.9 X108.33 Y110.877 E40.06439
G1 F572.3 X108.304 Y110.793 E40.07174
G1 F600 X108.172 Y110.545 E40.09417
G1 X108.076 Y110.203 E40.12252
G1 X108.086 Y109.735 E40.15989
G1 F571.4 X108.257 Y109.199 E40.20705
G1 F509.2 X108.533 Y108.826 E40.25069
G1 F531.8 X108.772 Y108.762 E40.27298
M73 P35
G1 F600 X109.019 Y108.634 E40.29518
G1 X109.065 Y108.546 E40.30311
G1 X109.082 Y108.291 E40.32351
G1 X109.229 Y107.96 E40.35242
G1 X109.544 Y107.678 E40.38617
G1 X109.759 Y107.607 E40.40424
G1 F566.9 X109.951 Y107.441 E40.42568
G1 F543.8 X111.164 Y107.457 E40.53253
G1 F557.3 X112.378 Y107.474 E40.63687
G1 F570.5 X113.592 Y107.491 E40.7388
G1 F584.4 X114.806 Y107.508 E40.8383
G1 F600 X116.02 Y107.525 E40.93521
G1 F615.4 X117.234 Y107.541 E41.02971
M73 P36
G1 F632.7 X118.448 Y107.558 E41.12161
G1 F649.8 X119.662 Y107.575 E41.2111
G1 F667.9 X120.876 Y107.592 E41.29816
G1 F688.3 X122.089 Y107.609 E41.38257
G1 F471.8 X122.487 Y107.362 E41.43012
G1 X122.102 Y107.093 E41.4778
G1 F687 X121.526 Y107.069 E41.51799
G1 F666.7 X120.949 Y107.045 E41.55948
G1 F647.5 X120.373 Y107.021 E41.60212
G1 F629.4 X119.796 Y106.997 E41.64607
G1 F612.2 X119.22 Y106.973 E41.69117
G1 F596 X118.643 Y106.949 E41.73757
G1 F580.6 X118.067 Y106.925 E41.78512
M73 P37
G1 F566 X117.49 Y106.901 E41.83399
G1 F552.1 X116.914 Y106.877 E41.88399
G1 F538.9 X116.337 Y106.853 E41.93532
G1 F526.3 X115.761 Y106.829 E41.98778
G1 F514.3 X115.184 Y106.805 E42.04156
G1 F502.8 X114.608 Y106.781 E42.09648
G1 F491.8 X114.031 Y106.757 E42.15272
G1 F481.3 X113.455 Y106.733 E42.21009
G1 F471.2 X112.878 Y106.709 E42.26879
G1 F461.5 X112.302 Y106.685 E42.32861
G1 F452.3 X111.725 Y106.661 E42.38977
G1 F443.3 X111.149 Y106.637 E42.45205
