;FLAVOR:Marlin
M73 P0


; Pre-Processed for Cancel-Object support by preprocess_cancellation v0.2.0
; 5 known objects
EXCLUDE_OBJECT_DEFINE NAME=pin_stl_4 CENTER=107.124,91.234 POLYGON=[[91.717,87.43],[91.717,95.018],[126.191,95.018],[126.191,87.43]]
EXCLUDE_OBJECT_DEFINE NAME=pin_stl_2 CENTER=112.349,100.579 POLYGON=[[93.287,96.793],[93.287,104.381],[127.761,104.381],[127.761,96.793]]
EXCLUDE_OBJECT_DEFINE NAME=pin_stl CENTER=108.166,110.007 POLYGON=[[92.76,106.203],[92.76,113.791],[127.234,113.791],[127.234,106.203]]
EXCLUDE_OBJECT_DEFINE NAME=pin_stl_1 CENTER=112.332,119.408 POLYGON=[[93.303,115.624],[93.303,123.212],[127.778,123.212],[127.778,115.624]]
EXCLUDE_OBJECT_DEFINE NAME=pin_stl_3 CENTER=107.280,124.200 POLYGON=[[81.181,76.947],[81.181,143.043],[138.323,143.043],[138.323,76.947]]
M117 Time Left 0h08m09s
;TIME:489
;Filament used: 0.286308m
;Layer height: 0.2
;MINX:79.981
;MINY:75.747
;MINZ:0.32
;MAXX:139.521
;MAXY:144.243
;MAXZ:1.12
;TARGET_MACHINE.NAME:Creality Ender-3
;POSTPROCESSED
;  [InsertAtLayerChange]
;  [MeshPrintSize]
;  [DisplayProgressOnLCD]
;  [DisplayFilenameAndLayerOnLCD]
;Generated with Cura_SteamEngine 5.6.0
M82 ;absolute extrusion mode
;Nozzle diameter = 0.4
;Filament type = PLA
;Filament name = Sakura Pink
START_PRINT PRINT_MIN=79.981,75.747 PRINT_MAX=139.521,144.243 BED_TEMP=65 EXTRUDER_TEMP=210.0
G92 E0
G92 E0
G1 F2700 E-5
;LAYER_COUNT:4
TIMELAPSE_TAKE_FRAME
;LAYER:0
M117 Printing pin - Layer 0 of 3
M107
G1 F300 Z0.52
G0 F6000 X83.669 Y81.96 Z0.52
;TYPE:SKIRT
G1 F300 Z0.32
G1 F2700 E0
G1 F600 X84.307 Y81.315 E0.07242
G1 X85.154 Y80.599 E0.16095
G1 X85.799 Y80.136 E0.22433
G1 X86.187 Y79.879 E0.26148
G1 X86.964 Y79.411 E0.33388
G1 X87.801 Y78.995 E0.40849
G1 X88.249 Y78.796 E0.44763
G1 X89.193 Y78.429 E0.52847
G1 X90.16 Y78.147 E0.60888
G1 X90.979 Y77.979 E0.67562
G1 X91.491 Y77.895 E0.71703
G1 X92.57 Y77.77 E0.80374
G1 X93.387 Y77.716 E0.8691
G1 X95.981 Y77.506 E1.07684
G1 X98.429 Y77.237 E1.27343
G1 X100.934 Y76.889 E1.47531
G1 X103.396 Y76.477 E1.67457
G1 X105.953 Y75.983 E1.88245
G1 X106.7 Y75.862 E1.94286
G1 X107.714 Y75.759 E2.02422
G1 X108.801 Y75.747 E2.11099
G1 X109.45 Y75.773 E2.16284
G1 X126.155 Y76.699 E3.49835
G1 X126.869 Y76.749 E3.55548
G1 X127.928 Y76.874 E3.64061
G1 X128.868 Y77.07 E3.71725
G1 X129.89 Y77.378 E3.80246
G1 X130.812 Y77.748 E3.88176
G1 X131.418 Y78.042 E3.93553
G1 X132.363 Y78.576 E4.02217
G1 X133.112 Y79.089 E4.09464
G1 X133.977 Y79.8 E4.18402
G1 X134.624 Y80.436 E4.25644
G1 X135.314 Y81.241 E4.34107
G1 X135.845 Y81.978 E4.41358
G1 X136.048 Y82.288 E4.44316
G1 X136.539 Y83.113 E4.5198
M73 P1
G1 X137.001 Y84.073 E4.60484
G1 X137.358 Y85.023 E4.68585
G1 X137.628 Y85.996 E4.76646
G1 X137.797 Y86.888 E4.83893
G1 X137.879 Y87.576 E4.89423
G1 X138.092 Y90.007 E5.08903
G1 X138.372 Y92.469 E5.28683
G1 X138.723 Y94.939 E5.48597
G1 X139.094 Y97.071 E5.65872
G1 X139.112 Y97.215 E5.6703
G1 X139.332 Y98.457 E5.77098
G1 X139.451 Y99.356 E5.84337
G1 X139.501 Y100.419 E5.92832
G1 X139.501 Y100.739 E5.95386
G1 X139.468 Y101.559 E6.01937
G1 X139.363 Y102.877 E6.12491
G1 X139.195 Y105.463 E6.33178
G1 X139.104 Y107.956 E6.53091
G1 X139.083 Y110.482 E6.73255
G1 X139.133 Y112.98 E6.93199
G1 X139.25 Y115.425 E7.12739
G1 X139.485 Y118.445 E7.36919
G1 X139.521 Y119.456 E7.44994
G1 X139.445 Y120.808 E7.55803
G1 X139.315 Y121.767 E7.63528
G1 X138.86 Y124.352 E7.8448
G1 X138.487 Y126.892 E8.04973
G1 X138.201 Y129.315 E8.24449
G1 X137.926 Y132.359 E8.48846
G1 X137.784 Y133.377 E8.57051
G1 X137.612 Y134.171 E8.63536
G1 X137.367 Y135.045 E8.70782
G1 X136.97 Y136.093 E8.79727
G1 X136.525 Y137.004 E8.87821
G1 X136.032 Y137.826 E8.95472
G1 X135.489 Y138.582 E9.02902
G1 X135.236 Y138.902 E9.06158
G1 X134.645 Y139.591 E9.13404
G1 X133.844 Y140.373 E9.2234
G1 X133.141 Y140.947 E9.29585
G1 X132.216 Y141.576 E9.38514
G1 X131.33 Y142.065 E9.46592
G1 X130.502 Y142.436 E9.53834
G1 X129.442 Y142.801 E9.62783
G1 X128.498 Y143.033 E9.70543
M73 P2
G1 X127.067 Y143.23 E9.82074
G1 X125.817 Y143.321 E9.92078
G1 X109.658 Y144.217 E11.21264
G1 X109.029 Y144.243 E11.2629
G1 X108.022 Y144.237 E11.34328
G1 X107.495 Y144.209 E11.38541
G1 X106.506 Y144.113 E11.46472
G1 X105.922 Y144.014 E11.51201
G1 X104.894 Y143.809 E11.59568
G1 X102.342 Y143.338 E11.80283
G1 X99.825 Y142.948 E12.00615
G1 X97.426 Y142.645 E12.19917
G1 X93.67 Y142.3 E12.50025
G1 X92.46 Y142.209 E12.59711
G1 X91.856 Y142.146 E12.64559
G1 X90.822 Y141.988 E12.72908
G1 X89.852 Y141.75 E12.80881
G1 X89.361 Y141.604 E12.8497
G1 X88.454 Y141.289 E12.92634
G1 X87.498 Y140.859 E13.01002
G1 X86.902 Y140.537 E13.06409
G1 X86.448 Y140.271 E13.1061
G1 X85.685 Y139.781 E13.17848
G1 X84.801 Y139.097 E13.2677
G1 X84.159 Y138.505 E13.33741
G1 X83.838 Y138.183 E13.3737
G1 X83.14 Y137.415 E13.45655
G1 X82.574 Y136.676 E13.53085
G1 X82.282 Y136.259 E13.57149
G1 X81.767 Y135.447 E13.64824
G1 X81.281 Y134.506 E13.73278
G1 X80.941 Y133.688 E13.80349
G1 X80.787 Y133.27 E13.83905
G1 X80.475 Y132.286 E13.92145
G1 X80.282 Y131.445 E13.99033
G1 X80.21 Y131.057 E14.02183
G1 X80.075 Y130.11 E14.09819
G1 X80.021 Y129.234 E14.16825
G1 X80.014 Y128.877 E14.19675
G1 X80.039 Y127.881 E14.27628
G1 X80.106 Y127.193 E14.33146
G1 X80.397 Y124.938 E14.51296
G1 X80.68 Y122.38 E14.71839
G1 X80.889 Y119.836 E14.92215
G1 X81.019 Y117.404 E15.11656
M73 P3
M117 Time Left 0h07m54s
G1 X81.084 Y114.844 E15.32098
G1 X81.076 Y112.336 E15.52118
G1 X81.022 Y110.238 E15.6887
G1 X81.022 Y109.664 E15.73452
G1 X81.059 Y108.161 E15.85454
G1 X81.078 Y105.575 E16.06097
G1 X81.024 Y103.076 E16.26049
G1 X80.901 Y100.561 E16.46149
G1 X80.708 Y98.112 E16.65759
G1 X80.439 Y95.565 E16.86203
G1 X80.089 Y92.982 E17.0701
G1 X79.989 Y91.712 E17.17179
G1 X79.981 Y91.317 E17.20333
G1 X80.006 Y90.317 E17.28318
G1 X80.094 Y89.45 E17.35274
G1 X80.263 Y88.449 E17.43378
G1 X80.52 Y87.463 E17.51511
G1 X80.707 Y86.871 E17.56467
G1 X81.057 Y85.92 E17.64556
G1 X81.465 Y85.052 E17.72212
G1 X81.944 Y84.221 E17.79869
G1 X82.194 Y83.828 E17.83587
G1 X82.744 Y83.042 E17.91245
G1 X83.356 Y82.305 E17.98891
G1 X83.669 Y81.96 E18.0261
G0 F6000 X84.096 Y82.382
G1 F600 X84.734 Y81.737 E18.09852
G1 X85.504 Y81.086 E18.17901
G1 X86.13 Y80.636 E18.24055
G1 X86.497 Y80.393 E18.27568
G1 X87.274 Y79.925 E18.34809
G1 X88.067 Y79.533 E18.4187
G1 X88.468 Y79.355 E18.45372
G1 X89.362 Y79.005 E18.53036
G1 X90.281 Y78.735 E18.60682
G1 X91.077 Y78.571 E18.67169
G1 X91.56 Y78.491 E18.71077
G1 X92.61 Y78.369 E18.79515
G1 X93.427 Y78.315 E18.86051
G1 X96.029 Y78.104 E19.0689
G1 X98.503 Y77.832 E19.26757
G1 X101.033 Y77.481 E19.47146
G1 X103.495 Y77.069 E19.67072
G1 X106.049 Y76.575 E19.87837
M73 P4
G1 X106.762 Y76.459 E19.93603
G1 X107.721 Y76.359 E20.013
G1 X108.808 Y76.347 E20.09978
G1 X109.417 Y76.372 E20.14843
G1 X126.113 Y77.298 E21.48322
G1 X126.827 Y77.348 E21.54036
G1 X127.807 Y77.462 E21.61911
G1 X128.696 Y77.645 E21.69157
G1 X129.667 Y77.935 E21.77246
G1 X130.55 Y78.288 E21.84837
G1 X131.156 Y78.582 E21.90213
G1 X132.024 Y79.071 E21.98166
G1 X132.773 Y79.584 E22.05413
G1 X133.556 Y80.228 E22.13505
G1 X134.203 Y80.864 E22.20747
G1 X134.827 Y81.592 E22.28401
G1 X135.343 Y82.307 E22.3544
G1 X135.532 Y82.595 E22.3819
G1 X136.023 Y83.42 E22.45853
G1 X136.44 Y84.285 E22.53518
G1 X136.78 Y85.184 E22.61191
G1 X137.038 Y86.108 E22.68849
G1 X137.207 Y87 E22.76096
G1 X137.281 Y87.628 E22.81143
G1 X137.494 Y90.059 E23.00623
G1 X137.778 Y92.554 E23.20668
G1 X138.132 Y95.042 E23.40728
G1 X138.499 Y97.146 E23.57777
G1 X138.521 Y97.32 E23.59177
G1 X138.737 Y98.536 E23.69035
G1 X138.856 Y99.435 E23.76274
G1 X138.901 Y100.419 E23.84137
G1 X138.901 Y100.715 E23.865
G1 X138.868 Y101.535 E23.93051
G1 X138.765 Y102.829 E24.03412
G1 X138.596 Y105.424 E24.24171
G1 X138.504 Y107.934 E24.4422
G1 X138.483 Y110.477 E24.6452
G1 X138.533 Y112.992 E24.846
G1 X138.652 Y115.472 E25.04419
G1 X138.885 Y118.468 E25.28407
G1 X138.922 Y119.423 E25.36036
G1 X138.85 Y120.728 E25.46469
G1 X138.724 Y121.663 E25.54
G1 X138.266 Y124.265 E25.75089
M73 P5
G1 X137.893 Y126.805 E25.95582
G1 X137.603 Y129.261 E26.15323
G1 X137.328 Y132.305 E26.39721
G1 X137.198 Y133.25 E26.47335
G1 X137.034 Y134.009 E26.53533
G1 X136.789 Y134.883 E26.60779
G1 X136.43 Y135.831 E26.68871
G1 X136.01 Y136.695 E26.76539
G1 X135.517 Y137.517 E26.84191
G1 X135.017 Y138.211 E26.91018
G1 X134.781 Y138.511 E26.94065
G1 X134.19 Y139.2 E27.01311
G1 X133.465 Y139.908 E27.094
G1 X132.762 Y140.482 E27.16645
G1 X131.925 Y141.051 E27.24724
G1 X131.085 Y141.517 E27.32392
G1 X130.257 Y141.888 E27.39634
G1 X129.299 Y142.218 E27.47723
G1 X128.355 Y142.45 E27.55482
G1 X127.024 Y142.632 E27.66206
G1 X125.784 Y142.722 E27.7613
G1 X109.633 Y143.618 E29.05253
G1 X109.032 Y143.643 E29.10054
G1 X108.053 Y143.638 E29.17869
G1 X107.552 Y143.612 E29.21874
G1 X106.606 Y143.521 E29.2946
G1 X106.022 Y143.422 E29.34188
G1 X105.003 Y143.219 E29.42482
G1 X102.439 Y142.746 E29.63294
G1 X99.917 Y142.355 E29.83667
G1 X97.496 Y142.049 E30.03146
G1 X93.715 Y141.702 E30.33454
G1 X92.522 Y141.612 E30.43004
G1 X91.918 Y141.549 E30.47852
G1 X90.965 Y141.405 E30.55545
G1 X89.995 Y141.167 E30.63518
G1 X89.558 Y141.037 E30.67157
G1 X88.651 Y140.722 E30.74822
G1 X87.783 Y140.331 E30.82421
G1 X87.205 Y140.019 E30.87664
G1 X86.772 Y139.766 E30.91667
G1 X86.009 Y139.276 E30.98906
G1 X85.208 Y138.656 E31.06991
G1 X84.584 Y138.081 E31.13765
G1 X84.263 Y137.759 E31.17394
M73 P6
G1 X83.616 Y137.05 E31.25056
M117 Time Left 0h07m39s
G1 X83.065 Y136.332 E31.3228
G1 X82.789 Y135.938 E31.3612
G1 X82.274 Y135.126 E31.43796
G1 X81.835 Y134.275 E31.51439
G1 X81.504 Y133.48 E31.58314
G1 X81.359 Y133.088 E31.6165
G1 X81.06 Y132.151 E31.69501
G1 X80.872 Y131.335 E31.76185
G1 X80.804 Y130.971 E31.79141
G1 X80.674 Y130.073 E31.86384
G1 X80.621 Y129.221 E31.93198
G1 X80.614 Y128.891 E31.95833
G1 X80.636 Y127.939 E32.03434
G1 X80.701 Y127.27 E32.088
G1 X80.992 Y125.015 E32.26949
G1 X81.278 Y122.429 E32.47718
G1 X81.487 Y119.885 E32.68094
G1 X81.619 Y117.419 E32.87806
G1 X81.684 Y114.859 E33.08248
G1 X81.676 Y112.334 E33.28404
G1 X81.622 Y110.223 E33.4526
G1 X81.622 Y109.679 E33.49603
G1 X81.659 Y108.176 E33.61604
G1 X81.678 Y105.579 E33.82335
G1 X81.624 Y103.063 E34.02423
G1 X81.5 Y100.532 E34.22651
G1 X81.305 Y98.049 E34.42532
G1 X81.036 Y95.502 E34.62977
G1 X80.684 Y92.902 E34.8392
G1 X80.589 Y91.699 E34.93553
G1 X80.581 Y91.331 E34.96491
G1 X80.603 Y90.377 E35.04109
G1 X80.686 Y89.549 E35.10751
G1 X80.844 Y88.6 E35.18431
G1 X81.101 Y87.614 E35.26564
G1 X81.27 Y87.077 E35.31058
G1 X81.6 Y86.175 E35.38725
G1 X82.008 Y85.307 E35.46381
G1 X82.45 Y84.543 E35.53427
G1 X82.686 Y84.172 E35.56937
G1 X83.236 Y83.386 E35.64594
G1 X83.8 Y82.708 E35.71634
G1 X84.096 Y82.382 E35.75149
M73 P7
G0 F6000 X84.523 Y82.804
G1 F600 X85.161 Y82.159 E35.82391
G1 X85.854 Y81.573 E35.89636
G1 X86.462 Y81.136 E35.95612
G1 X86.807 Y80.907 E35.98918
G1 X87.584 Y80.439 E36.06158
G1 X88.311 Y80.081 E36.12627
G1 X88.688 Y79.913 E36.15922
G1 X89.532 Y79.58 E36.23164
G1 X90.402 Y79.323 E36.30406
G1 X91.176 Y79.163 E36.36715
G1 X91.629 Y79.087 E36.40381
G1 X92.65 Y78.968 E36.48587
G1 X93.467 Y78.914 E36.55122
G1 X96.078 Y78.702 E36.76033
G1 X98.577 Y78.427 E36.96102
G1 X101.132 Y78.073 E37.16692
G1 X103.594 Y77.661 E37.36618
G1 X106.146 Y77.167 E37.57367
G1 X106.826 Y77.056 E37.62867
G1 X107.728 Y76.959 E37.70109
G1 X108.784 Y76.947 E37.78539
G1 X109.384 Y76.971 E37.83332
G1 X126.071 Y77.897 E39.1674
G1 X126.785 Y77.947 E39.22453
G1 X127.686 Y78.05 E39.29692
G1 X128.575 Y78.233 E39.36937
G1 X129.445 Y78.492 E39.44183
G1 X130.288 Y78.828 E39.51427
G1 X130.894 Y79.122 E39.56804
G1 X131.685 Y79.566 E39.64045
G1 X132.434 Y80.079 E39.71291
G1 X133.135 Y80.656 E39.78539
G1 X133.782 Y81.292 E39.85781
G1 X134.371 Y81.982 E39.93023
G1 X134.842 Y82.638 E39.99469
G1 X135.017 Y82.903 E40.02004
G1 X135.483 Y83.682 E40.0925
G1 X135.879 Y84.498 E40.1649
G1 X136.202 Y85.347 E40.23741
G1 X136.448 Y86.22 E40.30981
G1 X136.617 Y87.112 E40.38228
G1 X136.683 Y87.68 E40.42793
G1 X136.896 Y90.111 E40.62272
G1 X137.184 Y92.639 E40.82582
M73 P8
G1 X137.541 Y95.145 E41.02788
G1 X137.904 Y97.223 E41.19627
G1 X137.93 Y97.425 E41.21253
G1 X138.142 Y98.615 E41.30901
G1 X138.261 Y99.514 E41.3814
G1 X138.301 Y100.419 E41.45371
G1 X138.301 Y100.691 E41.47543
G1 X138.268 Y101.511 E41.54093
G1 X138.167 Y102.781 E41.64263
G1 X137.997 Y105.385 E41.85094
G1 X137.904 Y107.912 E42.05279
G1 X137.883 Y110.472 E42.25715
G1 X137.933 Y113.004 E42.4593
G1 X138.054 Y115.519 E42.66029
G1 X138.286 Y118.493 E42.89841
G1 X138.323 Y119.39 E42.97007
G1 X138.251 Y120.695 E43.0744
G1 X138.133 Y121.559 E43.14401
G1 X137.672 Y124.178 E43.35629
G1 X137.299 Y126.718 E43.56121
G1 X137.005 Y129.207 E43.76128
G1 X136.733 Y132.224 E44.00308
G1 X136.611 Y133.124 E44.07558
G1 X136.456 Y133.847 E44.13461
G1 X136.211 Y134.721 E44.20706
G1 X135.89 Y135.57 E44.27952
G1 X135.495 Y136.387 E44.35196
G1 X135.03 Y137.166 E44.42437
G1 X134.53 Y137.86 E44.49265
G1 X134.326 Y138.12 E44.51903
G1 X133.735 Y138.809 E44.59149
G1 X133.086 Y139.443 E44.66392
G1 X132.383 Y140.017 E44.73636
G1 X131.633 Y140.527 E44.80876
G1 X130.84 Y140.969 E44.88123
G1 X130.012 Y141.34 E44.95366
G1 X129.154 Y141.636 E45.02611
G1 X128.273 Y141.856 E45.09859
G1 X126.981 Y142.034 E45.2027
G1 X125.751 Y142.123 E45.30114
G1 X109.608 Y143.019 E46.59173
G1 X109.035 Y143.043 E46.63751
G1 X108.083 Y143.039 E46.7135
G1 X107.609 Y143.015 E46.75138
G1 X106.706 Y142.929 E46.82379
M73 P9
G1 X106.122 Y142.83 E46.87107
G1 X105.112 Y142.629 E46.95328
M117 Time Left 0h07m24s
G1 X102.536 Y142.154 E47.16237
G1 X100.009 Y141.762 E47.3665
G1 X97.551 Y141.451 E47.56427
G1 X93.77 Y141.105 E47.86735
G1 X92.584 Y141.015 E47.96229
G1 X92.006 Y140.955 E48.00868
G1 X91.108 Y140.822 E48.08114
G1 X90.138 Y140.584 E48.16087
G1 X89.754 Y140.47 E48.19285
G1 X88.896 Y140.174 E48.2653
G1 X88.068 Y139.803 E48.33772
G1 X87.507 Y139.5 E48.38862
G1 X87.096 Y139.261 E48.42657
G1 X86.333 Y138.771 E48.49895
G1 X85.615 Y138.215 E48.57144
G1 X84.991 Y137.64 E48.63918
G1 X84.705 Y137.354 E48.67146
G1 X84.092 Y136.685 E48.74389
G1 X83.556 Y135.987 E48.81414
G1 X83.295 Y135.615 E48.85042
G1 X82.807 Y134.85 E48.92285
G1 X82.389 Y134.044 E48.99533
G1 X82.067 Y133.272 E49.0621
G1 X81.922 Y132.88 E49.09546
G1 X81.645 Y132.016 E49.16788
G1 X81.462 Y131.223 E49.23285
G1 X81.398 Y130.885 E49.26031
G1 X81.268 Y129.987 E49.33274
G1 X81.221 Y129.207 E49.39511
G1 X81.214 Y128.904 E49.41931
G1 X81.233 Y127.997 E49.49172
G1 X81.296 Y127.347 E49.54385
G1 X81.587 Y125.092 E49.72535
G1 X81.876 Y122.478 E49.93528
G1 X82.085 Y119.934 E50.13904
G1 X82.219 Y117.434 E50.33889
G1 X82.284 Y114.874 E50.5433
G1 X82.276 Y112.332 E50.74622
G1 X82.222 Y110.208 E50.91582
G1 X82.222 Y109.694 E50.95685
G1 X82.259 Y108.191 E51.07686
G1 X82.278 Y105.583 E51.28505
M73 P10
G1 X82.224 Y103.05 E51.48729
G1 X82.099 Y100.503 E51.69085
G1 X81.902 Y97.986 E51.89238
G1 X81.633 Y95.439 E52.09682
G1 X81.279 Y92.822 E52.30762
G1 X81.189 Y91.685 E52.39867
G1 X81.181 Y91.344 E52.4259
G1 X81.2 Y90.436 E52.49839
G1 X81.278 Y89.646 E52.56176
G1 X81.425 Y88.751 E52.63416
G1 X81.682 Y87.765 E52.7155
G1 X81.834 Y87.282 E52.75592
G1 X82.144 Y86.429 E52.82836
G1 X82.528 Y85.607 E52.90079
G1 X82.957 Y84.864 E52.96927
G1 X83.178 Y84.515 E53.00225
G1 X83.697 Y83.77 E53.07472
G1 X84.245 Y83.111 E53.14314
G1 X84.523 Y82.804 E53.1762
G1 F2700 E48.1762
G1 F300 Z0.52
;MESH:pin.stl(4)
EXCLUDE_OBJECT_START NAME=pin_stl_4
G0 F6000 X107.466 Y89.477 Z0.52
;TYPE:WALL-INNER
G1 F300 Z0.32
G1 F2700 E53.1762
G1 F604 X107.514 Y89.173 E53.2006
G1 F535.7 X107.621 Y88.868 E53.2295
G1 F504.2 X107.759 Y88.648 E53.25417
G1 F500.7 X108.086 Y88.399 E53.29348
G1 F527.9 X108.35 Y88.294 E53.31926
G1 F577.8 X108.538 Y88.263 E53.33506
G1 F2700 E48.33506
G1 F300 Z0.52
G0 F6000 X106.675 Y92.194 Z0.52
G1 F300 Z0.32
G1 F2700 E53.33506
G1 F600 X106.522 Y91.853 E53.36489
G1 X106.434 Y91.371 E53.404
G1 X106.442 Y90.994 E53.4341
G1 X106.484 Y90.737 E53.45489
G1 X106.641 Y90.261 E53.4949
G1 X95.076 Y90.26 E54.41807
G1 X95.161 Y90.404 E54.43142
G1 X95.285 Y90.736 E54.4597
M73 P11
G1 X95.34 Y90.996 E54.48092
