;FLAVOR:Marlin
M73 P0


; Pre-Processed for Cancel-Object support by preprocess_cancellation v0.2.0
; 1 known objects
EXCLUDE_OBJECT_DEFINE NAME=PlantClip_moreFlexible_3MF CENTER=109.900,110.931 POLYGON=[[82.46,77.627],[82.46,142.383],[137.538,142.383],[137.538,77.627]]
M117 Time Left 0h12m28s
;TIME:748
;Filament used: 0.488926m
;Layer height: 0.2
;MINX:81.262
;MINY:76.427
;MINZ:0.32
;MAXX:138.738
;MAXY:143.583
;MAXZ:4.12
;TARGET_MACHINE.NAME:Creality Ender-3
;POSTPROCESSED
;  [InsertAtLayerChange]
;  [MeshPrintSize]
;  [DisplayProgressOnLCD]
;  [DisplayFilenameAndLayerOnLCD]
;Generated with Cura_SteamEngine 5.6.0
M82 ;absolute extrusion mode
;Nozzle diameter = 0.4
;Filament type = PLA
;Filament name = Sakura Pink
START_PRINT PRINT_MIN=81.262,76.427 PRINT_MAX=138.738,143.583 BED_TEMP=65 EXTRUDER_TEMP=220.0
G92 E0
G92 E0
G1 F2700 E-5
;LAYER_COUNT:19
TIMELAPSE_TAKE_FRAME
;LAYER:0
M117 Printing PlantClip_moreFlexible - Layer 0 of 18
M107
G1 F300 Z0.52
G0 F6000 X84.384 Y80.652 Z0.52
;TYPE:SKIRT
G1 F300 Z0.32
G1 F2700 E0
G1 F600 X85.081 Y79.941 E0.07948
G1 X85.411 Y79.634 E0.11546
G1 X86.183 Y78.98 E0.19622
G1 X86.922 Y78.453 E0.26867
G1 X87.887 Y77.887 E0.35798
G1 X88.754 Y77.477 E0.43453
G1 X89.141 Y77.315 E0.46802
G1 X90.093 Y76.966 E0.54896
G1 X90.968 Y76.727 E0.62137
G1 X92.093 Y76.525 E0.7126
G1 X93.429 Y76.432 E0.81951
G1 X94.208 Y76.427 E0.88169
G1 X95.115 Y76.463 E0.95415
G1 X95.87 Y76.547 E1.01479
G1 X98.273 Y76.897 E1.20863
G1 X100.73 Y77.189 E1.40614
G1 X103.259 Y77.417 E1.60883
G1 X105.718 Y77.569 E1.8055
G1 X108.239 Y77.653 E2.00685
G1 X110.741 Y77.665 E2.20657
G1 X113.263 Y77.606 E2.40794
G1 X115.725 Y77.48 E2.60472
G1 X118.215 Y77.279 E2.80413
G1 X120.764 Y77.003 E3.0088
G1 X122.701 Y76.742 E3.16481
G1 X124.116 Y76.539 E3.27892
G1 X125.108 Y76.443 E3.35848
G1 X125.782 Y76.427 E3.41229
G1 X126.488 Y76.433 E3.46865
G1 X127.512 Y76.491 E3.55052
G1 X128.844 Y76.696 E3.6581
G1 X129.842 Y76.949 E3.74028
G1 X130.892 Y77.317 E3.8291
G1 X131.713 Y77.682 E3.90082
G1 X132.798 Y78.278 E3.99963
G1 X133.929 Y79.063 E4.10953
G1 X134.893 Y79.894 E4.21113
G1 X135.601 Y80.633 E4.29282
G1 X136.307 Y81.524 E4.38356
G1 X136.572 Y81.896 E4.42002
G1 X137.09 Y82.706 E4.49677
G1 X137.592 Y83.675 E4.58389
G1 X138.096 Y84.963 E4.69429
G1 X138.209 Y85.319 E4.72411
G1 X138.469 Y86.298 E4.80496
G1 X138.627 Y87.191 E4.87735
G1 X138.734 Y88.595 E4.98975
G1 X138.738 Y88.932 E5.01665
G1 X138.703 Y89.944 E5.09748
G1 X138.596 Y90.845 E5.16991
G1 X138.415 Y91.749 E5.2435
G1 X137.607 Y95.084 E5.51742
G1 X137.097 Y97.496 E5.71421
G1 X136.65 Y99.962 E5.91427
G1 X136.27 Y102.45 E6.11517
G1 X135.962 Y104.936 E6.31513
G1 X135.727 Y107.418 E6.51414
G1 X135.561 Y109.901 E6.71279
G1 X135.445 Y113.385 E6.99105
G1 X135.418 Y114.7 E7.09604
G1 X135.383 Y115.395 E7.15159
G1 X135.31 Y116.257 E7.22065
G1 X135.186 Y117.213 E7.2976
G1 X135.046 Y118.025 E7.36337
G1 X134.844 Y119.007 E7.4434
G1 X134.644 Y119.794 E7.50822
G1 X134.412 Y120.583 E7.57387
G1 X134.242 Y121.113 E7.6183
G1 X134.018 Y121.752 E7.67235
G1 X133.763 Y122.415 E7.72905
G1 X133.427 Y123.18 E7.79575
G1 X133 Y124.079 E7.87519
G1 X132.636 Y124.785 E7.9386
G1 X132.335 Y125.308 E7.98677
G1 X131.798 Y126.182 E8.06865
G1 X131.49 Y126.656 E8.11377
G1 X131.11 Y127.203 E8.16694
G1 X129.882 Y128.864 E8.33183
M73 P1
G1 X128.442 Y130.912 E8.53167
G1 X127.008 Y133.075 E8.73883
G1 X126.127 Y134.477 E8.87101
G1 X125.262 Y135.88 E9.00258
G1 X124.753 Y136.631 E9.075
G1 X124.265 Y137.247 E9.13773
G1 X123.892 Y137.687 E9.18377
G1 X123.13 Y138.497 E9.27254
G1 X122.748 Y138.864 E9.31483
G1 X122.053 Y139.478 E9.38886
G1 X121.715 Y139.752 E9.42359
G1 X121.191 Y140.149 E9.47607
G1 X120.458 Y140.649 E9.54689
G1 X119.713 Y141.103 E9.61653
G1 X119.007 Y141.487 E9.68069
G1 X118.231 Y141.863 E9.74952
G1 X117.905 Y142.007 E9.77797
G1 X117.112 Y142.325 E9.84617
G1 X116.199 Y142.638 E9.92321
G1 X115.451 Y142.854 E9.98536
G1 X114.59 Y143.068 E10.05618
G1 X113.47 Y143.314 E10.14771
G1 X112.465 Y143.485 E10.22909
G1 X111.35 Y143.571 E10.31836
G1 X110.59 Y143.583 E10.37903
G1 X109.576 Y143.57 E10.45998
G1 X108.901 Y143.542 E10.51391
G1 X107.815 Y143.454 E10.60088
G1 X107.22 Y143.386 E10.64869
G1 X106.397 Y143.259 E10.71516
G1 X105.567 Y143.099 E10.78263
G1 X104.532 Y142.846 E10.86769
G1 X103.599 Y142.568 E10.9454
G1 X102.279 Y142.083 E11.05765
G1 X101.661 Y141.809 E11.11162
G1 X100.894 Y141.432 E11.17984
G1 X100.446 Y141.189 E11.22052
G1 X99.692 Y140.745 E11.29037
G1 X99.162 Y140.397 E11.34098
G1 X98.465 Y139.893 E11.40964
G1 X98.21 Y139.696 E11.43536
G1 X97.543 Y139.134 E11.50498
G1 X96.784 Y138.417 E11.58833
G1 X96.532 Y138.159 E11.61712
G1 X95.956 Y137.525 E11.68549
G1 X95.774 Y137.308 E11.7081
G1 X95.154 Y136.497 E11.78959
G1 X94.89 Y136.116 E11.82659
G1 X94.552 Y135.603 E11.87563
G1 X93.1 Y133.251 E12.09627
G1 X91.744 Y131.189 E12.29327
G1 X90.271 Y129.083 E12.49842
G1 X88.773 Y127.031 E12.70122
G1 X88.435 Y126.546 E12.74841
G1 X88.093 Y126.016 E12.79876
G1 X87.62 Y125.235 E12.87165
G1 X87.307 Y124.686 E12.92209
G1 X86.993 Y124.083 E12.97636
G1 X86.715 Y123.507 E13.02742
G1 X86.488 Y123.007 E13.07125
G1 X86.23 Y122.386 E13.12493
G1 X85.985 Y121.755 E13.17896
G1 X85.742 Y121.081 E13.23615
G1 X85.573 Y120.564 E13.27957
G1 X85.392 Y119.956 E13.33021
G1 X85.207 Y119.258 E13.38785
G1 X84.991 Y118.264 E13.46905
G1 X84.796 Y117.14 E13.56011
G1 X84.708 Y116.474 E13.61373
G1 X84.634 Y115.657 E13.67922
G1 X84.586 Y114.688 E13.75666
G1 X84.553 Y113.095 E13.88385
G1 X84.462 Y110.501 E14.09104
G1 X84.378 Y108.978 E14.2128
G1 X84.179 Y106.451 E14.41514
G1 X83.909 Y103.926 E14.61784
G1 X83.568 Y101.415 E14.82012
G1 X83.171 Y98.996 E15.0158
G1 X82.697 Y96.558 E15.21406
G1 X82.138 Y94.057 E15.41862
G1 X81.618 Y91.958 E15.59124
M117 Time Left 0h12m13s
G1 X81.422 Y90.968 E15.6718
G1 X81.319 Y90.056 E15.74506
G1 X81.285 Y89.584 E15.78284
M73 P2
G1 X81.262 Y88.571 E15.86372
G1 X81.329 Y87.553 E15.94516
G1 X81.507 Y86.417 E16.03694
G1 X81.816 Y85.209 E16.13648
G1 X82.136 Y84.305 E16.21302
G1 X82.52 Y83.451 E16.28777
G1 X82.696 Y83.105 E16.31876
G1 X83.197 Y82.224 E16.39966
G1 X83.773 Y81.39 E16.48057
G1 X84.384 Y80.652 E16.55705
G0 F6000 X84.813 Y81.072
G1 F600 X85.49 Y80.38 E16.63432
G1 X85.8 Y80.091 E16.66815
G1 X86.531 Y79.469 E16.74477
G1 X87.27 Y78.942 E16.81722
G1 X88.144 Y78.429 E16.89812
G1 X88.986 Y78.03 E16.9725
G1 X89.349 Y77.878 E17.00391
G1 X90.251 Y77.545 E17.08066
G1 X91.126 Y77.306 E17.15307
G1 X92.135 Y77.124 E17.23491
G1 X93.471 Y77.031 E17.34181
G1 X94.184 Y77.027 E17.39873
G1 X95.091 Y77.063 E17.47119
G1 X95.783 Y77.141 E17.52677
G1 X98.19 Y77.492 E17.72094
G1 X100.676 Y77.787 E17.92078
G1 X103.205 Y78.015 E18.12347
G1 X105.696 Y78.169 E18.3227
G1 X108.219 Y78.253 E18.5242
G1 X110.752 Y78.265 E18.7264
G1 X113.277 Y78.206 E18.92801
G1 X115.769 Y78.078 E19.1272
G1 X118.28 Y77.876 E19.32828
G1 X120.829 Y77.6 E19.53294
G1 X122.781 Y77.337 E19.69017
G1 X124.175 Y77.136 E19.8026
G1 X125.123 Y77.043 E19.87863
G1 X125.778 Y77.027 E19.93093
G1 X126.456 Y77.032 E19.98506
G1 X127.422 Y77.084 E20.06228
G1 X128.697 Y77.278 E20.16522
G1 X129.695 Y77.531 E20.24741
G1 X130.648 Y77.865 E20.32802
G1 X131.469 Y78.23 E20.39974
G1 X132.456 Y78.771 E20.48959
G1 X133.587 Y79.556 E20.59948
G1 X134.461 Y80.31 E20.69162
G1 X135.131 Y81.006 E20.76874
G1 X135.837 Y81.897 E20.85948
G1 X136.067 Y82.221 E20.8912
G1 X136.558 Y82.984 E20.96363
G1 X137.033 Y83.894 E21.04557
G1 X137.537 Y85.182 E21.15597
G1 X137.629 Y85.474 E21.18041
G1 X137.878 Y86.403 E21.25719
G1 X138.036 Y87.296 E21.32958
G1 X138.134 Y88.603 E21.4342
G1 X138.138 Y88.913 E21.45895
G1 X138.107 Y89.873 E21.53562
G1 X138 Y90.774 E21.60805
G1 X137.832 Y91.608 E21.67596
G1 X137.024 Y94.943 E21.94987
G1 X136.51 Y97.372 E22.14806
G1 X136.057 Y99.871 E22.35079
G1 X135.677 Y102.359 E22.5517
G1 X135.367 Y104.862 E22.75302
G1 X135.128 Y107.378 E22.95477
G1 X134.962 Y109.861 E23.15341
G1 X134.845 Y113.365 E23.43327
G1 X134.819 Y114.67 E23.53746
G1 X134.785 Y115.345 E23.59141
G1 X134.715 Y116.18 E23.6583
G1 X134.595 Y117.111 E23.73323
G1 X134.458 Y117.904 E23.79747
G1 X134.262 Y118.86 E23.87537
G1 X134.068 Y119.625 E23.93837
G1 X133.84 Y120.401 E24.00293
G1 X133.676 Y120.915 E24.046
G1 X133.458 Y121.537 E24.09861
G1 X133.213 Y122.174 E24.15309
G1 X132.885 Y122.923 E24.21836
G1 X132.467 Y123.804 E24.2962
G1 X132.116 Y124.486 E24.35743
G1 X131.824 Y124.994 E24.4042
M73 P3
G1 X131.295 Y125.855 E24.48486
G1 X130.997 Y126.314 E24.52855
G1 X130.628 Y126.846 E24.58023
G1 X129.391 Y128.519 E24.74631
G1 X127.951 Y130.567 E24.94616
G1 X126.508 Y132.744 E25.15465
G1 X125.616 Y134.162 E25.28837
G1 X124.765 Y135.543 E25.41786
G1 X124.256 Y136.294 E25.49028
G1 X123.807 Y136.859 E25.54789
G1 X123.434 Y137.299 E25.59393
G1 X122.714 Y138.065 E25.67785
G1 X122.35 Y138.415 E25.71816
G1 X121.675 Y139.012 E25.79009
G1 X121.352 Y139.274 E25.82329
G1 X120.853 Y139.653 E25.87331
G1 X120.12 Y140.153 E25.94413
G1 X119.426 Y140.576 E26.00901
G1 X118.745 Y140.947 E26.07091
G1 X117.989 Y141.314 E26.138
G1 X117.681 Y141.45 E26.16487
G1 X116.917 Y141.757 E26.2306
G1 X116.004 Y142.07 E26.30764
G1 X115.306 Y142.272 E26.36565
G1 X114.461 Y142.482 E26.43515
G1 X113.368 Y142.723 E26.52449
G1 X112.418 Y142.887 E26.60145
G1 X111.34 Y142.971 E26.68776
G1 X110.597 Y142.983 E26.74708
G1 X109.601 Y142.971 E26.82659
G1 X108.949 Y142.944 E26.87868
G1 X107.883 Y142.858 E26.96405
G1 X107.311 Y142.793 E27.01
G1 X106.51 Y142.67 E27.07469
G1 X105.709 Y142.516 E27.1398
G1 X104.703 Y142.271 E27.22245
G1 X103.806 Y142.005 E27.29713
G1 X102.522 Y141.534 E27.40631
G1 X101.925 Y141.27 E27.45841
G1 X101.179 Y140.904 E27.52474
G1 X100.75 Y140.672 E27.56367
G1 X100.021 Y140.243 E27.63119
G1 X99.491 Y139.895 E27.68181
G1 X98.832 Y139.419 E27.7467
G1 X98.597 Y139.237 E27.77042
G1 X97.93 Y138.675 E27.84005
G1 X97.213 Y137.997 E27.91882
G1 X96.976 Y137.755 E27.94586
G1 X96.416 Y137.139 E28.01231
G1 X96.234 Y136.922 E28.03492
G1 X95.647 Y136.154 E28.11208
G1 X95.391 Y135.786 E28.14786
G1 X95.063 Y135.288 E28.19546
G1 X93.611 Y132.936 E28.4161
G1 X92.236 Y130.845 E28.61587
G1 X90.763 Y128.739 E28.82102
G1 X89.265 Y126.688 E29.02376
G1 X88.939 Y126.221 E29.06922
G1 X88.606 Y125.705 E29.11824
G1 X88.141 Y124.937 E29.18991
G1 X87.839 Y124.409 E29.23846
G1 X87.533 Y123.822 E29.29131
G1 X87.261 Y123.259 E29.34122
G1 X87.042 Y122.777 E29.38348
G1 X86.789 Y122.168 E29.43612
G1 X86.549 Y121.551 E29.48896
G1 X86.312 Y120.895 E29.54464
G1 X86.148 Y120.393 E29.5868
G1 X85.972 Y119.802 E29.63602
G1 X85.787 Y119.104 E29.69366
G1 X85.582 Y118.161 E29.7707
G1 X85.391 Y117.061 E29.85982
G1 X85.306 Y116.42 E29.91143
G1 X85.232 Y115.603 E29.97691
G1 X85.186 Y114.676 E30.051
G1 X85.153 Y113.083 E30.17819
G1 X85.062 Y110.48 E30.3861
G1 X84.977 Y108.945 E30.50882
M117 Time Left 0h11m58s
G1 X84.776 Y106.387 E30.71364
G1 X84.506 Y103.862 E30.91634
G1 X84.163 Y101.334 E31.11999
G1 X83.763 Y98.899 E31.31697
G1 X83.283 Y96.427 E31.51798
G1 X82.724 Y93.926 E31.72254
M73 P4
G1 X82.206 Y91.84 E31.89411
G1 X82.018 Y90.9 E31.97064
G1 X81.917 Y90.013 E32.0419
G1 X81.885 Y89.569 E32.07743
G1 X81.861 Y88.609 E32.15409
G1 X81.922 Y87.646 E32.23111
G1 X82.1 Y86.51 E32.3229
G1 X82.382 Y85.409 E32.41362
G1 X82.702 Y84.505 E32.49017
G1 X83.067 Y83.698 E32.56087
G1 X83.218 Y83.4 E32.58754
G1 X83.691 Y82.564 E32.66421
G1 X84.236 Y81.772 E32.74096
G1 X84.813 Y81.072 E32.81337
G0 F6000 X85.276 Y81.454
G1 F600 X85.9 Y80.818 E32.88449
G1 X86.19 Y80.547 E32.91617
G1 X86.879 Y79.958 E32.98853
G1 X87.618 Y79.431 E33.06098
G1 X88.401 Y78.971 E33.13347
G1 X89.219 Y78.583 E33.20574
G1 X89.558 Y78.44 E33.23511
G1 X90.409 Y78.124 E33.30758
G1 X91.284 Y77.885 E33.37998
G1 X92.177 Y77.723 E33.45243
G1 X93.513 Y77.63 E33.55933
G1 X94.16 Y77.627 E33.61098
G1 X95.067 Y77.663 E33.68344
G1 X95.696 Y77.735 E33.73397
G1 X98.107 Y78.087 E33.92847
G1 X100.622 Y78.385 E34.13063
G1 X103.151 Y78.613 E34.33333
G1 X105.674 Y78.769 E34.53511
G1 X108.199 Y78.853 E34.73678
G1 X110.763 Y78.865 E34.94145
G1 X113.291 Y78.806 E35.1433
G1 X115.813 Y78.676 E35.34488
G1 X118.345 Y78.473 E35.54765
G1 X120.894 Y78.197 E35.75231
G1 X122.861 Y77.932 E35.91074
G1 X124.235 Y77.733 E36.02156
G1 X125.138 Y77.643 E36.094
G1 X125.774 Y77.627 E36.14479
G1 X126.426 Y77.631 E36.19683
G1 X127.333 Y77.677 E36.26933
G1 X128.55 Y77.86 E36.36757
G1 X129.548 Y78.113 E36.44975
G1 X130.404 Y78.413 E36.52215
G1 X131.225 Y78.778 E36.59388
G1 X132.114 Y79.264 E36.67475
G1 X133.245 Y80.049 E36.78465
G1 X134.03 Y80.727 E36.86745
G1 X134.661 Y81.379 E36.93987
G1 X135.367 Y82.27 E37.03062
G1 X135.562 Y82.546 E37.05759
G1 X136.053 Y83.309 E37.13002
G1 X136.474 Y84.113 E37.20247
G1 X136.965 Y85.364 E37.30974
G1 X137.05 Y85.631 E37.33211
G1 X137.287 Y86.508 E37.40463
G1 X137.445 Y87.401 E37.47702
G1 X137.534 Y88.611 E37.57387
G1 X137.538 Y88.895 E37.59654
G1 X137.511 Y89.802 E37.66897
G1 X137.404 Y90.703 E37.7414
G1 X137.249 Y91.467 E37.80363
G1 X136.441 Y94.802 E38.07754
G1 X135.923 Y97.248 E38.27712
G1 X135.464 Y99.78 E38.48253
G1 X135.084 Y102.268 E38.68344
G1 X134.772 Y104.788 E38.88613
G1 X134.529 Y107.338 E39.0906
G1 X134.363 Y109.821 E39.28925
G1 X134.245 Y113.345 E39.57071
G1 X134.22 Y114.64 E39.6741
G1 X134.187 Y115.295 E39.72645
G1 X134.12 Y116.104 E39.79125
G1 X134.004 Y117.009 E39.86408
G1 X133.87 Y117.784 E39.92687
G1 X133.68 Y118.713 E40.00256
G1 X133.492 Y119.456 E40.06374
G1 X133.269 Y120.218 E40.12711
G1 X133.109 Y120.717 E40.16894
G1 X132.898 Y121.322 E40.22009
G1 X132.663 Y121.934 E40.27242
M73 P5
G1 X132.343 Y122.666 E40.33619
G1 X131.933 Y123.53 E40.41253
G1 X131.595 Y124.188 E40.47158
G1 X131.313 Y124.68 E40.51685
G1 X130.792 Y125.528 E40.59629
G1 X130.504 Y125.972 E40.63854
G1 X130.146 Y126.489 E40.68874
G1 X128.9 Y128.174 E40.85602
G1 X127.46 Y130.222 E41.05587
G1 X126.008 Y132.412 E41.26561
G1 X125.108 Y133.842 E41.40049
G1 X124.268 Y135.206 E41.52836
G1 X123.759 Y135.957 E41.60078
G1 X123.35 Y136.471 E41.65321
G1 X122.996 Y136.888 E41.69688
G1 X122.297 Y137.633 E41.77842
G1 X121.952 Y137.966 E41.8167
G1 X121.277 Y138.563 E41.88863
G1 X120.989 Y138.796 E41.9182
G1 X120.49 Y139.175 E41.96822
G1 X119.808 Y139.641 E42.03416
G1 X119.139 Y140.049 E42.09671
G1 X118.483 Y140.407 E42.15636
G1 X117.746 Y140.765 E42.22176
G1 X117.457 Y140.893 E42.247
G1 X116.693 Y141.2 E42.31272
G1 X115.837 Y141.494 E42.38497
G1 X115.161 Y141.69 E42.44115
G1 X114.331 Y141.896 E42.50942
G1 X113.264 Y142.132 E42.59665
G1 X112.371 Y142.289 E42.66902
G1 X111.33 Y142.371 E42.75238
G1 X110.604 Y142.383 E42.81034
G1 X109.626 Y142.372 E42.88841
G1 X108.997 Y142.346 E42.93866
G1 X107.95 Y142.262 E43.02251
G1 X107.402 Y142.2 E43.06653
G1 X106.623 Y142.081 E43.12944
G1 X105.85 Y141.933 E43.19226
G1 X104.873 Y141.696 E43.27251
G1 X104.012 Y141.442 E43.34417
G1 X102.764 Y140.985 E43.45026
G1 X102.189 Y140.731 E43.50044
G1 X101.464 Y140.376 E43.56487
G1 X101.054 Y140.155 E43.60205
G1 X100.35 Y139.741 E43.66725
G1 X99.842 Y139.408 E43.71573
G1 X99.199 Y138.944 E43.77903
G1 X98.984 Y138.778 E43.80071
G1 X98.317 Y138.216 E43.87033
G1 X97.641 Y137.577 E43.94459
G1 X97.42 Y137.352 E43.96976
G1 X96.876 Y136.753 E44.03435
G1 X96.694 Y136.536 E44.05696
G1 X96.139 Y135.811 E44.12984
G1 X95.892 Y135.457 E44.1643
G1 X95.574 Y134.973 E44.21053
G1 X94.122 Y132.621 E44.43117
G1 X92.728 Y130.501 E44.6337
G1 X91.255 Y128.395 E44.83885
G1 X89.757 Y126.344 E45.04159
G1 X89.443 Y125.895 E45.08533
G1 X89.119 Y125.394 E45.13295
G1 X88.662 Y124.639 E45.2034
G1 X88.371 Y124.131 E45.25014
G1 X88.073 Y123.561 E45.30148
G1 X87.807 Y123.011 E45.35025
G1 X87.596 Y122.547 E45.39093
G1 X87.348 Y121.95 E45.44254
G1 X87.113 Y121.347 E45.4942
G1 X86.882 Y120.709 E45.54836
G1 X86.723 Y120.221 E45.58933
G1 X86.552 Y119.648 E45.63706
G1 X86.373 Y118.976 E45.69258
G1 X86.173 Y118.058 E45.76757
G1 X85.986 Y116.982 E45.85475
M117 Time Left 0h11m43s
G1 X85.904 Y116.366 E45.90436
G1 X85.83 Y115.549 E45.96984
G1 X85.786 Y114.664 E46.04057
G1 X85.753 Y113.071 E46.16776
G1 X85.662 Y110.459 E46.37639
G1 X85.576 Y108.912 E46.50007
G1 X85.373 Y106.323 E46.70737
G1 X85.103 Y103.798 E46.91007
M73 P6
