;FLAVOR:Marlin
M73 P0


; Pre-Processed for Cancel-Object support by preprocess_cancellation v0.2.0
; 1 known objects
EXCLUDE_OBJECT_DEFINE NAME=plant_clips_small_stl CENTER=109.986,109.676 POLYGON=[[95.478,100.887],[95.478,119.114],[124.521,119.114],[124.521,100.887]]
M117 Time Left 0h06m36s
;TIME:396
;Filament used: 0.281702m
;Layer height: 0.2
;MINX:87.134
;MINY:92.56
;MINZ:0.32
;MAXX:132.859
;MAXY:127.409
;MAXZ:2.12
;TARGET_MACHINE.NAME:Creality Ender-3
;POSTPROCESSED
;  [InsertAtLayerChange]
;  [MeshPrintSize]
;  [DisplayProgressOnLCD]
;  [DisplayFilenameAndLayerOnLCD]
;Generated with Cura_SteamEngine 5.6.0
M82 ;absolute extrusion mode
;Nozzle diameter = 0.4
;Filament type = PLA
;Filament name = Sakura Pink
START_PRINT PRINT_MIN=87.134,92.56 PRINT_MAX=132.859,127.409 BED_TEMP=65 EXTRUDER_TEMP=220.0
G92 E0
G92 E0
G1 F2700 E-5
;LAYER_COUNT:9
TIMELAPSE_TAKE_FRAME
;LAYER:0
M117 Printing plant_clips_small - Layer 0 of 8
M107
G1 F300 Z0.52
G0 F6000 X90.615 Y94.551 Z0.52
;TYPE:SKIRT
G1 F300 Z0.32
G1 F2700 E0
G1 F600 X92.404 Y93.445 E0.16789
G1 X94.177 Y92.818 E0.31801
G1 X95.947 Y92.56 E0.46079
G1 X97.771 Y92.649 E0.60656
G1 X99.434 Y93.072 E0.74354
G1 X100.673 Y93.526 E0.84887
G1 X102.235 Y94.603 E1.00032
G1 X102.51 Y94.827 E1.02864
G1 X102.856 Y94.685 E1.05849
G1 X103.865 Y94.339 E1.14364
G1 X105.051 Y94.009 E1.24191
G1 X105.94 Y93.81 E1.31463
G1 X107.206 Y93.598 E1.41709
G1 X108.257 Y93.484 E1.50148
G1 X109.681 Y93.417 E1.61527
G1 X110.796 Y93.43 E1.70428
G1 X111.687 Y93.48 E1.77552
G1 X112.886 Y93.61 E1.87179
G1 X113.793 Y93.759 E1.94516
G1 X115.328 Y94.107 E2.0708
G1 X116.056 Y94.316 E2.13126
G1 X117.497 Y94.817 E2.25304
G1 X118.417 Y94.061 E2.34809
G1 X120.383 Y93.082 E2.52341
G1 X122.353 Y92.624 E2.68486
G1 X123.99 Y92.561 E2.81563
G1 X125.806 Y92.815 E2.962
G1 X127.634 Y93.467 E3.11692
G1 X129.379 Y94.545 E3.28065
G1 X131.037 Y96.202 E3.46776
G1 X132.207 Y98.324 E3.66119
G1 X132.647 Y100.004 E3.79982
G1 X132.859 Y101.347 E3.90835
G1 X132.711 Y103.161 E4.05363
G1 X132.512 Y104.214 E4.13918
G1 X131.526 Y106.512 E4.33878
G1 X130.057 Y108.234 E4.51946
G1 X129.691 Y108.525 E4.55679
G1 X129.789 Y109.325 E4.62113
G1 X129.874 Y111.068 E4.76042
G1 X129.854 Y111.898 E4.8267
G1 X129.714 Y113.403 E4.94735
G1 X129.585 Y114.192 E5.01117
G1 X129.205 Y115.784 E5.14182
M73 P1
G1 X128.908 Y116.713 E5.21967
G1 X128.462 Y117.854 E5.31747
G1 X127.945 Y118.946 E5.41391
G1 X127.443 Y119.853 E5.49666
G1 X126.69 Y121.029 E5.60813
G1 X126.296 Y121.569 E5.66149
G1 X125.252 Y122.828 E5.79204
G1 X124.773 Y123.336 E5.84778
G1 X123.592 Y124.434 E5.9765
G1 X122.757 Y125.108 E6.06216
G1 X121.469 Y125.95 E6.18499
G1 X120.335 Y126.511 E6.28598
G1 X119.642 Y126.775 E6.34518
G1 X118.097 Y127.202 E6.47313
G1 X117.722 Y127.269 E6.50354
G1 X115.887 Y127.409 E6.65044
G1 X114.893 Y127.369 E6.72985
G1 X113.692 Y127.198 E6.82669
G1 X112.247 Y126.82 E6.94592
G1 X111.169 Y126.401 E7.03824
G1 X109.988 Y125.796 E7.14416
G1 X109.578 Y126.035 E7.18204
G1 X108.213 Y126.66 E7.30188
G1 X107.21 Y126.988 E7.38612
G1 X106.063 Y127.244 E7.47993
G1 X104.491 Y127.404 E7.60606
G1 X103.587 Y127.394 E7.67823
G1 X102.248 Y127.255 E7.78569
G1 X101.229 Y127.035 E7.8689
G1 X99.927 Y126.621 E7.97796
G1 X99.319 Y126.36 E8.03078
G1 X97.783 Y125.498 E8.17137
G1 X97.211 Y125.088 E8.22755
G1 X96.053 Y124.13 E8.34752
G1 X95.496 Y123.605 E8.40862
G1 X94.465 Y122.501 E8.5292
G1 X93.928 Y121.853 E8.59638
G1 X93.043 Y120.638 E8.71637
G1 X92.613 Y119.955 E8.78079
G1 X91.822 Y118.483 E8.91418
G1 X91.426 Y117.592 E8.99201
G1 X91.046 Y116.58 E9.0783
G1 X90.635 Y115.187 E9.19424
G1 X90.4 Y114.104 E9.2827
G1 X90.243 Y113.046 E9.36808
G1 X90.137 Y111.589 E9.48469
G1 X90.139 Y110.417 E9.57824
G1 X90.205 Y109.455 E9.65522
G1 X90.325 Y108.539 E9.72896
G1 X89.872 Y108.175 E9.77535
G1 X89.366 Y107.669 E9.83247
G1 X88.244 Y105.915 E9.99868
M73 P2
G1 X87.61 Y104.595 E10.11557
G1 X87.254 Y102.744 E10.26603
G1 X87.134 Y101.402 E10.37358
G1 X87.471 Y99.466 E10.53045
G1 X87.793 Y98.323 E10.62524
G1 X88.95 Y96.215 E10.81719
G1 X90.615 Y94.551 E11.00509
G0 F6000 X90.99 Y95.024
G1 F600 X92.661 Y93.991 E11.16191
G1 X94.322 Y93.403 E11.30256
G1 X95.978 Y93.162 E11.43614
G1 X97.677 Y93.245 E11.57192
G1 X99.286 Y93.654 E11.70444
G1 X100.395 Y94.063 E11.7988
G1 X101.894 Y95.097 E11.94416
G1 X102.405 Y95.519 E11.99706
G1 X103.051 Y95.253 E12.05283
G1 X104.06 Y94.907 E12.13797
G1 X105.182 Y94.595 E12.23094
G1 X106.071 Y94.396 E12.30366
G1 X107.271 Y94.195 E12.40078
G1 X108.322 Y94.081 E12.48517
G1 X109.674 Y94.017 E12.59321
G1 X110.763 Y94.029 E12.68014
G1 X111.622 Y94.077 E12.74882
G1 X112.821 Y94.207 E12.84509
G1 X113.695 Y94.351 E12.9158
G1 X115.162 Y94.684 E13.03588
G1 X115.89 Y94.893 E13.09634
G1 X117.266 Y95.371 E13.21262
G1 X117.6 Y95.509 E13.24146
G1 X118.748 Y94.566 E13.36005
G1 X120.588 Y93.65 E13.52412
G1 X122.429 Y93.222 E13.675
G1 X123.963 Y93.163 E13.79754
G1 X125.663 Y93.401 E13.93457
G1 X127.374 Y94.011 E14.07957
G1 X129.004 Y95.018 E14.23251
G1 X130.553 Y96.566 E14.40732
G1 X131.646 Y98.548 E14.58799
G1 X132.054 Y100.098 E14.71593
G1 X132.255 Y101.372 E14.81889
G1 X132.121 Y103.05 E14.95326
G1 X131.934 Y104.04 E15.03368
G1 X131.01 Y106.193 E15.2207
G1 X129.64 Y107.799 E15.38921
G1 X129.025 Y108.289 E15.45198
G1 X129.115 Y108.759 E15.49017
G1 X129.193 Y109.398 E15.54156
G1 X129.274 Y111.054 E15.67391
G1 X129.254 Y111.884 E15.74018
M73 P3
G1 X129.122 Y113.307 E15.85426
G1 X129.001 Y114.053 E15.91459
G1 X128.633 Y115.601 E16.0416
G1 X128.336 Y116.53 E16.11945
G1 X127.903 Y117.635 E16.21419
G1 X127.42 Y118.655 E16.30428
G1 X126.918 Y119.562 E16.38703
G1 X126.205 Y120.675 E16.49254
G1 X125.811 Y121.215 E16.5459
G1 X124.815 Y122.416 E16.67044
G1 X124.336 Y122.924 E16.72618
G1 X123.215 Y123.967 E16.8484
G1 X122.38 Y124.641 E16.93406
G1 X121.142 Y125.447 E17.05198
G1 X120.119 Y125.951 E17.14302
G1 X119.481 Y126.197 E17.1976
G1 X117.991 Y126.611 E17.32104
G1 X117.616 Y126.678 E17.35145
G1 X115.911 Y126.809 E17.48795
G1 X114.917 Y126.769 E17.56736
G1 X113.778 Y126.604 E17.65923
G1 X112.463 Y126.26 E17.76773
G1 X111.443 Y125.867 E17.85499
G1 X110.424 Y125.345 E17.94638
G1 X110.018 Y125.083 E17.98495
G1 X109.328 Y125.489 E18.04886
G1 X107.963 Y126.114 E18.1687
G1 X107.079 Y126.402 E18.24291
G1 X105.932 Y126.658 E18.33672
G1 X104.496 Y126.804 E18.45194
G1 X103.647 Y126.797 E18.51971
G1 X102.373 Y126.668 E18.62193
G1 X101.41 Y126.463 E18.70052
G1 X100.161 Y126.068 E18.80509
G1 X99.612 Y125.836 E18.85267
G1 X98.133 Y125.01 E18.98789
G1 X97.561 Y124.6 E19.04407
G1 X96.464 Y123.693 E19.15769
G1 X95.935 Y123.195 E19.21568
G1 X94.904 Y122.091 E19.33626
G1 X94.39 Y121.47 E19.40061
M117 Time Left 0h06m21s
G1 X93.551 Y120.318 E19.51437
G1 X93.121 Y119.635 E19.5788
G1 X92.37 Y118.239 E19.70533
G1 X91.988 Y117.381 E19.78031
G1 X91.608 Y116.369 E19.86659
G1 X91.221 Y115.059 E19.97563
G1 X90.994 Y114.016 E20.06084
G1 X90.837 Y112.958 E20.14622
G1 X90.737 Y111.59 E20.25571
G1 X90.738 Y110.458 E20.34607
M73 P4
G1 X90.804 Y109.496 E20.42304
G1 X90.965 Y108.283 E20.52072
G1 X90.248 Y107.707 E20.59413
G1 X89.839 Y107.294 E20.64053
G1 X88.785 Y105.655 E20.79608
G1 X88.184 Y104.404 E20.90687
G1 X87.852 Y102.691 E21.04615
G1 X87.739 Y101.425 E21.14761
G1 X88.049 Y99.629 E21.29309
G1 X88.353 Y98.55 E21.38258
G1 X89.436 Y96.577 E21.56224
G1 X90.99 Y95.024 E21.73761
G0 F6000 X91.365 Y95.497
G1 F600 X92.918 Y94.537 E21.88335
G1 X94.467 Y93.989 E22.01451
G1 X96.01 Y93.764 E22.13898
G1 X97.585 Y93.841 E22.26485
G1 X99.078 Y94.217 E22.38775
G1 X100.116 Y94.6 E22.47607
G1 X101.553 Y95.591 E22.61541
G1 X102.299 Y96.211 E22.69284
G1 X103.246 Y95.821 E22.77459
G1 X104.255 Y95.475 E22.85974
G1 X105.313 Y95.181 E22.94739
G1 X106.202 Y94.982 E23.02011
G1 X107.336 Y94.792 E23.1119
G1 X108.387 Y94.678 E23.19628
G1 X109.668 Y94.617 E23.29865
G1 X110.73 Y94.628 E23.38343
G1 X111.557 Y94.674 E23.44955
G1 X112.756 Y94.804 E23.54582
G1 X113.597 Y94.943 E23.61386
G1 X114.996 Y95.261 E23.72838
G1 X115.724 Y95.47 E23.78884
G1 X117.069 Y95.938 E23.90252
G1 X117.711 Y96.206 E23.95805
G1 X118.166 Y95.813 E24.00605
G1 X119.077 Y95.072 E24.09979
G1 X120.793 Y94.218 E24.25279
G1 X122.505 Y93.82 E24.39309
G1 X123.936 Y93.765 E24.50741
G1 X125.52 Y93.987 E24.63508
G1 X127.114 Y94.555 E24.77016
G1 X128.629 Y95.491 E24.91231
G1 X130.069 Y96.93 E25.07482
G1 X131.084 Y98.771 E25.24263
G1 X131.461 Y100.191 E25.35991
G1 X131.651 Y101.397 E25.45736
G1 X131.531 Y102.939 E25.58082
G1 X131.356 Y103.866 E25.65613
G1 X130.494 Y105.874 E25.83056
M73 P5
G1 X129.223 Y107.364 E25.98689
G1 X128.368 Y108.046 E26.07419
G1 X128.519 Y108.832 E26.13808
G1 X128.597 Y109.471 E26.18947
G1 X128.674 Y111.04 E26.31486
G1 X128.654 Y111.87 E26.38114
G1 X128.53 Y113.212 E26.48872
G1 X128.417 Y113.915 E26.54556
G1 X128.061 Y115.419 E26.66893
G1 X127.777 Y116.311 E26.74365
G1 X127.344 Y117.416 E26.83839
G1 X126.895 Y118.364 E26.92212
G1 X126.393 Y119.271 E27.00487
G1 X125.72 Y120.321 E27.10443
G1 X125.326 Y120.861 E27.15779
G1 X124.378 Y122.004 E27.27632
G1 X123.899 Y122.512 E27.33206
G1 X122.837 Y123.501 E27.4479
G1 X122.051 Y124.139 E27.52871
G1 X120.876 Y124.909 E27.64085
G1 X119.903 Y125.391 E27.72752
G1 X119.265 Y125.637 E27.78211
G1 X117.885 Y126.02 E27.89643
G1 X117.51 Y126.087 E27.92684
G1 X115.935 Y126.209 E28.05294
G1 X114.941 Y126.169 E28.13235
G1 X113.928 Y126.023 E28.21404
G1 X112.679 Y125.7 E28.31702
G1 X111.659 Y125.307 E28.40428
G1 X110.699 Y124.812 E28.4905
G1 X109.994 Y124.352 E28.55769
G1 X109.616 Y124.623 E28.59482
G1 X109.078 Y124.943 E28.64479
G1 X107.713 Y125.568 E28.76463
G1 X106.948 Y125.816 E28.82882
G1 X105.801 Y126.072 E28.92263
G1 X104.499 Y126.204 E29.0271
G1 X103.706 Y126.2 E29.0904
G1 X102.496 Y126.081 E29.18745
G1 X101.59 Y125.891 E29.26135
G1 X100.395 Y125.515 E29.36135
G1 X99.846 Y125.283 E29.40892
G1 X98.482 Y124.522 E29.5336
G1 X97.943 Y124.137 E29.58648
G1 X96.875 Y123.255 E29.69704
G1 X96.374 Y122.785 E29.75188
G1 X95.343 Y121.681 E29.87246
G1 X94.853 Y121.088 E29.93386
G1 X94.059 Y119.998 E30.04151
G1 X93.629 Y119.315 E30.10593
G1 X92.918 Y117.994 E30.22568
G1 X92.55 Y117.17 E30.29772
M73 P6
G1 X92.17 Y116.158 E30.38401
G1 X91.807 Y114.931 E30.48615
G1 X91.588 Y113.928 E30.5681
G1 X91.431 Y112.87 E30.65348
G1 X91.337 Y111.59 E30.75593
G1 X91.337 Y110.498 E30.8431
G1 X91.399 Y109.575 E30.91694
G1 X91.556 Y108.387 E31.0126
G1 X91.626 Y108.043 E31.04062
G1 X90.675 Y107.285 E31.1377
G1 X90.31 Y106.916 E31.17913
G1 X89.326 Y105.395 E31.32373
G1 X88.758 Y104.213 E31.42841
G1 X88.45 Y102.638 E31.55652
G1 X88.344 Y101.447 E31.65196
G1 X88.627 Y99.791 E31.78607
G1 X88.912 Y98.778 E31.87007
G1 X89.922 Y96.939 E32.03755
G1 X91.365 Y95.497 E32.20039
G0 F6000 X91.739 Y95.971
G1 F600 X93.177 Y95.082 E32.33534
G1 X94.612 Y94.574 E32.45686
G1 X96.041 Y94.366 E32.57213
G1 X97.496 Y94.437 E32.68841
G1 X98.87 Y94.78 E32.80146
G1 X99.839 Y95.138 E32.88392
G1 X101.17 Y96.053 E33.01285
G1 X101.886 Y96.647 E33.08711
G1 X102.18 Y96.91 E33.1186
G1 X103.441 Y96.389 E33.22751
G1 X104.45 Y96.043 E33.31265
G1 X105.444 Y95.767 E33.395
G1 X106.333 Y95.568 E33.46772
G1 X107.401 Y95.389 E33.55416
G1 X108.452 Y95.275 E33.63855
G1 X109.662 Y95.217 E33.73525
G1 X110.697 Y95.227 E33.81787
G1 X111.492 Y95.271 E33.88143
G1 X112.691 Y95.401 E33.9777
G1 X113.499 Y95.535 E34.04308
G1 X114.83 Y95.838 E34.15204
G1 X115.558 Y96.047 E34.2125
G1 X116.838 Y96.492 E34.32068
G1 X117.502 Y96.769 E34.37811
G1 X117.808 Y96.916 E34.4052
G1 X118.544 Y96.279 E34.4829
G1 X119.405 Y95.579 E34.57148
G1 X120.998 Y94.786 E34.71353
G1 X122.581 Y94.418 E34.84326
G1 X123.909 Y94.367 E34.94934
G1 X125.377 Y94.573 E35.06767
M73 P7
G1 X126.854 Y95.099 E35.19283
G1 X128.254 Y95.964 E35.32419
G1 X129.585 Y97.294 E35.47439
G1 X130.522 Y98.994 E35.62934
G1 X130.868 Y100.284 E35.73595
G1 X131.047 Y101.423 E35.82799
G1 X130.941 Y102.828 E35.94046
G1 X130.778 Y103.692 E36.01064
G1 X129.978 Y105.555 E36.17249
G1 X128.806 Y106.929 E36.31665
G1 X128 Y107.57 E36.39885
G1 X127.716 Y107.83 E36.42959
G1 X127.923 Y108.905 E36.51697
G1 X128.001 Y109.544 E36.56836
G1 X128.074 Y111.026 E36.6868
G1 X128.056 Y111.815 E36.7498
G1 X127.937 Y113.118 E36.85424
G1 X127.833 Y113.777 E36.9075
G1 X127.489 Y115.238 E37.02731
G1 X127.218 Y116.092 E37.09883
G1 X126.785 Y117.197 E37.19357
G1 X126.37 Y118.073 E37.27094
G1 X125.868 Y118.98 E37.3537
G1 X125.235 Y119.967 E37.44729
G1 X124.841 Y120.507 E37.50065
G1 X123.941 Y121.592 E37.61318
G1 X123.462 Y122.1 E37.66891
G1 X122.458 Y123.036 E37.77848
G1 X121.72 Y123.638 E37.85451
G1 X120.608 Y124.372 E37.96087
G1 X119.687 Y124.831 E38.04301
G1 X119.049 Y125.077 E38.09759
M117 Time Left 0h06m06s
G1 X117.779 Y125.429 E38.20279
G1 X117.404 Y125.496 E38.2332
G1 X115.89 Y125.611 E38.3544
G1 X115.024 Y125.575 E38.42359
G1 X114.077 Y125.442 E38.49992
G1 X112.893 Y125.139 E38.59748
G1 X111.933 Y124.773 E38.67949
G1 X111.027 Y124.309 E38.76075
G1 X109.977 Y123.624 E38.86082
G1 X109.309 Y124.107 E38.92662
G1 X108.771 Y124.427 E38.97659
G1 X107.527 Y124.998 E39.08585
G1 X106.817 Y125.23 E39.14548
G1 X105.67 Y125.486 E39.23929
G1 X104.5 Y125.604 E39.33316
G1 X103.763 Y125.603 E39.39199
G1 X102.617 Y125.493 E39.48389
G1 X101.769 Y125.318 E39.553
G1 X100.629 Y124.962 E39.64834
M73 P8
G1 X100.08 Y124.73 E39.69591
G1 X98.831 Y124.034 E39.81005
G1 X98.292 Y123.649 E39.86292
G1 X97.286 Y122.817 E39.96713
G1 X96.785 Y122.347 E40.02197
G1 X95.806 Y121.299 E40.13644
G1 X95.316 Y120.706 E40.19785
G1 X94.567 Y119.678 E40.29938
G1 X94.137 Y118.995 E40.3638
G1 X93.466 Y117.749 E40.47677
G1 X93.112 Y116.959 E40.54587
G1 X92.732 Y115.947 E40.63216
G1 X92.393 Y114.802 E40.72748
G1 X92.182 Y113.84 E40.8061
G1 X92.025 Y112.782 E40.89148
G1 X91.937 Y111.589 E40.98697
G1 X91.936 Y110.538 E41.07086
G1 X91.998 Y109.615 E41.14471
G1 X92.144 Y108.507 E41.23392
G1 X92.282 Y107.828 E41.28923
G1 X91.992 Y107.565 E41.32048
G1 X91.048 Y106.815 E41.41672
G1 X90.781 Y106.539 E41.44737
G1 X89.867 Y105.135 E41.5811
G1 X89.332 Y104.023 E41.67961
G1 X89.048 Y102.585 E41.79661
G1 X88.949 Y101.472 E41.88581
G1 X89.205 Y99.954 E42.00869
G1 X89.472 Y99.005 E42.08738
G1 X90.408 Y97.301 E42.24257
G1 X91.739 Y95.971 E42.39277
G0 F6000 X92.114 Y96.444
G1 F600 X93.434 Y95.628 E42.51665
G1 X94.757 Y95.16 E42.62867
G1 X96.073 Y94.968 E42.73483
G1 X97.404 Y95.033 E42.8412
G1 X98.662 Y95.343 E42.94463
G1 X99.559 Y95.675 E43.02098
G1 X100.83 Y96.548 E43.14406
G1 X101.486 Y97.094 E43.21219
G1 X102.086 Y97.631 E43.27646
G1 X102.53 Y97.415 E43.31588
G1 X103.67 Y96.944 E43.41434
G1 X104.611 Y96.621 E43.49376
G1 X105.575 Y96.353 E43.57362
G1 X106.464 Y96.154 E43.64634
G1 X107.466 Y95.986 E43.72744
G1 X108.517 Y95.872 E43.81183
G1 X109.657 Y95.817 E43.90294
G1 X110.664 Y95.826 E43.98332
G1 X111.427 Y95.868 E44.04432
M73 P9
G1 X112.626 Y95.998 E44.14059
G1 X113.4 Y96.127 E44.20323
G1 X114.665 Y96.415 E44.30679
G1 X115.361 Y96.614 E44.36457
G1 X116.607 Y97.046 E44.46984
G1 X117.271 Y97.323 E44.52727
G1 X117.915 Y97.634 E44.58436
G1 X118.126 Y97.435 E44.60751
G1 X118.923 Y96.745 E44.69166
G1 X119.736 Y96.084 E44.7753
G1 X121.203 Y95.354 E44.9061
G1 X122.657 Y95.016 E45.02526
G1 X123.882 Y94.969 E45.12312
G1 X125.232 Y95.158 E45.23193
G1 X126.595 Y95.644 E45.34744
G1 X127.879 Y96.437 E45.46791
G1 X129.098 Y97.655 E45.60546
G1 X129.962 Y99.223 E45.74837
G1 X130.275 Y100.377 E45.84382
G1 X130.444 Y101.45 E45.93053
G1 X130.351 Y102.717 E46.03194
G1 X130.2 Y103.518 E46.097
G1 X129.463 Y105.234 E46.24608
G1 X128.387 Y106.496 E46.37846
G1 X127.616 Y107.109 E46.45709
G1 X127.116 Y107.565 E46.51111
G1 X127.082 Y107.713 E46.52323
G1 X127.327 Y108.978 E46.62608
G1 X127.405 Y109.617 E46.67747
G1 X127.474 Y111.012 E46.78896
G1 X127.456 Y111.801 E46.85196
G1 X127.344 Y113.024 E46.94999
G1 X127.24 Y113.683 E47.00325
G1 X126.917 Y115.057 E47.11591
G1 X126.659 Y115.873 E47.18423
G1 X126.226 Y116.978 E47.27897
G1 X125.845 Y117.782 E47.34999
G1 X125.343 Y118.689 E47.43274
G1 X124.75 Y119.613 E47.52038
G1 X124.356 Y120.153 E47.57374
G1 X123.504 Y121.18 E47.68025
G1 X123.025 Y121.688 E47.73599
G1 X122.077 Y122.572 E47.83946
G1 X121.389 Y123.137 E47.91052
