;FLAVOR:Marlin
M73 P0


; Pre-Processed for Cancel-Object support by preprocess_cancellation v0.2.0
; 2 known objects
EXCLUDE_OBJECT_DEFINE NAME=plant_clip_3mf_1 CENTER=107.213,95.721 POLYGON=[[94.158,85.167],[94.158,106.277],[125.439,106.277],[125.439,85.167]]
EXCLUDE_OBJECT_DEFINE NAME=plant_clip_3mf CENTER=107.083,123.213 POLYGON=[[83.414,74.434],[83.414,145.573],[136.577,145.573],[136.577,74.434]]
M117 Time Left 0h13m00s
;TIME:780
;Filament used: 0.827434m
;Layer height: 0.3
;MINX:81.614
;MINY:72.634
;MINZ:0.45
;MAXX:138.371
;MAXY:147.373
;MAXZ:9.05
;TARGET_MACHINE.NAME:Creality Ender-3
;POSTPROCESSED
;  [InsertAtLayerChange]
;  [MeshPrintSize]
;  [DisplayProgressOnLCD]
;  [DisplayFilenameAndLayerOnLCD]
;KLIPPERSETTINGSPROCESSED
SET_RETRACTION RETRACT_LENGTH=4 RETRACT_SPEED=20 UNRETRACT_SPEED=20 ;KlipperSettingsPlugin

;Generated with Cura_SteamEngine 5.6.0
M82 ;absolute extrusion mode
;Nozzle diameter = 0.6
;Filament type = PLA
;Filament name = PLA
START_PRINT PRINT_MIN=81.614,72.634 PRINT_MAX=138.371,147.373 BED_TEMP=60.0 EXTRUDER_TEMP=210.0
G92 E0
G92 E0
G10
;LAYER_COUNT:29
TIMELAPSE_TAKE_FRAME
;LAYER:0
M117 Printing plant clip - Layer 0 of 28
M107
G1 F300 Z0.65
G0 F6000 X87.474 Y79.727 Z0.65
;TYPE:SKIRT
G1 F300 Z0.45
G11
G1 F600 X88.22 Y78.948 E0.18161
G1 X88.935 Y78.271 E0.34741
G1 X89.714 Y77.604 E0.52009
G1 X90.136 Y77.268 E0.61092
G1 X90.651 Y76.883 E0.71918
G1 X91.113 Y76.556 E0.81449
G1 X91.635 Y76.208 E0.92013
G1 X92.555 Y75.645 E1.10174
G1 X92.945 Y75.426 E1.17705
G1 X93.467 Y75.151 E1.2764
G1 X93.96 Y74.907 E1.36902
G1 X94.511 Y74.651 E1.47132
G1 X95.413 Y74.272 E1.63606
G1 X95.969 Y74.061 E1.73619
G1 X96.517 Y73.868 E1.83402
G1 X96.995 Y73.714 E1.91858
G1 X98.137 Y73.394 E2.11828
G1 X99.145 Y73.158 E2.29259
G1 X99.718 Y73.046 E2.3909
G1 X100.595 Y72.908 E2.54039
G1 X101.924 Y72.749 E2.76576
G1 X102.849 Y72.68 E2.92194
G1 X103.96 Y72.638 E3.10915
G1 X105.175 Y72.634 E3.31373
G1 X106.019 Y72.662 E3.45592
G1 X106.904 Y72.727 E3.60534
G1 X107.932 Y72.826 E3.77923
G1 X108.547 Y72.902 E3.88357
G1 X110.013 Y73.13 E4.13338
G1 X110.796 Y73.284 E4.26775
G1 X112.095 Y73.575 E4.4919
G1 X112.556 Y73.689 E4.57186
G1 X114.025 Y74.091 E4.8283
G1 X115.578 Y74.579 E5.1024
G1 X116.606 Y74.943 E5.28602
G1 X118.062 Y75.51 E5.54912
G1 X119.182 Y75.992 E5.75443
G1 X120.756 Y76.732 E6.04728
G1 X121.885 Y77.308 E6.2607
G1 X123.482 Y78.193 E6.56813
G1 X124.694 Y78.924 E6.80645
G1 X125.501 Y79.439 E6.96764
G1 X126.815 Y80.333 E7.23525
G1 X127.662 Y80.945 E7.4112
G1 X128.518 Y81.589 E7.59156
G1 X129.446 Y82.327 E7.79121
G1 X130.138 Y82.902 E7.9427
G1 X131.492 Y84.089 E8.24589
G1 X132.791 Y85.307 E8.54573
G1 X133.809 Y86.321 E8.78766
G1 X134.79 Y87.357 E9.0279
G1 X135.464 Y88.144 E9.20237
G1 X136.044 Y88.945 E9.36889
G1 X136.675 Y90.006 E9.57674
G1 X137.132 Y90.971 E9.75653
G1 X137.455 Y91.826 E9.91042
G1 X137.788 Y93.012 E10.11784
G1 X137.98 Y94.062 E10.29757
G1 X138.07 Y94.972 E10.45155
G1 X138.087 Y96.118 E10.64453
G1 X138.014 Y97.12 E10.81369
G1 X137.67 Y100.041 E11.30893
G1 X137.451 Y102.502 E11.72495
G1 X137.308 Y104.914 E12.13179
G1 X137.226 Y107.468 E12.56205
G1 X137.218 Y109.89 E12.96987
G1 X137.278 Y112.387 E13.39044
G1 X137.411 Y114.897 E13.81366
G1 X137.61 Y117.329 E14.22453
G1 X137.883 Y119.818 E14.64614
G1 X138.276 Y122.651 E15.12773
G1 X138.37 Y123.717 E15.30792
G1 X138.371 Y124.789 E15.48842
M73 P1
G1 X138.278 Y125.857 E15.66893
G1 X138.092 Y126.911 E15.84914
G1 X137.816 Y127.943 E16.02902
G1 X137.509 Y128.804 E16.18293
G1 X136.995 Y129.924 E16.39043
G1 X136.501 Y130.785 E16.55757
G1 X135.848 Y131.725 E16.75029
G1 X135.293 Y132.396 E16.89691
G1 X134.478 Y133.29 E17.10061
G1 X133.815 Y133.968 E17.26028
G1 X133.119 Y134.66 E17.42554
G1 X132.34 Y135.398 E17.60622
G1 X131.258 Y136.377 E17.85191
G1 X129.777 Y137.636 E18.17921
G1 X128.611 Y138.561 E18.42982
G1 X127.975 Y139.041 E18.56399
G1 X127.342 Y139.5 E18.69564
G1 X125.959 Y140.444 E18.97759
G1 X124.632 Y141.293 E19.24284
G1 X123.921 Y141.721 E19.38258
G1 X123.106 Y142.187 E19.54066
G1 X122.335 Y142.607 E19.68849
G1 X121.248 Y143.169 E19.89453
G1 X120.342 Y143.612 E20.06435
G1 X118.926 Y144.247 E20.32565
G1 X118.515 Y144.421 E20.4008
G1 X117.312 Y144.897 E20.61864
G1 X116.54 Y145.185 E20.75738
G1 X115.634 Y145.503 E20.91905
G1 X115.135 Y145.664 E21.00734
G1 X113.668 Y146.095 E21.26479
G1 X112.481 Y146.401 E21.47119
G1 X111.173 Y146.701 E21.69715
G1 X110.474 Y146.842 E21.81722
G1 X108.933 Y147.088 E22.07998
G1 X108.409 Y147.157 E22.16897
G1 X107.59 Y147.242 E22.30762
G1 X106.817 Y147.305 E22.4382
G1 X105.954 Y147.353 E22.58374
G1 X105.498 Y147.366 E22.66055
G1 X104.316 Y147.373 E22.85958
G1 X103.62 Y147.35 E22.97684
G1 X102.693 Y147.298 E23.13317
G1 X101.987 Y147.236 E23.2525
G1 X101.157 Y147.135 E23.39329
G1 X100.253 Y146.996 E23.54729
G1 X99.3 Y146.812 E23.71072
G1 X98.731 Y146.682 E23.809
G1 X98.099 Y146.521 E23.91881
G1 X97.54 Y146.362 E24.01667
G1 X96.663 Y146.083 E24.17163
G1 X96.186 Y145.914 E24.25684
G1 X95.61 Y145.691 E24.36084
G1 X95.023 Y145.444 E24.46807
G1 X94.055 Y144.997 E24.64761
G1 X93.597 Y144.765 E24.73405
G1 X92.644 Y144.237 E24.9175
G1 X92.287 Y144.022 E24.98767
G1 X91.756 Y143.68 E25.09402
G1 X91.175 Y143.284 E25.21241
G1 X90.355 Y142.673 E25.3846
G1 X89.674 Y142.117 E25.53263
G1 X89.075 Y141.588 E25.66719
G1 X88.642 Y141.176 E25.76783
G1 X88.131 Y140.661 E25.88999
G1 X87.653 Y140.139 E26.00916
G1 X87.146 Y139.551 E26.13989
G1 X86.619 Y138.895 E26.28158
G1 X86.201 Y138.335 E26.39924
M117 Time Left 0h12m45s
G1 X85.818 Y137.789 E26.51154
G1 X85.386 Y137.112 E26.64676
G1 X84.997 Y136.456 E26.77518
G1 X84.681 Y135.887 E26.88477
G1 X84.217 Y134.958 E27.05962
G1 X83.909 Y134.28 E27.18501
G1 X83.687 Y133.753 E27.2813
G1 X83.484 Y133.239 E27.37435
G1 X83.247 Y132.579 E27.49243
G1 X83.014 Y131.853 E27.62081
G1 X82.683 Y130.679 E27.8262
M73 P2
G1 X82.494 Y129.887 E27.9633
G1 X82.303 Y128.893 E28.13373
G1 X82.154 Y127.958 E28.29315
G1 X82.069 Y127.298 E28.4052
G1 X82.006 Y126.669 E28.51164
G1 X81.961 Y126.062 E28.61413
G1 X81.931 Y125.459 E28.71579
G1 X81.918 Y124.902 E28.8096
G1 X81.917 Y123.842 E28.98808
G1 X81.932 Y123.274 E29.08375
G1 X81.98 Y122.298 E29.24829
G1 X82.019 Y121.772 E29.3371
G1 X82.131 Y120.611 E29.5335
G1 X82.258 Y119.426 E29.73417
G1 X82.453 Y117.008 E30.14263
G1 X82.587 Y114.457 E30.57276
G1 X82.645 Y111.99 E30.98827
G1 X82.635 Y109.536 E31.40147
G1 X82.554 Y107.044 E31.8213
G1 X82.402 Y104.525 E32.24622
G1 X82.19 Y102.158 E32.64637
G1 X81.791 Y98.88 E33.20239
G1 X81.741 Y98.401 E33.28348
G1 X81.67 Y97.539 E33.42911
G1 X81.635 Y96.848 E33.54561
G1 X81.614 Y95.671 E33.74383
G1 X81.621 Y95.031 E33.8516
G1 X81.641 Y94.46 E33.9478
G1 X81.683 Y93.74 E34.06924
G1 X81.728 Y93.208 E34.15914
G1 X81.831 Y92.301 E34.31284
G1 X81.968 Y91.351 E34.47445
G1 X82.098 Y90.611 E34.60096
G1 X82.241 Y89.933 E34.71764
G1 X82.414 Y89.226 E34.84019
G1 X82.625 Y88.486 E34.96976
G1 X82.912 Y87.566 E35.13203
G1 X83.183 Y86.797 E35.26932
G1 X83.446 Y86.128 E35.39036
G1 X83.721 Y85.478 E35.5092
G1 X84.087 Y84.701 E35.65382
G1 X84.498 Y83.921 E35.80227
G1 X85.244 Y82.656 E36.04955
G1 X85.705 Y81.952 E36.19124
G1 X86.33 Y81.094 E36.36998
G1 X86.92 Y80.359 E36.52868
G1 X87.474 Y79.727 E36.67019
G0 F6000 X88.151 Y80.32
G1 F600 X88.839 Y79.601 E36.83775
G1 X89.521 Y78.954 E36.99604
G1 X90.274 Y78.308 E37.16309
G1 X90.675 Y77.989 E37.24937
G1 X91.171 Y77.618 E37.35367
G1 X91.633 Y77.291 E37.44897
G1 X92.134 Y76.957 E37.55036
G1 X92.996 Y76.429 E37.72056
G1 X93.364 Y76.222 E37.79166
G1 X93.867 Y75.957 E37.88739
G1 X94.339 Y75.723 E37.97609
G1 X94.86 Y75.481 E38.07282
G1 X95.762 Y75.102 E38.23756
G1 X96.268 Y74.91 E38.32869
G1 X96.793 Y74.725 E38.42242
G1 X97.271 Y74.571 E38.50698
G1 X98.343 Y74.27 E38.69446
G1 X99.319 Y74.041 E38.86326
G1 X99.858 Y73.935 E38.95575
G1 X100.702 Y73.802 E39.09962
G1 X102.031 Y73.643 E39.32499
G1 X102.883 Y73.579 E39.46886
G1 X103.963 Y73.538 E39.65084
G1 X105.178 Y73.534 E39.85542
G1 X105.954 Y73.56 E39.98615
G1 X106.818 Y73.623 E40.13202
G1 X107.822 Y73.719 E40.30184
G1 X108.409 Y73.791 E40.40142
G1 X109.84 Y74.013 E40.64526
G1 X110.599 Y74.162 E40.7755
G1 X111.88 Y74.449 E40.99654
G1 X112.319 Y74.557 E41.07266
M73 P3
G1 X113.756 Y74.95 E41.32351
G1 X115.277 Y75.427 E41.59191
G1 X116.279 Y75.782 E41.7709
G1 X117.735 Y76.349 E42.034
G1 X118.799 Y76.806 E42.22898
G1 X120.347 Y77.534 E42.51702
G1 X121.476 Y78.11 E42.73043
G1 X123.017 Y78.964 E43.02708
G1 X124.21 Y79.683 E43.26162
G1 X124.995 Y80.183 E43.41833
G1 X126.288 Y81.062 E43.68159
G1 X127.121 Y81.664 E43.85464
G1 X127.958 Y82.294 E44.03104
G1 X128.871 Y83.019 E44.22734
G1 X129.545 Y83.579 E44.37489
G1 X130.877 Y84.746 E44.67308
G1 X132.156 Y85.944 E44.96815
G1 X133.155 Y86.94 E45.20568
G1 X134.136 Y87.976 E45.44592
G1 X134.78 Y88.729 E45.61275
G1 X135.314 Y89.471 E45.76668
G1 X135.863 Y90.393 E45.94737
G1 X136.29 Y91.289 E46.11449
G1 X136.613 Y92.144 E46.26839
G1 X136.903 Y93.176 E46.44888
G1 X137.084 Y94.151 E46.61586
G1 X137.174 Y95.061 E46.76983
G1 X137.189 Y96.053 E46.93688
G1 X137.116 Y97.055 E47.10605
G1 X136.776 Y99.936 E47.59451
G1 X136.555 Y102.422 E48.01476
G1 X136.408 Y104.885 E48.43021
G1 X136.326 Y107.439 E48.86047
G1 X136.318 Y109.912 E49.27688
G1 X136.379 Y112.435 E49.70182
G1 X136.512 Y114.947 E50.12539
G1 X136.715 Y117.427 E50.54436
G1 X136.988 Y119.916 E50.96597
G1 X137.38 Y122.733 E51.44487
G1 X137.47 Y123.721 E51.61192
G1 X137.474 Y124.714 E51.77912
G1 X137.391 Y125.704 E51.9464
G1 X137.222 Y126.681 E52.11335
G1 X136.968 Y127.641 E52.28056
G1 X136.661 Y128.502 E52.43447
G1 X136.214 Y129.476 E52.61492
G1 X135.72 Y130.337 E52.78206
G1 X135.154 Y131.151 E52.949
G1 X134.599 Y131.822 E53.09562
G1 X133.834 Y132.661 E53.2868
G1 X133.18 Y133.33 E53.44433
G1 X132.5 Y134.007 E53.6059
G1 X131.736 Y134.731 E53.78313
G1 X130.675 Y135.691 E54.02405
G1 X129.217 Y136.931 E54.34633
G1 X128.068 Y137.843 E54.59333
G1 X127.446 Y138.313 E54.7246
G1 X126.834 Y138.757 E54.85191
M117 Time Left 0h12m30s
G1 X125.474 Y139.686 E55.12923
G1 X124.168 Y140.522 E55.39033
G1 X123.474 Y140.94 E55.52675
G1 X122.676 Y141.397 E55.68159
G1 X121.921 Y141.808 E55.82633
G1 X120.853 Y142.361 E56.02884
G1 X119.974 Y142.791 E56.1936
G1 X118.575 Y143.418 E56.45174
G1 X118.183 Y143.584 E56.52342
G1 X116.997 Y144.054 E56.73823
G1 X116.242 Y144.336 E56.87393
G1 X115.357 Y144.647 E57.03188
G1 X114.881 Y144.801 E57.11612
G1 X113.443 Y145.224 E57.36851
G1 X112.28 Y145.524 E57.57074
G1 X110.995 Y145.819 E57.79274
G1 X110.332 Y145.953 E57.90663
G1 X108.815 Y146.196 E58.16532
G1 X108.316 Y146.262 E58.25007
G1 X107.517 Y146.345 E58.38533
G1 X106.767 Y146.406 E58.51203
G1 X105.927 Y146.453 E58.65369
M73 P4
G1 X105.493 Y146.466 E58.7268
G1 X104.345 Y146.473 E58.92011
G1 X103.67 Y146.451 E59.03382
G1 X102.772 Y146.401 E59.18526
G1 X102.066 Y146.339 E59.3046
G1 X101.293 Y146.245 E59.43571
G1 X100.423 Y146.112 E59.5839
G1 X99.499 Y145.934 E59.74235
G1 X98.953 Y145.81 E59.83662
G1 X98.344 Y145.655 E59.94244
G1 X97.813 Y145.505 E60.03534
G1 X96.963 Y145.234 E60.18556
G1 X96.51 Y145.074 E60.26646
G1 X95.958 Y144.861 E60.36608
G1 X95.4 Y144.627 E60.46797
G1 X94.462 Y144.194 E60.64192
G1 X94.004 Y143.962 E60.72837
G1 X93.107 Y143.465 E60.90104
G1 X92.774 Y143.265 E60.96645
G1 X92.263 Y142.936 E61.06878
G1 X91.682 Y142.54 E61.18717
G1 X90.924 Y141.976 E61.34626
G1 X90.27 Y141.442 E61.48842
G1 X89.671 Y140.913 E61.62298
G1 X89.281 Y140.542 E61.71362
G1 X88.77 Y140.027 E61.83578
G1 X88.335 Y139.551 E61.94435
G1 X87.828 Y138.963 E62.07508
G1 X87.34 Y138.356 E62.20622
G1 X86.937 Y137.817 E62.31954
G1 X86.576 Y137.304 E62.42516
G1 X86.16 Y136.653 E62.55525
G1 X85.784 Y136.019 E62.67936
G1 X85.468 Y135.45 E62.78895
G1 X85.036 Y134.585 E62.95175
G1 X84.738 Y133.93 E63.07292
G1 X84.524 Y133.423 E63.16558
G1 X84.331 Y132.934 E63.2541
G1 X84.104 Y132.303 E63.36701
G1 X83.88 Y131.608 E63.48997
G1 X83.558 Y130.469 E63.68927
G1 X83.378 Y129.717 E63.81946
G1 X83.192 Y128.751 E63.98511
G1 X83.047 Y127.843 E64.13993
G1 X82.965 Y127.208 E64.24774
G1 X82.902 Y126.579 E64.35418
G1 X82.86 Y126.017 E64.44907
G1 X82.831 Y125.437 E64.54686
G1 X82.818 Y124.901 E64.63713
G1 X82.817 Y123.865 E64.81158
G1 X82.831 Y123.318 E64.90371
G1 X82.878 Y122.364 E65.06454
G1 X82.915 Y121.858 E65.14997
G1 X83.026 Y120.707 E65.34467
G1 X83.153 Y119.522 E65.54534
G1 X83.352 Y117.056 E65.96192
G1 X83.486 Y114.504 E66.39221
G1 X83.545 Y112.011 E66.8121
G1 X83.535 Y109.507 E67.23372
G1 X83.454 Y107.015 E67.65355
G1 X83.3 Y104.471 E68.08269
G1 X83.083 Y102.049 E68.49214
G1 X82.686 Y98.786 E69.04561
G1 X82.638 Y98.327 E69.12332
G1 X82.569 Y97.493 E69.26423
G1 X82.535 Y96.832 E69.37567
G1 X82.514 Y95.68 E69.56968
G1 X82.52 Y95.062 E69.67374
G1 X82.539 Y94.513 E69.76624
G1 X82.58 Y93.815 E69.88397
G1 X82.622 Y93.31 E69.96929
G1 X82.722 Y92.429 E70.11859
G1 X82.854 Y91.507 E70.27542
G1 X82.979 Y90.797 E70.39681
G1 X83.122 Y90.119 E70.51348
G1 X83.28 Y89.472 E70.62562
G1 X83.484 Y88.754 E70.7513
G1 X83.761 Y87.865 E70.90809
G1 X84.021 Y87.126 E71.04
G1 X84.284 Y86.457 E71.16104
M73 P5
G1 X84.535 Y85.861 E71.26993
G1 X84.883 Y85.121 E71.40762
G1 X85.294 Y84.341 E71.55607
G1 X85.997 Y83.149 E71.78909
G1 X86.458 Y82.445 E71.93078
G1 X87.032 Y81.657 E72.09493
G1 X87.597 Y80.952 E72.24706
G1 X88.151 Y80.32 E72.38857
G0 F6000 X88.828 Y80.913
G1 F600 X89.459 Y80.254 E72.5422
G1 X90.118 Y79.628 E72.69524
G1 X90.423 Y79.358 E72.76383
G1 X90.835 Y79.012 E72.85442
G1 X91.215 Y78.709 E72.93625
G1 X91.691 Y78.352 E73.03644
G1 X92.133 Y78.039 E73.12763
G1 X92.604 Y77.724 E73.22304
G1 X93.438 Y77.213 E73.38773
G1 X93.784 Y77.018 E73.45461
G1 X94.267 Y76.763 E73.54657
G1 X94.718 Y76.539 E73.63136
G1 X95.209 Y76.311 E73.72252
G1 X96.111 Y75.932 E73.88726
G1 X96.567 Y75.759 E73.96938
G1 X97.069 Y75.582 E74.05901
G1 X97.547 Y75.428 E74.14356
G1 X98.549 Y75.146 E74.31884
G1 X99.494 Y74.924 E74.48229
G1 X99.998 Y74.824 E74.5688
G1 X100.809 Y74.696 E74.70705
G1 X102.138 Y74.537 E74.93242
G1 X102.917 Y74.478 E75.06396
G1 X103.966 Y74.438 E75.24072
G1 X105.149 Y74.434 E75.43992
G1 X105.889 Y74.458 E75.56458
G1 X106.733 Y74.519 E75.70707
G1 X107.713 Y74.612 E75.87282
G1 X108.271 Y74.68 E75.96747
G1 X109.667 Y74.896 E76.20533
G1 X110.402 Y75.04 E76.33144
G1 X111.666 Y75.323 E76.54954
G1 X112.082 Y75.425 E76.62166
G1 X113.487 Y75.809 E76.86691
G1 X114.976 Y76.275 E77.12962
G1 X115.952 Y76.621 E77.30398
G1 X117.408 Y77.188 E77.56707
G1 X118.416 Y77.621 E77.75179
G1 X119.938 Y78.336 E78.03494
M117 Time Left 0h12m15s
G1 X121.067 Y78.912 E78.24835
G1 X122.553 Y79.735 E78.53437
G1 X123.727 Y80.442 E78.76513
G1 X124.489 Y80.927 E78.91722
G1 X125.761 Y81.792 E79.17623
G1 X126.58 Y82.383 E79.34628
G1 X127.398 Y82.999 E79.5187
G1 X128.296 Y83.712 E79.71177
G1 X128.952 Y84.256 E79.85527
G1 X130.262 Y85.403 E80.14845
G1 X131.521 Y86.581 E80.43876
G1 X132.502 Y87.559 E80.67201
G1 X133.454 Y88.563 E80.90498
G1 X134.05 Y89.255 E81.05875
G1 X134.584 Y89.997 E81.21268
G1 X135.052 Y90.783 E81.36671
G1 X135.448 Y91.607 E81.52065
G1 X135.771 Y92.462 E81.67454
G1 X136.019 Y93.342 E81.82849
G1 X136.188 Y94.24 E81.98235
G1 X136.278 Y95.15 E82.13632
G1 X136.289 Y96.064 E82.29023
G1 X136.222 Y96.95 E82.43984
G1 X135.882 Y99.831 E82.92831
G1 X135.659 Y102.342 E83.35277
G1 X135.508 Y104.856 E83.77684
G1 X135.426 Y107.41 E84.2071
G1 X135.418 Y109.934 E84.6321
G1 X135.48 Y112.483 E85.06142
G1 X135.613 Y114.997 E85.48532
G1 X135.82 Y117.525 E85.91241
G1 X136.093 Y120.014 E86.33402
M73 P6
G1 X136.484 Y122.818 E86.81072
G1 X136.57 Y123.728 E86.96463
G1 X136.577 Y124.642 E87.11853
G1 X136.504 Y125.553 E87.27242
G1 X136.351 Y126.454 E87.4263
G1 X136.12 Y127.339 E87.58031
G1 X135.813 Y128.2 E87.73422
G1 X135.432 Y129.031 E87.88815
G1 X134.98 Y129.825 E88.04199
G1 X134.46 Y130.577 E88.19594
G1 X133.905 Y131.248 E88.34256
G1 X133.169 Y132.054 E88.52634
G1 X132.545 Y132.692 E88.67661
G1 X131.88 Y133.354 E88.8346
G1 X131.132 Y134.064 E89.00825
G1 X130.092 Y135.005 E89.24441
G1 X128.634 Y136.245 E89.56669
G1 X127.525 Y137.125 E89.80507
G1 X126.917 Y137.585 E89.93344
G1 X126.326 Y138.014 E90.05641
