;FLAVOR:Marlin
M73 P0


; Pre-Processed for Cancel-Object support by preprocess_cancellation v0.2.0
; 1 known objects
EXCLUDE_OBJECT_DEFINE NAME=PlantClip_standard_3MF CENTER=109.901,110.891 POLYGON=[[82.46,77.627],[82.46,142.383],[137.538,142.383],[137.538,77.627]]
M117 Time Left 0h12m31s
;TIME:751
;Filament used: 0.49014m
;Layer height: 0.2
;MINX:81.262
;MINY:76.427
;MINZ:0.32
;MAXX:138.738
;MAXY:143.583
;MAXZ:4.12
;TARGET_MACHINE.NAME:Creality Ender-3
;POSTPROCESSED
;  [InsertAtLayerChange]
;  [MeshPrintSize]
;  [DisplayProgressOnLCD]
;  [DisplayFilenameAndLayerOnLCD]
;Generated with Cura_SteamEngine 5.6.0
M82 ;absolute extrusion mode
;Nozzle diameter = 0.4
;Filament type = PLA
;Filament name = Sakura Pink
START_PRINT PRINT_MIN=81.262,76.427 PRINT_MAX=138.738,143.583 BED_TEMP=65 EXTRUDER_TEMP=220.0
G92 E0
G92 E0
G1 F2700 E-5
;LAYER_COUNT:19
TIMELAPSE_TAKE_FRAME
;LAYER:0
M117 Printing PlantClip_standard - Layer 0 of 18
M107
G1 F300 Z0.52
G0 F6000 X84.384 Y80.652 Z0.52
;TYPE:SKIRT
G1 F300 Z0.32
G1 F2700 E0
G1 F600 X85.081 Y79.941 E0.07948
G1 X85.411 Y79.634 E0.11546
G1 X86.183 Y78.98 E0.19622
G1 X86.922 Y78.453 E0.26867
G1 X87.887 Y77.887 E0.35798
G1 X88.754 Y77.477 E0.43453
G1 X89.141 Y77.315 E0.46802
G1 X90.093 Y76.966 E0.54896
G1 X90.968 Y76.727 E0.62137
G1 X92.093 Y76.525 E0.7126
G1 X93.429 Y76.432 E0.81951
G1 X94.208 Y76.427 E0.88169
G1 X95.115 Y76.463 E0.95415
G1 X95.87 Y76.547 E1.01479
G1 X98.273 Y76.897 E1.20863
G1 X100.73 Y77.189 E1.40614
G1 X103.259 Y77.417 E1.60883
G1 X105.718 Y77.569 E1.8055
G1 X108.239 Y77.653 E2.00685
G1 X110.741 Y77.665 E2.20657
G1 X113.263 Y77.606 E2.40794
G1 X115.725 Y77.48 E2.60472
G1 X118.215 Y77.279 E2.80413
G1 X120.764 Y77.003 E3.0088
G1 X122.701 Y76.742 E3.16481
G1 X124.116 Y76.539 E3.27892
G1 X125.108 Y76.443 E3.35848
G1 X125.782 Y76.427 E3.41229
G1 X126.488 Y76.433 E3.46865
G1 X127.512 Y76.491 E3.55052
G1 X128.844 Y76.696 E3.6581
G1 X129.842 Y76.949 E3.74028
G1 X130.892 Y77.317 E3.8291
G1 X131.713 Y77.682 E3.90082
G1 X132.798 Y78.278 E3.99963
G1 X133.929 Y79.063 E4.10953
G1 X134.893 Y79.894 E4.21113
G1 X135.601 Y80.633 E4.29282
G1 X136.307 Y81.524 E4.38356
G1 X136.572 Y81.896 E4.42002
G1 X137.09 Y82.706 E4.49677
G1 X137.592 Y83.675 E4.58389
G1 X138.096 Y84.963 E4.69429
G1 X138.209 Y85.319 E4.72411
G1 X138.469 Y86.298 E4.80496
G1 X138.627 Y87.191 E4.87735
G1 X138.734 Y88.595 E4.98975
G1 X138.738 Y88.932 E5.01665
G1 X138.703 Y89.944 E5.09748
G1 X138.596 Y90.845 E5.16991
G1 X138.415 Y91.749 E5.2435
G1 X137.607 Y95.084 E5.51742
G1 X137.097 Y97.496 E5.71421
G1 X136.65 Y99.962 E5.91427
G1 X136.27 Y102.45 E6.11517
G1 X135.962 Y104.936 E6.31513
G1 X135.727 Y107.418 E6.51414
G1 X135.561 Y109.901 E6.71279
G1 X135.445 Y113.385 E6.99105
G1 X135.418 Y114.7 E7.09604
G1 X135.383 Y115.395 E7.15159
G1 X135.31 Y116.257 E7.22065
G1 X135.186 Y117.213 E7.2976
G1 X135.046 Y118.025 E7.36337
G1 X134.844 Y119.007 E7.4434
G1 X134.644 Y119.794 E7.50822
G1 X134.412 Y120.583 E7.57387
G1 X134.242 Y121.113 E7.6183
G1 X134.018 Y121.752 E7.67235
G1 X133.763 Y122.415 E7.72905
G1 X133.427 Y123.18 E7.79575
G1 X133 Y124.079 E7.87519
G1 X132.636 Y124.785 E7.9386
G1 X132.335 Y125.308 E7.98677
G1 X131.798 Y126.182 E8.06865
G1 X131.49 Y126.656 E8.11377
G1 X131.11 Y127.203 E8.16694
G1 X129.882 Y128.864 E8.33183
M73 P1
G1 X128.442 Y130.912 E8.53167
G1 X127.008 Y133.075 E8.73883
G1 X126.127 Y134.477 E8.87101
G1 X125.262 Y135.88 E9.00258
G1 X124.753 Y136.631 E9.075
G1 X124.265 Y137.247 E9.13773
G1 X123.892 Y137.687 E9.18377
G1 X123.13 Y138.497 E9.27254
G1 X122.748 Y138.864 E9.31483
G1 X122.053 Y139.478 E9.38886
G1 X121.715 Y139.752 E9.42359
G1 X121.191 Y140.149 E9.47607
G1 X120.458 Y140.649 E9.54689
G1 X119.713 Y141.103 E9.61653
G1 X119.007 Y141.487 E9.68069
G1 X118.231 Y141.863 E9.74952
G1 X117.905 Y142.007 E9.77797
G1 X117.112 Y142.325 E9.84617
G1 X116.199 Y142.638 E9.92321
G1 X115.451 Y142.854 E9.98536
G1 X114.59 Y143.068 E10.05618
G1 X113.47 Y143.314 E10.14771
G1 X112.465 Y143.485 E10.22909
G1 X111.35 Y143.571 E10.31836
G1 X110.59 Y143.583 E10.37903
G1 X109.576 Y143.57 E10.45998
G1 X108.901 Y143.542 E10.51391
G1 X107.815 Y143.454 E10.60088
G1 X107.22 Y143.386 E10.64869
G1 X106.397 Y143.259 E10.71516
G1 X105.567 Y143.099 E10.78263
G1 X104.532 Y142.846 E10.86769
G1 X103.599 Y142.568 E10.9454
G1 X102.279 Y142.083 E11.05765
G1 X101.661 Y141.809 E11.11162
G1 X100.894 Y141.432 E11.17984
G1 X100.446 Y141.189 E11.22052
G1 X99.692 Y140.745 E11.29037
G1 X99.162 Y140.397 E11.34098
G1 X98.465 Y139.893 E11.40964
G1 X98.21 Y139.696 E11.43536
G1 X97.543 Y139.134 E11.50498
G1 X96.784 Y138.417 E11.58833
G1 X96.532 Y138.159 E11.61712
G1 X95.956 Y137.525 E11.68549
G1 X95.774 Y137.308 E11.7081
G1 X95.154 Y136.497 E11.78959
G1 X94.89 Y136.116 E11.82659
G1 X94.552 Y135.603 E11.87563
G1 X93.1 Y133.251 E12.09627
G1 X91.744 Y131.189 E12.29327
G1 X90.271 Y129.083 E12.49842
G1 X88.773 Y127.031 E12.70122
G1 X88.435 Y126.546 E12.74841
G1 X88.093 Y126.016 E12.79876
G1 X87.62 Y125.234 E12.87171
G1 X87.285 Y124.646 E12.92573
G1 X87.013 Y124.123 E12.97279
G1 X86.759 Y123.601 E13.01913
G1 X86.52 Y123.081 E13.06481
G1 X86.232 Y122.39 E13.12457
G1 X85.987 Y121.76 E13.17853
G1 X85.74 Y121.076 E13.23658
G1 X85.424 Y120.067 E13.32098
G1 X85.22 Y119.306 E13.38387
G1 X85.104 Y118.805 E13.42492
G1 X84.909 Y117.826 E13.5046
G1 X84.796 Y117.14 E13.5601
G1 X84.708 Y116.474 E13.61373
G1 X84.634 Y115.657 E13.67921
G1 X84.586 Y114.688 E13.75666
G1 X84.553 Y113.095 E13.88384
G1 X84.462 Y110.501 E14.09103
G1 X84.378 Y108.978 E14.21279
G1 X84.179 Y106.451 E14.41513
G1 X83.909 Y103.926 E14.61784
G1 X83.568 Y101.415 E14.82012
G1 X83.171 Y98.996 E15.01579
G1 X82.697 Y96.558 E15.21405
G1 X82.138 Y94.057 E15.41862
G1 X81.618 Y91.958 E15.59123
G1 X81.422 Y90.968 E15.67179
M117 Time Left 0h12m16s
G1 X81.319 Y90.056 E15.74506
G1 X81.285 Y89.584 E15.78283
G1 X81.262 Y88.571 E15.86371
M73 P2
G1 X81.329 Y87.553 E15.94515
G1 X81.507 Y86.417 E16.03694
G1 X81.816 Y85.209 E16.13647
G1 X82.136 Y84.305 E16.21302
G1 X82.52 Y83.451 E16.28776
G1 X82.696 Y83.105 E16.31875
G1 X83.197 Y82.224 E16.39965
G1 X83.773 Y81.39 E16.48056
G1 X84.384 Y80.652 E16.55704
G0 F6000 X84.813 Y81.072
G1 F600 X85.49 Y80.38 E16.63432
G1 X85.8 Y80.091 E16.66815
G1 X86.531 Y79.469 E16.74476
G1 X87.27 Y78.942 E16.81722
G1 X88.144 Y78.429 E16.89811
G1 X88.986 Y78.03 E16.97249
G1 X89.349 Y77.878 E17.0039
G1 X90.251 Y77.545 E17.08066
G1 X91.126 Y77.306 E17.15306
G1 X92.135 Y77.124 E17.2349
G1 X93.471 Y77.031 E17.34181
G1 X94.184 Y77.027 E17.39872
G1 X95.091 Y77.063 E17.47118
G1 X95.783 Y77.141 E17.52677
G1 X98.19 Y77.492 E17.72094
G1 X100.676 Y77.787 E17.92077
G1 X103.205 Y78.015 E18.12347
G1 X105.696 Y78.169 E18.32269
G1 X108.219 Y78.253 E18.5242
G1 X110.752 Y78.265 E18.7264
G1 X113.277 Y78.206 E18.92801
G1 X115.769 Y78.078 E19.12719
G1 X118.28 Y77.876 E19.32828
G1 X120.829 Y77.6 E19.53294
G1 X122.781 Y77.337 E19.69016
G1 X124.175 Y77.136 E19.80259
G1 X125.123 Y77.043 E19.87863
G1 X125.778 Y77.027 E19.93093
G1 X126.456 Y77.032 E19.98505
G1 X127.422 Y77.084 E20.06227
G1 X128.697 Y77.278 E20.16522
G1 X129.695 Y77.531 E20.2474
G1 X130.648 Y77.865 E20.32801
G1 X131.469 Y78.23 E20.39973
G1 X132.456 Y78.771 E20.48958
G1 X133.587 Y79.556 E20.59948
G1 X134.461 Y80.31 E20.69162
G1 X135.131 Y81.006 E20.76873
G1 X135.837 Y81.897 E20.85948
G1 X136.067 Y82.221 E20.89119
G1 X136.558 Y82.984 E20.96362
G1 X137.033 Y83.894 E21.04556
G1 X137.537 Y85.182 E21.15597
G1 X137.629 Y85.474 E21.18041
G1 X137.878 Y86.403 E21.25718
G1 X138.036 Y87.296 E21.32957
G1 X138.134 Y88.603 E21.43419
G1 X138.138 Y88.913 E21.45894
G1 X138.107 Y89.873 E21.53561
G1 X138 Y90.774 E21.60804
G1 X137.832 Y91.608 E21.67595
G1 X137.024 Y94.943 E21.94987
G1 X136.51 Y97.372 E22.14805
G1 X136.057 Y99.871 E22.35078
G1 X135.677 Y102.359 E22.55169
G1 X135.367 Y104.862 E22.75302
G1 X135.128 Y107.378 E22.95476
G1 X134.962 Y109.861 E23.15341
G1 X134.845 Y113.365 E23.43327
G1 X134.819 Y114.67 E23.53746
G1 X134.785 Y115.345 E23.59141
G1 X134.715 Y116.18 E23.65829
G1 X134.595 Y117.111 E23.73323
G1 X134.458 Y117.904 E23.79746
G1 X134.262 Y118.86 E23.87536
G1 X134.068 Y119.625 E23.93836
G1 X133.84 Y120.401 E24.00292
G1 X133.676 Y120.915 E24.04599
G1 X133.458 Y121.537 E24.0986
G1 X133.213 Y122.174 E24.15308
G1 X132.885 Y122.923 E24.21835
G1 X132.467 Y123.804 E24.29619
G1 X132.116 Y124.486 E24.35742
G1 X131.824 Y124.994 E24.40419
G1 X131.295 Y125.855 E24.48486
G1 X130.997 Y126.314 E24.52854
M73 P3
G1 X130.628 Y126.846 E24.58022
G1 X129.391 Y128.519 E24.74631
G1 X127.951 Y130.567 E24.94616
G1 X126.508 Y132.744 E25.15464
G1 X125.616 Y134.162 E25.28837
G1 X124.765 Y135.543 E25.41785
G1 X124.256 Y136.294 E25.49027
G1 X123.807 Y136.859 E25.54788
G1 X123.434 Y137.299 E25.59392
G1 X122.714 Y138.065 E25.67784
G1 X122.35 Y138.415 E25.71815
G1 X121.675 Y139.012 E25.79008
G1 X121.352 Y139.274 E25.82328
G1 X120.853 Y139.653 E25.8733
G1 X120.12 Y140.153 E25.94413
G1 X119.426 Y140.576 E26.009
G1 X118.745 Y140.947 E26.07091
G1 X117.989 Y141.314 E26.13799
G1 X117.681 Y141.45 E26.16487
G1 X116.917 Y141.757 E26.23059
G1 X116.004 Y142.07 E26.30764
G1 X115.306 Y142.272 E26.36564
G1 X114.461 Y142.482 E26.43514
G1 X113.368 Y142.723 E26.52449
G1 X112.418 Y142.887 E26.60144
G1 X111.34 Y142.971 E26.68775
G1 X110.597 Y142.983 E26.74707
G1 X109.601 Y142.971 E26.82658
G1 X108.949 Y142.944 E26.87867
G1 X107.883 Y142.858 E26.96404
G1 X107.311 Y142.793 E27.00999
G1 X106.51 Y142.67 E27.07468
G1 X105.709 Y142.516 E27.13979
G1 X104.703 Y142.271 E27.22244
G1 X103.806 Y142.005 E27.29713
G1 X102.522 Y141.534 E27.4063
G1 X101.925 Y141.27 E27.45841
G1 X101.179 Y140.904 E27.52474
G1 X100.75 Y140.672 E27.56367
G1 X100.021 Y140.243 E27.63119
G1 X99.491 Y139.895 E27.6818
G1 X98.832 Y139.419 E27.74669
G1 X98.597 Y139.237 E27.77042
G1 X97.93 Y138.675 E27.84004
G1 X97.213 Y137.997 E27.91881
G1 X96.976 Y137.755 E27.94585
G1 X96.416 Y137.139 E28.0123
G1 X96.234 Y136.922 E28.03491
G1 X95.647 Y136.154 E28.11207
G1 X95.391 Y135.786 E28.14786
G1 X95.063 Y135.288 E28.19546
G1 X93.611 Y132.936 E28.4161
G1 X92.236 Y130.845 E28.61587
G1 X90.763 Y128.739 E28.82101
G1 X89.265 Y126.688 E29.02375
G1 X88.939 Y126.221 E29.06922
G1 X88.606 Y125.705 E29.11824
G1 X88.141 Y124.937 E29.1899
G1 X87.817 Y124.368 E29.24217
G1 X87.552 Y123.86 E29.28791
G1 X87.304 Y123.351 E29.3331
G1 X87.074 Y122.85 E29.37711
G1 X86.791 Y122.172 E29.43576
G1 X86.551 Y121.556 E29.48853
G1 X86.312 Y120.896 E29.54456
G1 X86.003 Y119.911 E29.62696
G1 X85.804 Y119.17 E29.68821
G1 X85.692 Y118.688 E29.72771
G1 X85.501 Y117.729 E29.80577
G1 X85.391 Y117.061 E29.85981
G1 X85.306 Y116.42 E29.91142
G1 X85.232 Y115.603 E29.97691
G1 X85.186 Y114.676 E30.05099
G1 X85.153 Y113.083 E30.17818
G1 X85.062 Y110.48 E30.38609
G1 X84.977 Y108.945 E30.50881
G1 X84.776 Y106.387 E30.71363
G1 X84.506 Y103.862 E30.91633
G1 X84.163 Y101.334 E31.11998
M117 Time Left 0h12m01s
G1 X83.763 Y98.899 E31.31696
G1 X83.283 Y96.427 E31.51797
G1 X82.724 Y93.926 E31.72253
G1 X82.206 Y91.84 E31.8941
G1 X82.018 Y90.9 E31.97063
M73 P4
G1 X81.917 Y90.013 E32.04189
G1 X81.885 Y89.569 E32.07742
G1 X81.861 Y88.609 E32.15408
G1 X81.922 Y87.646 E32.2311
G1 X82.1 Y86.51 E32.32289
G1 X82.382 Y85.409 E32.41361
G1 X82.702 Y84.505 E32.49016
G1 X83.067 Y83.698 E32.56086
G1 X83.218 Y83.4 E32.58753
G1 X83.691 Y82.564 E32.6642
G1 X84.236 Y81.772 E32.74095
G1 X84.813 Y81.072 E32.81336
G0 F6000 X85.276 Y81.454
G1 F600 X85.9 Y80.818 E32.88448
G1 X86.19 Y80.547 E32.91617
G1 X86.879 Y79.958 E32.98852
G1 X87.618 Y79.431 E33.06098
G1 X88.401 Y78.971 E33.13347
G1 X89.219 Y78.583 E33.20573
G1 X89.558 Y78.44 E33.2351
G1 X90.409 Y78.124 E33.30757
G1 X91.284 Y77.885 E33.37997
G1 X92.177 Y77.723 E33.45242
G1 X93.513 Y77.63 E33.55932
G1 X94.16 Y77.627 E33.61097
G1 X95.067 Y77.663 E33.68343
G1 X95.696 Y77.735 E33.73396
G1 X98.107 Y78.087 E33.92846
G1 X100.622 Y78.385 E34.13062
G1 X103.151 Y78.613 E34.33332
G1 X105.674 Y78.769 E34.5351
G1 X108.199 Y78.853 E34.73677
G1 X110.763 Y78.865 E34.94144
G1 X113.291 Y78.806 E35.14329
G1 X115.813 Y78.676 E35.34487
G1 X118.345 Y78.473 E35.54764
G1 X120.894 Y78.197 E35.7523
G1 X122.861 Y77.932 E35.91073
G1 X124.235 Y77.733 E36.02155
G1 X125.138 Y77.643 E36.09399
G1 X125.774 Y77.627 E36.14478
G1 X126.426 Y77.631 E36.19682
G1 X127.333 Y77.677 E36.26932
G1 X128.55 Y77.86 E36.36756
G1 X129.548 Y78.113 E36.44974
G1 X130.404 Y78.413 E36.52215
G1 X131.225 Y78.778 E36.59387
G1 X132.114 Y79.264 E36.67474
G1 X133.245 Y80.049 E36.78464
G1 X134.03 Y80.727 E36.86744
G1 X134.661 Y81.379 E36.93986
G1 X135.367 Y82.27 E37.03061
G1 X135.562 Y82.546 E37.05758
G1 X136.053 Y83.309 E37.13001
G1 X136.474 Y84.113 E37.20246
G1 X136.965 Y85.364 E37.30973
G1 X137.05 Y85.631 E37.3321
G1 X137.287 Y86.508 E37.40462
G1 X137.445 Y87.401 E37.47701
G1 X137.534 Y88.611 E37.57386
G1 X137.538 Y88.895 E37.59653
G1 X137.511 Y89.802 E37.66896
G1 X137.404 Y90.703 E37.74139
G1 X137.249 Y91.467 E37.80362
G1 X136.441 Y94.802 E38.07753
G1 X135.923 Y97.248 E38.27711
G1 X135.464 Y99.78 E38.48252
G1 X135.084 Y102.268 E38.68343
G1 X134.772 Y104.788 E38.88612
G1 X134.529 Y107.338 E39.0906
G1 X134.363 Y109.821 E39.28924
G1 X134.245 Y113.345 E39.5707
G1 X134.22 Y114.64 E39.67409
G1 X134.187 Y115.295 E39.72644
G1 X134.12 Y116.104 E39.79124
G1 X134.004 Y117.009 E39.86407
G1 X133.87 Y117.784 E39.92686
G1 X133.68 Y118.713 E40.00255
G1 X133.492 Y119.456 E40.06373
G1 X133.269 Y120.218 E40.1271
G1 X133.109 Y120.717 E40.16893
G1 X132.898 Y121.322 E40.22008
G1 X132.663 Y121.934 E40.27241
G1 X132.343 Y122.666 E40.33618
G1 X131.933 Y123.53 E40.41252
G1 X131.595 Y124.188 E40.47157
M73 P5
G1 X131.313 Y124.68 E40.51684
G1 X130.792 Y125.528 E40.59628
G1 X130.504 Y125.972 E40.63853
G1 X130.146 Y126.489 E40.68873
G1 X128.9 Y128.174 E40.85601
G1 X127.46 Y130.222 E41.05586
G1 X126.008 Y132.412 E41.2656
G1 X125.108 Y133.842 E41.40048
G1 X124.268 Y135.206 E41.52835
G1 X123.759 Y135.957 E41.60077
G1 X123.35 Y136.471 E41.6532
G1 X122.996 Y136.888 E41.69687
G1 X122.297 Y137.633 E41.77841
G1 X121.952 Y137.966 E41.81669
G1 X121.277 Y138.563 E41.88862
G1 X120.989 Y138.796 E41.91819
G1 X120.49 Y139.175 E41.96821
G1 X119.808 Y139.641 E42.03415
G1 X119.139 Y140.049 E42.0967
G1 X118.483 Y140.407 E42.15635
G1 X117.746 Y140.765 E42.22176
G1 X117.457 Y140.893 E42.24699
G1 X116.693 Y141.2 E42.31271
G1 X115.837 Y141.494 E42.38496
G1 X115.161 Y141.69 E42.44114
G1 X114.331 Y141.896 E42.50941
G1 X113.264 Y142.132 E42.59664
G1 X112.371 Y142.289 E42.66901
G1 X111.33 Y142.371 E42.75237
G1 X110.604 Y142.383 E42.81033
G1 X109.626 Y142.372 E42.8884
G1 X108.997 Y142.346 E42.93865
G1 X107.95 Y142.262 E43.0225
G1 X107.402 Y142.2 E43.06652
G1 X106.623 Y142.081 E43.12943
G1 X105.85 Y141.933 E43.19225
G1 X104.873 Y141.696 E43.2725
G1 X104.012 Y141.442 E43.34416
G1 X102.764 Y140.985 E43.45025
G1 X102.189 Y140.731 E43.50043
G1 X101.464 Y140.376 E43.56486
G1 X101.054 Y140.155 E43.60204
G1 X100.35 Y139.741 E43.66724
G1 X99.842 Y139.408 E43.71572
G1 X99.199 Y138.944 E43.77902
G1 X98.984 Y138.778 E43.8007
G1 X98.317 Y138.216 E43.87032
G1 X97.641 Y137.577 E43.94458
G1 X97.42 Y137.352 E43.96975
G1 X96.876 Y136.753 E44.03434
G1 X96.694 Y136.536 E44.05695
G1 X96.139 Y135.811 E44.12983
G1 X95.892 Y135.457 E44.16429
G1 X95.574 Y134.973 E44.21052
G1 X94.122 Y132.621 E44.43116
G1 X92.728 Y130.501 E44.6337
G1 X91.255 Y128.395 E44.83884
G1 X89.757 Y126.344 E45.04158
G1 X89.443 Y125.895 E45.08532
G1 X89.119 Y125.394 E45.13295
G1 X88.662 Y124.639 E45.20339
G1 X88.349 Y124.091 E45.25377
G1 X88.091 Y123.596 E45.29833
G1 X87.849 Y123.101 E45.34231
G1 X87.628 Y122.619 E45.38464
G1 X87.35 Y121.954 E45.44217
G1 X87.115 Y121.352 E45.49376
G1 X86.882 Y120.709 E45.54835
G1 X86.732 Y120.252 E45.58674
G1 X86.582 Y119.755 E45.62819
G1 X86.388 Y119.034 E45.68779
G1 X86.28 Y118.571 E45.72574
G1 X86.093 Y117.631 E45.80224
G1 X85.986 Y116.982 E45.85475
G1 X85.904 Y116.366 E45.90435
G1 X85.83 Y115.549 E45.96984
G1 X85.786 Y114.664 E46.04057
M117 Time Left 0h11m46s
G1 X85.753 Y113.071 E46.16775
G1 X85.662 Y110.459 E46.37638
G1 X85.576 Y108.912 E46.50006
G1 X85.373 Y106.323 E46.70736
