;FLAVOR:Marlin
M73 P0


; Pre-Processed for Cancel-Object support by preprocess_cancellation v0.2.0
; 5 known objects
EXCLUDE_OBJECT_DEFINE NAME=pin_stl_4 CENTER=110.165,91.213 POLYGON=[[91.959,87.535],[91.959,94.925],[126.179,94.925],[126.179,87.535]]
EXCLUDE_OBJECT_DEFINE NAME=pin_stl_2 CENTER=109.091,100.601 POLYGON=[[93.293,96.887],[93.293,104.276],[127.525,104.276],[127.525,96.887]]
EXCLUDE_OBJECT_DEFINE NAME=pin_stl CENTER=111.381,110.049 POLYGON=[[93.002,106.308],[93.002,113.698],[127.228,113.698],[127.228,106.308]]
EXCLUDE_OBJECT_DEFINE NAME=pin_stl_1 CENTER=109.319,119.495 POLYGON=[[93.31,115.718],[93.31,123.107],[127.542,123.107],[127.542,115.718]]
EXCLUDE_OBJECT_DEFINE NAME=pin_stl_3 CENTER=109.451,122.305 POLYGON=[[81.031,76.802],[81.031,143.204],[138.476,143.204],[138.476,76.802]]
M117 Time Left 0h05m19s
;TIME:319
;Filament used: 0.381347m
;Layer height: 0.3
;MINX:79.231
;MINY:75.002
;MINZ:0.42
;MAXX:140.275
;MAXY:145.004
;MAXZ:1.22
;TARGET_MACHINE.NAME:Creality Ender-3
;POSTPROCESSED
;  [InsertAtLayerChange]
;  [MeshPrintSize]
;  [DisplayProgressOnLCD]
;  [DisplayFilenameAndLayerOnLCD]
;Generated with Cura_SteamEngine 5.6.0
M82 ;absolute extrusion mode
;Nozzle diameter = 0.6
;Filament type = PLA
;Filament name = Purple/Pink
START_PRINT PRINT_MIN=79.231,75.002 PRINT_MAX=140.275,145.004 BED_TEMP=65 EXTRUDER_TEMP=200.0
G92 E0
G92 E0
G1 F2700 E-5
;LAYER_COUNT:3
TIMELAPSE_TAKE_FRAME
;LAYER:0
M117 Printing pin - Layer 0 of 2
M107
G1 F300 Z0.62
G0 F6000 X83.014 Y81.558 Z0.62
;TYPE:SKIRT
G1 F300 Z0.42
G1 F2700 E0
G1 F600 X83.6 Y80.968 E0.13068
G1 X83.893 Y80.695 E0.19362
G1 X84.701 Y80.008 E0.36029
G1 X85.429 Y79.481 E0.50153
G1 X85.77 Y79.256 E0.56574
G1 X86.616 Y78.748 E0.72082
G1 X87.496 Y78.308 E0.87544
G1 X87.8 Y78.172 E0.92777
G1 X88.793 Y77.782 E1.09543
G1 X89.704 Y77.505 E1.24507
G1 X90.3 Y77.353 E1.34173
G1 X91.276 Y77.153 E1.4983
G1 X92.422 Y77.02 E1.67961
G1 X93.504 Y76.947 E1.85004
G1 X95.973 Y76.746 E2.23934
G1 X98.47 Y76.472 E2.6341
G1 X100.895 Y76.135 E3.01887
G1 X103.416 Y75.712 E3.42059
G1 X105.825 Y75.242 E3.80631
G1 X107.108 Y75.064 E4.00987
G1 X107.536 Y75.031 E4.07733
G1 X108.833 Y75.002 E4.28121
G1 X109.717 Y75.034 E4.42023
G1 X126.161 Y75.948 E7.00846
G1 X126.862 Y75.998 E7.11891
M73 P1
G1 X127.99 Y76.136 E7.2975
G1 X129.309 Y76.43 E7.50987
G1 X129.605 Y76.514 E7.55822
G1 X130.697 Y76.883 E7.73937
G1 X131.676 Y77.312 E7.90735
G1 X132.548 Y77.788 E8.06347
G1 X133.507 Y78.425 E8.2444
G1 X134.283 Y79.044 E8.4004
G1 X135.116 Y79.836 E8.58103
G1 X135.722 Y80.52 E8.72465
G1 X136.366 Y81.377 E8.89312
G1 X136.603 Y81.726 E8.95941
G1 X137.121 Y82.572 E9.11531
G1 X137.568 Y83.453 E9.27056
G1 X138.023 Y84.6 E9.46448
G1 X138.323 Y85.626 E9.63248
G1 X138.531 Y86.656 E9.79761
G1 X138.623 Y87.385 E9.91309
G1 X138.696 Y88.154 E10.03448
G1 X138.814 Y89.601 E10.26264
G1 X139.093 Y92.152 E10.66593
G1 X139.419 Y94.503 E11.03893
G1 X139.858 Y97.066 E11.44759
G1 X139.88 Y97.238 E11.47484
G1 X140.084 Y98.396 E11.65962
G1 X140.216 Y99.421 E11.82204
G1 X140.262 Y100.557 E12.00071
G1 X140.228 Y101.414 E12.1355
G1 X140.096 Y103.151 E12.40926
G1 X139.934 Y105.77 E12.82163
G1 X139.854 Y108.177 E13.20011
G1 X139.841 Y110.687 E13.59457
M73 P2
G1 X139.896 Y113.143 E13.98064
G1 X140.028 Y115.681 E14.38004
G1 X140.239 Y118.354 E14.80142
G1 X140.275 Y119.369 E14.96103
G1 X140.255 Y120 E15.06024
G1 X140.216 Y120.609 E15.15615
G1 X140.068 Y121.85 E15.35256
G1 X139.565 Y124.701 E15.80752
G1 X139.217 Y127.056 E16.18164
G1 X138.921 Y129.548 E16.57602
G1 X138.842 Y130.509 E16.72756
G1 X138.627 Y132.675 E17.06962
G1 X138.476 Y133.733 E17.23758
G1 X138.214 Y134.851 E17.41804
G1 X137.931 Y135.72 E17.56166
G1 X137.483 Y136.78 E17.74251
G1 X136.937 Y137.795 E17.92364
G1 X136.336 Y138.704 E18.09489
G1 X135.613 Y139.604 E18.27632
G1 X135.328 Y139.923 E18.34354
G1 X134.547 Y140.712 E18.51801
G1 X133.852 Y141.306 E18.66169
G1 X132.85 Y142.022 E18.85523
G1 X131.924 Y142.56 E19.02353
G1 X131.019 Y142.988 E19.18086
G1 X129.814 Y143.428 E19.38246
G1 X129.486 Y143.526 E19.43626
G1 X128.51 Y143.772 E19.59444
G1 X127.136 Y143.981 E19.81285
G1 X126.46 Y144.037 E19.91945
G1 X109.567 Y144.974 E22.57834
G1 X108.825 Y145.004 E22.69504
G1 X107.834 Y144.999 E22.85078
M73 P3
G1 X106.78 Y144.906 E23.01707
G1 X106.092 Y144.795 E23.12659
G1 X103.106 Y144.228 E23.60424
G1 X100.674 Y143.827 E23.99159
G1 X98.161 Y143.485 E24.39016
G1 X95.701 Y143.22 E24.779
G1 X92.454 Y142.961 E25.2909
G1 X91.669 Y142.876 E25.41499
G1 X90.684 Y142.723 E25.57164
G1 X89.491 Y142.427 E25.76481
G1 X89.124 Y142.315 E25.82511
G1 X88.088 Y141.941 E25.99821
G1 X87.373 Y141.619 E26.12144
G1 X86.957 Y141.411 E26.19453
G1 X86.033 Y140.894 E26.36093
G1 X85.343 Y140.435 E26.49117
G1 X85.005 Y140.191 E26.55668
G1 X84.142 Y139.503 E26.73013
G1 X83.514 Y138.916 E26.86522
G1 X83.148 Y138.546 E26.94701
G1 X82.534 Y137.869 E27.09064
G1 X81.882 Y137.019 E27.259
G1 X81.327 Y136.154 E27.42051
G1 X81.051 Y135.674 E27.50752
G1 X80.595 Y134.793 E27.66342
G1 X80.189 Y133.822 E27.82882
G1 X80.049 Y133.434 E27.89365
G1 X79.754 Y132.493 E28.04863
G1 X79.549 Y131.605 E28.19185
G1 X79.453 Y131.094 E28.27356
G1 X79.306 Y130.03 E28.44236
G1 X79.254 Y128.977 E28.60804
M73 P4
G1 X79.272 Y128.225 E28.72626
G1 X79.31 Y127.597 E28.82513
G1 X79.391 Y126.782 E28.95384
G1 X79.55 Y125.589 E29.14299
G1 X79.859 Y122.984 E29.55524
G1 X80.081 Y120.54 E29.94091
G1 X80.231 Y118.085 E30.32744
G1 X80.314 Y115.594 E30.71913
G1 X80.327 Y113.124 E31.10731
G1 X80.265 Y110.379 E31.5388
G1 X80.265 Y109.791 E31.63121
G1 X80.313 Y107.916 E31.92597
G1 X80.325 Y105.431 E32.3165
G1 X80.266 Y102.912 E32.71248
G1 X80.139 Y100.448 E33.10023
G1 X79.943 Y98.008 E33.48492
G1 X79.665 Y95.456 E33.88835
G1 X79.331 Y93.009 E34.27647
G1 X79.231 Y91.841 E34.4607
G1 X79.244 Y90.584 E34.65825
G1 X79.282 Y90.001 E34.75006
G1 X79.39 Y89.017 E34.90563
M117 Time Left 0h05m04s
G1 X79.578 Y88.042 E35.06168
G1 X79.867 Y87.009 E35.23025
G1 X80.012 Y86.573 E35.30246
G1 X80.408 Y85.544 E35.47574
G1 X80.765 Y84.798 E35.60571
G1 X80.989 Y84.376 E35.68079
G1 X81.49 Y83.524 E35.83612
G1 X82.052 Y82.723 E35.98989
G1 X82.329 Y82.365 E36.06103
M73 P5
G1 X83.014 Y81.558 E36.22738
G0 F6000 X83.653 Y82.192
G1 F600 X84.215 Y81.625 E36.35284
G1 X84.478 Y81.379 E36.40943
G1 X85.229 Y80.737 E36.5647
G1 X85.927 Y80.231 E36.70019
G1 X86.236 Y80.026 E36.75846
G1 X87.018 Y79.553 E36.90209
G1 X87.864 Y79.13 E37.05074
G1 X88.168 Y78.994 E37.10307
G1 X89.055 Y78.643 E37.25299
G1 X89.966 Y78.366 E37.40263
G1 X90.481 Y78.235 E37.48614
G1 X91.457 Y78.035 E37.64271
G1 X92.483 Y77.918 E37.80499
G1 X93.565 Y77.845 E37.97542
G1 X96.072 Y77.641 E38.37071
G1 X98.568 Y77.367 E38.76532
G1 X101.044 Y77.023 E39.15817
G1 X103.565 Y76.6 E39.5599
G1 X105.95 Y76.133 E39.94183
G1 X107.18 Y75.961 E40.13701
G1 X107.556 Y75.931 E40.19629
G1 X108.853 Y75.902 E40.40016
G1 X109.667 Y75.933 E40.52818
G1 X126.098 Y76.846 E43.11436
G1 X126.756 Y76.892 E43.21802
G1 X127.795 Y77.015 E43.38245
G1 X129.063 Y77.296 E43.58655
G1 X129.359 Y77.38 E43.63491
G1 X130.338 Y77.708 E43.79717
G1 X131.248 Y78.104 E43.95313
G1 X132.052 Y78.539 E44.09679
M73 P6
G1 X132.946 Y79.129 E44.26512
G1 X133.722 Y79.748 E44.42112
G1 X134.442 Y80.433 E44.5773
G1 X135.048 Y81.117 E44.72091
G1 X135.645 Y81.916 E44.87766
G1 X135.835 Y82.196 E44.93084
G1 X136.353 Y83.042 E45.08673
G1 X136.764 Y83.858 E45.23032
G1 X137.16 Y84.855 E45.39891
G1 X137.441 Y85.806 E45.55475
G1 X137.638 Y86.769 E45.70922
G1 X137.727 Y87.47 E45.82027
G1 X137.799 Y88.227 E45.93977
G1 X137.919 Y89.699 E46.17187
G1 X138.199 Y92.25 E46.57518
G1 X138.532 Y94.655 E46.95674
G1 X138.965 Y97.178 E47.35904
G1 X138.989 Y97.369 E47.38929
G1 X139.191 Y98.511 E47.57155
G1 X139.323 Y99.536 E47.73396
G1 X139.363 Y100.522 E47.88904
G1 X139.331 Y101.346 E48.01863
G1 X139.199 Y103.083 E48.2924
G1 X139.036 Y105.714 E48.70666
G1 X138.954 Y108.172 E49.09316
G1 X138.941 Y110.707 E49.49155
G1 X138.997 Y113.19 E49.88187
G1 X139.129 Y115.728 E50.28126
G1 X139.34 Y118.387 E50.70045
G1 X139.375 Y119.34 E50.85032
G1 X139.355 Y119.971 E50.94953
G1 X139.322 Y120.502 E51.03314
M73 P7
G1 X139.174 Y121.743 E51.22955
G1 X138.679 Y124.544 E51.67656
G1 X138.323 Y126.95 E52.05879
G1 X138.027 Y129.442 E52.45317
G1 X137.946 Y130.42 E52.6074
G1 X137.731 Y132.586 E52.94947
G1 X137.585 Y133.605 E53.11124
G1 X137.358 Y134.572 E53.26734
G1 X137.075 Y135.441 E53.41097
G1 X136.689 Y136.356 E53.56703
G1 X136.185 Y137.301 E53.73535
G1 X135.634 Y138.14 E53.89309
G1 X134.911 Y139.04 E54.07451
G1 X134.686 Y139.292 E54.12761
G1 X133.962 Y140.028 E54.28985
G1 X133.267 Y140.622 E54.43353
G1 X132.395 Y141.245 E54.60195
G1 X131.539 Y141.746 E54.75782
G1 X130.634 Y142.174 E54.91515
G1 X129.554 Y142.566 E55.09571
G1 X129.266 Y142.653 E55.14299
G1 X128.29 Y142.899 E55.30117
G1 X127.062 Y143.084 E55.49633
G1 X126.41 Y143.138 E55.59915
G1 X109.53 Y144.075 E58.256
G1 X108.827 Y144.104 E58.36657
G1 X107.913 Y144.102 E58.51021
G1 X106.859 Y144.009 E58.67649
G1 X106.26 Y143.911 E58.77188
G1 X103.253 Y143.34 E59.25289
G1 X100.805 Y142.936 E59.6428
G1 X98.271 Y142.592 E60.04468
G1 X95.794 Y142.325 E60.43621
M73 P8
G1 X92.55 Y142.066 E60.94764
G1 X91.804 Y141.986 E61.06555
G1 X90.9 Y141.849 E61.20924
G1 X89.754 Y141.566 E61.39475
G1 X89.387 Y141.454 E61.45505
G1 X88.458 Y141.12 E61.61019
G1 X87.743 Y140.798 E61.73343
G1 X87.394 Y140.624 E61.79471
G1 X86.531 Y140.144 E61.94991
G1 X85.87 Y139.705 E62.07461
G1 X85.532 Y139.461 E62.14012
G1 X84.757 Y138.846 E62.2956
G1 X84.129 Y138.259 E62.4307
G1 X83.815 Y137.941 E62.50093
G1 X83.201 Y137.264 E62.64456
G1 X82.598 Y136.473 E62.80087
G1 X82.086 Y135.67 E62.95054
G1 X81.85 Y135.26 E63.02488
G1 X81.394 Y134.379 E63.18078
G1 X81.035 Y133.514 E63.32796
G1 X80.907 Y133.162 E63.38682
G1 X80.631 Y132.291 E63.53041
G1 X80.426 Y131.403 E63.67364
G1 X80.344 Y130.968 E63.7432
G1 X80.205 Y129.983 E63.89953
G1 X80.154 Y128.999 E64.05438
G1 X80.172 Y128.247 E64.17259
G1 X80.206 Y127.685 E64.26108
G1 X80.283 Y126.901 E64.38488
G1 X80.442 Y125.708 E64.57402
G1 X80.753 Y123.09 E64.98834
G1 X80.977 Y120.621 E65.37795
M73 P9
G1 X81.131 Y118.115 E65.77252
G1 X81.214 Y115.624 E66.16421
G1 X81.227 Y113.104 E66.56024
G1 X81.165 Y110.359 E66.99174
G1 X81.165 Y109.814 E67.07739
G1 X81.213 Y107.939 E67.37215
G1 X81.225 Y105.41 E67.7696
G1 X81.166 Y102.891 E68.16558
G1 X81.038 Y100.402 E68.55725
G1 X80.838 Y97.911 E68.94998
G1 X80.56 Y95.359 E69.35341
G1 X80.223 Y92.887 E69.74549
M117 Time Left 0h04m49s
G1 X80.131 Y91.849 E69.90926
G1 X80.142 Y90.642 E70.09895
G1 X80.177 Y90.096 E70.18493
G1 X80.274 Y89.187 E70.3286
G1 X80.462 Y88.212 E70.48464
G1 X80.722 Y87.291 E70.63504
G1 X80.853 Y86.894 E70.70074
G1 X81.22 Y85.933 E70.8624
G1 X81.577 Y85.187 E70.99237
G1 X81.766 Y84.83 E71.05585
G1 X82.227 Y84.041 E71.19946
G1 X82.789 Y83.24 E71.35324
G1 X83.016 Y82.946 E71.41161
G1 X83.653 Y82.192 E71.56673
G0 F6000 X84.293 Y82.825
G1 F600 X84.831 Y82.281 E71.68697
G1 X85.065 Y82.061 E71.73744
G1 X85.758 Y81.465 E71.88109
G1 X86.426 Y80.98 E72.01082
M73 P10
G1 X86.702 Y80.796 E72.06295
G1 X87.484 Y80.323 E72.20657
G1 X88.232 Y79.952 E72.33779
G1 X88.536 Y79.816 E72.39013
G1 X89.386 Y79.48 E72.53377
G1 X90.225 Y79.228 E72.67144
G1 X90.665 Y79.116 E72.74279
G1 X91.56 Y78.929 E72.88648
G1 X92.544 Y78.816 E73.04214
G1 X93.626 Y78.743 E73.21256
G1 X96.171 Y78.536 E73.61384
G1 X98.667 Y78.261 E74.00847
G1 X101.193 Y77.911 E74.40924
G1 X103.714 Y77.488 E74.81096
G1 X106.123 Y77.016 E75.19674
G1 X107.255 Y76.858 E75.37637
G1 X107.576 Y76.831 E75.42699
G1 X108.873 Y76.802 E75.63087
G1 X109.617 Y76.832 E75.74789
G1 X126.035 Y77.744 E78.33202
G1 X126.693 Y77.79 E78.43568
G1 X127.601 Y77.894 E78.57931
G1 X128.817 Y78.162 E78.775
G1 X129.113 Y78.246 E78.82335
G1 X129.981 Y78.534 E78.96707
G1 X130.82 Y78.896 E79.11068
G1 X131.624 Y79.331 E79.25434
G1 X132.387 Y79.834 E79.39796
G1 X133.104 Y80.402 E79.54171
G1 X133.768 Y81.03 E79.68534
G1 X134.374 Y81.714 E79.82895
G1 X134.901 Y82.422 E79.96765
G1 X135.069 Y82.669 E80.0146
M73 P11
G1 X135.549 Y83.447 E80.15826
G1 X135.96 Y84.263 E80.30185
G1 X136.298 Y85.113 E80.4456
G1 X136.56 Y85.988 E80.58915
G1 X136.745 Y86.883 E80.73277
G1 X136.831 Y87.555 E80.83924
G1 X136.902 Y88.3 E80.95685
G1 X137.024 Y89.797 E81.19289
G1 X137.304 Y92.348 E81.5962
G1 X137.645 Y94.807 E81.98634
G1 X138.072 Y97.291 E82.38244
G1 X138.098 Y97.497 E82.41507
G1 X138.305 Y98.668 E82.60195
G1 X138.424 Y99.575 E82.74571
G1 X138.464 Y100.488 E82.88933
G1 X138.434 Y101.278 E83.01357
G1 X138.302 Y103.015 E83.28733
G1 X138.138 Y105.658 E83.70349
G1 X138.054 Y108.167 E84.09801
G1 X138.041 Y110.727 E84.50033
G1 X138.098 Y113.237 E84.89489
G1 X138.23 Y115.775 E85.29428
G1 X138.443 Y118.458 E85.71725
G1 X138.476 Y119.372 E85.86099
G1 X138.457 Y119.917 E85.94669
G1 X138.428 Y120.397 E86.02226
G1 X138.288 Y121.586 E86.21041
G1 X137.793 Y124.387 E86.65742
G1 X137.429 Y126.844 E87.04776
G1 X137.133 Y129.336 E87.44214
G1 X137.05 Y130.331 E87.59905
G1 X136.835 Y132.497 E87.94112
M73 P12
G1 X136.708 Y133.402 E88.08474
G1 X136.502 Y134.293 E88.22846
G1 X136.219 Y135.162 E88.37208
G1 X135.861 Y136.003 E88.51573
G1 X135.431 Y136.81 E88.65943
G1 X134.932 Y137.576 E88.8031
G1 X134.209 Y138.476 E88.98452
G1 X134.016 Y138.691 E89.02993
G1 X133.377 Y139.344 E89.17351
G1 X132.682 Y139.938 E89.31719
G1 X131.938 Y140.47 E89.46093
G1 X131.151 Y140.934 E89.6045
G1 X130.326 Y141.328 E89.74818
G1 X129.291 Y141.705 E89.92129
G1 X129.042 Y141.781 E89.96221
G1 X128.156 Y142.009 E90.10598
G1 X126.928 Y142.194 E90.30114
G1 X126.36 Y142.239 E90.39069
G1 X109.492 Y143.176 E93.04565
G1 X108.829 Y143.204 E93.14994
G1 X107.915 Y143.202 E93.29357
G1 X107.004 Y143.121 E93.43731
G1 X106.428 Y143.027 E93.52903
G1 X103.4 Y142.452 E94.01339
G1 X100.936 Y142.045 E94.40587
G1 X98.381 Y141.698 E94.81108
G1 X95.887 Y141.43 E95.20528
G1 X92.645 Y141.171 E95.7164
G1 X91.939 Y141.096 E95.82797
G1 X91.035 Y140.959 E95.97166
G1 X89.972 Y140.693 E96.14387
G1 X89.689 Y140.606 E96.1904
G1 X88.828 Y140.299 E96.33405
M73 P13
G1 X88.113 Y139.977 E96.45728
G1 X87.829 Y139.836 E96.50711
G1 X87.029 Y139.394 E96.65075
G1 X86.368 Y138.955 E96.77545
G1 X86.089 Y138.754 E96.82949
G1 X85.371 Y138.188 E96.97317
G1 X84.769 Y137.626 E97.1026
G1 X84.482 Y137.336 E97.16672
G1 X83.868 Y136.659 E97.31035
G1 X83.316 Y135.93 E97.45405
G1 X82.865 Y135.219 E97.58637
G1 X82.648 Y134.844 E97.65446
G1 X82.225 Y134.033 E97.79821
G1 X81.88 Y133.204 E97.93932
G1 X81.765 Y132.89 E97.99187
G1 X81.489 Y132.019 E98.13546
G1 X81.31 Y131.236 E98.26169
G1 X81.235 Y130.839 E98.32518
G1 X81.104 Y129.934 E98.46889
G1 X81.054 Y129.021 E98.61259
G1 X81.072 Y128.269 E98.7308
G1 X81.102 Y127.772 E98.80905
G1 X81.175 Y127.02 E98.92778
G1 X81.334 Y125.827 E99.11693
G1 X81.647 Y123.196 E99.53331
G1 X81.873 Y120.702 E99.92686
G1 X82.029 Y118.17 E100.32553
G1 X82.114 Y115.629 E100.72508
G1 X82.127 Y113.084 E101.12504
G1 X82.065 Y110.339 E101.55654
G1 X82.065 Y109.837 E101.63543
G1 X82.113 Y107.962 E101.93019
M73 P14
G1 X82.125 Y105.389 E102.33456
G1 X82.066 Y102.87 E102.73054
M117 Time Left 0h04m34s
G1 X81.937 Y100.356 E103.12614
G1 X81.733 Y97.814 E103.52691
G1 X81.455 Y95.262 E103.93034
G1 X81.115 Y92.766 E104.32622
G1 X81.031 Y91.856 E104.46984
G1 X81.04 Y90.699 E104.65167
G1 X81.072 Y90.191 E104.73167
G1 X81.169 Y89.282 E104.87533
G1 X81.345 Y88.385 E105.01898
G1 X81.577 Y87.573 E105.1517
G1 X81.708 Y87.176 E105.2174
G1 X82.032 Y86.322 E105.36094
G1 X82.389 Y85.576 E105.49091
G1 X82.543 Y85.284 E105.54279
G1 X83.004 Y84.495 E105.6864
G1 X83.502 Y83.789 E105.82218
G1 X83.705 Y83.525 E105.87451
G1 X84.293 Y82.825 E106.01818
G1 F2700 E101.01818
G1 F300 Z0.62
;MESH:pin.stl(4)
EXCLUDE_OBJECT_START NAME=pin_stl_4
G0 F6000 X106.028 Y91.73 Z0.62
;TYPE:WALL-INNER
G1 F300 Z0.42
G1 F2700 E106.01818
G1 F535.7 X105.977 Y91.514 E106.05725
G1 X105.973 Y91.066 E106.1361
G1 X106.022 Y90.725 E106.19674
G1 F536.8 X95.791 Y90.728 E107.99395
M73 P15
G1 F537.8 X95.841 Y90.967 E108.03676
G1 X95.856 Y91.244 E108.08539
G1 X95.821 Y91.73 E108.17082
G1 F536.8 X106.028 Y91.73 E109.96381
G1 F2700 E104.96381
G1 F300 Z0.62
