;FLAVOR:Marlin
M73 P0


; Pre-Processed for Cancel-Object support by preprocess_cancellation v0.2.0
; 1 known objects
EXCLUDE_OBJECT_DEFINE NAME=polyball_12mm_x_2_stl CENTER=109.999,110.010 POLYGON=[[45.551,39.051],[45.551,180.947],[174.449,180.947],[174.449,39.051]]
M117 Time Left 2h09m15s
;TIME:7755
;Filament used: 12.5667m
;Layer height: 0.3
;MINX:43.751
;MINY:37.251
;MINZ:0.42
;MAXX:176.249
;MAXY:182.747
;MAXZ:49.92
;TARGET_MACHINE.NAME:Creality Ender-3
;POSTPROCESSED
;  [InsertAtLayerChange]
;  [MeshPrintSize]
;  [DisplayProgressOnLCD]
;  [DisplayFilenameAndLayerOnLCD]
;Generated with Cura_SteamEngine 5.6.0
M82 ;absolute extrusion mode
;Nozzle diameter = 0.6
;Filament type = PLA
;Filament name = Purple/Pink
START_PRINT PRINT_MIN=43.751,37.251 PRINT_MAX=176.249,182.747 BED_TEMP=65 EXTRUDER_TEMP=200.0
G92 E0
G92 E0
G1 F2700 E-5
;LAYER_COUNT:166
TIMELAPSE_TAKE_FRAME
;LAYER:0
M117 Printing polyball-12mm-x-2 - Layer 0 of 165
M107
G1 F300 Z0.62
G0 F6000 X61.602 Y62.032 Z0.62
;TYPE:SKIRT
G1 F300 Z0.42
G1 F2700 E0
G1 F600 X62.496 Y61.184 E0.19365
G1 X63.268 Y60.573 E0.34837
G1 X63.988 Y60.086 E0.48497
G1 X64.629 Y59.696 E0.60289
G1 X73.842 Y54.376 E2.2748
G1 X76.047 Y53.061 E2.67827
G1 X78.186 Y51.704 E3.07637
G1 X80.204 Y50.339 E3.45924
G1 X82.228 Y48.886 E3.8508
G1 X84.215 Y47.373 E4.24328
G1 X86.121 Y45.834 E4.62827
G1 X88.031 Y44.202 E5.02309
G1 X89.868 Y42.538 E5.41261
G1 X91.849 Y40.65 E5.84268
G1 X92.565 Y40.021 E5.99245
G1 X93.56 Y39.293 E6.18621
G1 X94.479 Y38.743 E6.35452
G1 X95.372 Y38.307 E6.51069
G1 X96.446 Y37.896 E6.69141
G1 X97.479 Y37.603 E6.86016
G1 X98.563 Y37.399 E7.0335
G1 X99.971 Y37.279 E7.25558
G1 X101.156 Y37.253 E7.44185
G1 X102.479 Y37.264 E7.64977
G1 X103.165 Y37.292 E7.75767
G1 X103.655 Y37.327 E7.83487
G1 X106.252 Y37.474 E8.24365
G1 X108.765 Y37.546 E8.63874
G1 X111.18 Y37.546 E9.01827
G1 X113.713 Y37.473 E9.41651
G1 X117.351 Y37.266 E9.98916
G1 X117.994 Y37.252 E10.09023
G1 X119.003 Y37.251 E10.2488
G1 X119.866 Y37.262 E10.38444
G1 X121.02 Y37.334 E10.56614
G1 X122.079 Y37.495 E10.73448
G1 X122.969 Y37.707 E10.87826
G1 X124.135 Y38.095 E11.07138
G1 X125.114 Y38.525 E11.23943
G1 X125.986 Y39.001 E11.39555
G1 X126.945 Y39.638 E11.57648
G1 X127.753 Y40.284 E11.73906
G1 X128.171 Y40.665 E11.82794
G1 X130.142 Y42.553 E12.25687
G1 X132 Y44.236 E12.65084
G1 X133.852 Y45.818 E13.03362
G1 X135.77 Y47.367 E13.42107
G1 X137.743 Y48.868 E13.81066
M117 Time Left 2h09m00s
G1 X139.772 Y50.324 E14.20313
G1 X141.874 Y51.743 E14.60169
G1 X143.925 Y53.045 E14.98348
G1 X146.169 Y54.383 E15.39406
G1 X155.169 Y59.579 E17.02724
G1 X155.871 Y59.999 E17.1558
G1 X156.698 Y60.547 E17.31171
G1 X157.599 Y61.265 E17.49277
G1 X158.315 Y61.945 E17.64795
G1 X158.941 Y62.64 E17.79495
G1 X159.485 Y63.294 E17.92864
G1 X160.35 Y64.363 E18.14474
G1 X161.933 Y66.213 E18.52739
G1 X162.525 Y66.868 E18.66614
G1 X163.258 Y67.701 E18.84051
G1 X163.857 Y68.443 E18.99038
G1 X164.465 Y69.338 E19.16041
G1 X164.87 Y70.007 E19.28331
G1 X171.825 Y82.055 E21.46954
G1 X172.239 Y82.797 E21.60308
G1 X172.752 Y83.837 E21.78532
G1 X173.107 Y84.744 E21.93839
G1 X173.947 Y87.218 E22.34899
G1 X174.86 Y89.689 E22.76297
G1 X175.406 Y91.093 E22.99971
G1 X175.771 Y92.184 E23.18051
G1 X176.02 Y93.226 E23.34888
G1 X176.166 Y94.202 E23.50396
G1 X176.234 Y95.153 E23.6538
G1 X176.249 Y95.811 E23.75723
G1 X176.249 Y123.952 E28.17971
G1 X176.238 Y124.659 E28.29083
G1 X176.164 Y125.81 E28.47209
G1 X176 Y126.868 E28.64034
G1 X175.766 Y127.834 E28.79654
G1 X175.42 Y128.873 E28.96864
G1 X174.447 Y131.397 E29.39375
G1 X173.552 Y133.941 E29.81757
G1 X173.125 Y135.209 E30.02784
G1 X172.796 Y136.062 E30.17152
G1 X172.366 Y136.962 E30.32827
G1 X171.974 Y137.685 E30.45752
G1 X165.029 Y149.718 E32.64092
G1 X164.523 Y150.569 E32.79652
G1 X164.022 Y151.333 E32.94009
G1 X163.15 Y152.421 E33.15922
G1 X161.117 Y154.722 E33.64175
G1 X159.434 Y156.747 E34.05555
G1 X159.033 Y157.243 E34.15579
G1 X158.292 Y158.074 E34.33076
G1 X157.512 Y158.808 E34.49908
G1 X156.738 Y159.421 E34.65425
G1 X155.984 Y159.93 E34.79721
G1 X155.338 Y160.322 E34.91597
G1 X146.155 Y165.624 E36.58238
G1 X143.975 Y166.924 E36.98127
M117 Time Left 2h08m45s
G1 X141.809 Y168.3 E37.38454
G1 X139.777 Y169.674 E37.77003
G1 X137.799 Y171.094 E38.15269
G1 X135.79 Y172.625 E38.54964
G1 X133.876 Y174.169 E38.93611
G1 X131.955 Y175.811 E39.33326
G1 X130.142 Y177.453 E39.71766
G1 X129.195 Y178.371 E39.92494
G1 X128.909 Y178.625 E39.98505
G1 X128.15 Y179.351 E40.15011
G1 X127.309 Y180.08 E40.32502
G1 X126.444 Y180.706 E40.49282
G1 X125.662 Y181.18 E40.63653
G1 X124.63 Y181.691 E40.8175
G1 X123.555 Y182.103 E40.99843
G1 X122.522 Y182.396 E41.16717
G1 X121.437 Y182.6 E41.34067
G1 X120.029 Y182.72 E41.56275
G1 X118.839 Y182.746 E41.74981
G1 X117.504 Y182.734 E41.95961
G1 X116.844 Y182.707 E42.06342
G1 X116.316 Y182.67 E42.1466
G1 X113.741 Y182.525 E42.55192
G1 X111.219 Y182.453 E42.94842
G1 X108.803 Y182.453 E43.32811
G1 X106.266 Y182.525 E43.72697
G1 X102.954 Y182.718 E44.24834
G1 X102.32 Y182.742 E44.34805
G1 X100.833 Y182.747 E44.58174
G1 X100.131 Y182.737 E44.69207
G1 X98.981 Y182.664 E44.87316
G1 X97.924 Y182.503 E45.04119
G1 X97.035 Y182.292 E45.18478
G1 X95.867 Y181.903 E45.37825
G1 X94.888 Y181.474 E45.54623
G1 X94.016 Y180.998 E45.70236
G1 X93.057 Y180.361 E45.88328
G1 X92.294 Y179.753 E46.03661
G1 X91.837 Y179.338 E46.13362
G1 X89.856 Y177.442 E46.56455
G1 X87.993 Y175.758 E46.95922
G1 X86.085 Y174.13 E47.35338
G1 X84.204 Y172.613 E47.73314
G1 X82.172 Y171.069 E48.13421
G1 X80.178 Y169.641 E48.51965
G1 X78.104 Y168.241 E48.91289
G1 X76.023 Y166.92 E49.30026
G1 X73.896 Y165.653 E49.68933
G1 X64.795 Y160.397 E51.34098
G1 X64.166 Y160.021 E51.45614
G1 X63.24 Y159.405 E51.63092
G1 X62.464 Y158.787 E51.78682
G1 X61.638 Y158.004 E51.96569
G1 X61.05 Y157.348 E52.10413
G1 X60.512 Y156.699 E52.23661
M117 Time Left 2h08m30s
G1 X59.662 Y155.647 E52.44916
G1 X58.061 Y153.777 E52.83603
G1 X57.49 Y153.148 E52.96954
G1 X56.732 Y152.284 E53.15017
G1 X56.088 Y151.479 E53.31218
G1 X55.533 Y150.66 E53.46765
G1 X55.192 Y150.097 E53.5711
G1 X48.073 Y137.76 E55.80955
G1 X47.733 Y137.144 E55.92012
G1 X47.225 Y136.109 E56.10131
G1 X46.878 Y135.219 E56.25143
G1 X46.04 Y132.74 E56.66267
G1 X45.164 Y130.364 E57.06064
G1 X44.571 Y128.844 E57.31705
G1 X44.254 Y127.903 E57.4731
G1 X43.982 Y126.783 E57.65423
G1 X43.835 Y125.809 E57.80903
G1 X43.768 Y124.892 E57.95352
G1 X43.751 Y124.19 E58.06388
G1 X43.751 Y96.03 E62.48934
G1 X43.762 Y95.337 E62.59826
G1 X43.837 Y94.186 E62.77953
G1 X44.001 Y93.127 E62.94794
G1 X44.235 Y92.161 E63.10414
G1 X44.58 Y91.126 E63.27559
G1 X45.536 Y88.645 E63.69344
G1 X46.411 Y86.171 E64.10584
G1 X46.88 Y84.773 E64.33757
G1 X47.24 Y83.849 E64.49341
G1 X47.702 Y82.902 E64.65901
G1 X48.063 Y82.249 E64.77627
G1 X55.071 Y70.111 E66.97891
G1 X55.493 Y69.406 E67.10803
G1 X55.995 Y68.643 E67.25157
G1 X56.842 Y67.584 E67.46468
G1 X58.921 Y65.23 E67.95824
G1 X60.574 Y63.241 E68.36468
G1 X60.997 Y62.717 E68.47051
G1 X61.602 Y62.032 E68.61413
G0 F6000 X62.277 Y62.628
G1 F600 X63.055 Y61.89 E68.78266
G1 X63.827 Y61.279 E68.93738
G1 X64.49 Y60.833 E69.06296
G1 X65.079 Y60.475 E69.17128
G1 X74.303 Y55.149 E70.84516
G1 X76.517 Y53.829 E71.25025
G1 X78.668 Y52.464 E71.6506
G1 X80.729 Y51.07 E72.04163
G1 X82.753 Y49.617 E72.43319
G1 X84.76 Y48.089 E72.8296
G1 X86.706 Y46.518 E73.22264
G1 X88.616 Y44.886 E73.61746
G1 X90.472 Y43.205 E74.01099
G1 X92.443 Y41.326 E74.43894
G1 X93.159 Y40.697 E74.58871
G1 X94.024 Y40.064 E74.75716
M117 Time Left 2h08m15s
G1 X94.874 Y39.552 E74.91311
G1 X95.767 Y39.116 E75.06928
G1 X96.694 Y38.761 E75.22528
G1 X97.649 Y38.487 E75.38141
G1 X98.641 Y38.296 E75.54017
G1 X99.991 Y38.179 E75.75313
G1 X101.149 Y38.153 E75.93516
G1 X102.442 Y38.163 E76.13837
G1 X103.101 Y38.19 E76.24202
G1 X103.604 Y38.226 E76.32127
G1 X106.211 Y38.374 E76.73163
G1 X108.739 Y38.446 E77.12907
G1 X111.206 Y38.446 E77.51677
G1 X113.754 Y38.373 E77.91737
G1 X117.371 Y38.166 E78.48672
G1 X117.995 Y38.152 E78.58481
G1 X118.992 Y38.151 E78.7415
G1 X119.855 Y38.162 E78.87713
G1 X120.887 Y38.224 E79.03961
G1 X121.87 Y38.371 E79.19581
G1 X122.76 Y38.583 E79.33959
G1 X123.775 Y38.92 E79.50766
G1 X124.686 Y39.317 E79.66383
G1 X125.49 Y39.752 E79.80749
G1 X126.384 Y40.342 E79.97582
G1 X127.147 Y40.95 E80.12915
G1 X127.548 Y41.315 E80.21436
G1 X129.519 Y43.203 E80.64329
G1 X131.396 Y44.903 E81.04127
G1 X133.287 Y46.518 E81.43208
G1 X135.225 Y48.083 E81.82355
G1 X137.218 Y49.599 E82.21707
G1 X139.268 Y51.07 E82.6136
G1 X141.371 Y52.49 E83.01238
G1 X143.455 Y53.813 E83.40031
G1 X145.708 Y55.156 E83.81251
G1 X154.707 Y60.351 E85.44548
G1 X155.376 Y60.751 E85.56798
G1 X156.139 Y61.253 E85.71151
G1 X156.979 Y61.918 E85.87988
G1 X157.695 Y62.598 E86.03506
G1 X158.249 Y63.216 E86.16549
G1 X158.785 Y63.86 E86.29717
G1 X159.654 Y64.935 E86.51441
G1 X161.265 Y66.817 E86.90373
G1 X161.849 Y67.463 E87.04059
G1 X162.582 Y68.296 E87.21496
G1 X163.156 Y69.008 E87.35869
G1 X163.719 Y69.842 E87.51683
G1 X164.091 Y70.457 E87.62978
G1 X171.039 Y82.494 E89.81396
G1 X171.453 Y83.236 E89.9475
G1 X171.914 Y84.165 E90.11048
G1 X172.269 Y85.072 E90.26355
G1 X173.103 Y87.53 E90.67146
G1 X174.021 Y90.015 E91.08778
M117 Time Left 2h08m00s
G1 X174.567 Y91.419 E91.32453
G1 X174.896 Y92.396 E91.48654
G1 X175.13 Y93.362 E91.64274
G1 X175.268 Y94.266 E91.78645
M73 P1
G1 X175.336 Y95.217 E91.93629
G1 X175.349 Y95.83 E92.03264
G1 X175.349 Y123.938 E96.44993
G1 X175.338 Y124.645 E96.56105
G1 X175.274 Y125.675 E96.72324
G1 X175.125 Y126.656 E96.87917
G1 X174.891 Y127.622 E97.03537
G1 X174.58 Y128.549 E97.18904
G1 X173.607 Y131.073 E97.61415
G1 X172.703 Y133.642 E98.04214
G1 X172.285 Y134.885 E98.24823
G1 X171.956 Y135.738 E98.39191
G1 X171.555 Y136.572 E98.53734
G1 X171.195 Y137.235 E98.6559
G1 X164.256 Y149.258 E100.83747
G1 X163.77 Y150.075 E100.98687
G1 X163.269 Y150.839 E101.13045
G1 X162.449 Y151.856 E101.33575
G1 X160.434 Y154.136 E101.81394
G1 X158.734 Y156.181 E102.23187
G1 X158.333 Y156.677 E102.3321
G1 X157.674 Y157.42 E102.48818
G1 X156.953 Y158.102 E102.64415
G1 X156.179 Y158.715 E102.79931
G1 X155.516 Y159.161 E102.92489
G1 X154.888 Y159.543 E103.0404
G1 X145.694 Y164.851 E104.70879
G1 X143.492 Y166.164 E105.11169
G1 X141.326 Y167.54 E105.51497
G1 X139.273 Y168.928 E105.90442
G1 X137.253 Y170.378 E106.29519
G1 X135.244 Y171.909 E106.69214
G1 X133.311 Y173.468 E107.08241
G1 X131.37 Y175.127 E107.48369
G1 X129.538 Y176.786 E107.8721
G1 X128.597 Y177.698 E108.07804
G1 X128.311 Y177.952 E108.13815
G1 X127.528 Y178.701 E108.30844
G1 X126.779 Y179.352 E108.46439
G1 X125.977 Y179.936 E108.6203
G1 X125.195 Y180.41 E108.76401
G1 X124.233 Y180.883 E108.93248
G1 X123.307 Y181.238 E109.08833
G1 X122.352 Y181.512 E109.24447
G1 X121.359 Y181.703 E109.40338
G1 X120.009 Y181.82 E109.61634
G1 X118.847 Y181.846 E109.799
G1 X117.541 Y181.835 E110.00425
G1 X116.907 Y181.809 E110.10397
G1 X116.367 Y181.771 E110.18904
G1 X113.782 Y181.625 E110.59593
M117 Time Left 2h07m45s
G1 X111.245 Y181.553 E110.99479
G1 X108.777 Y181.553 E111.38265
G1 X106.24 Y181.625 E111.78151
G1 X102.92 Y181.819 E112.30415
G1 X102.317 Y181.842 E112.39898
G1 X100.846 Y181.847 E112.63016
G1 X100.144 Y181.837 E112.74049
G1 X99.114 Y181.774 E112.90266
G1 X98.132 Y181.627 E113.05871
G1 X97.243 Y181.416 E113.2023
G1 X96.226 Y181.078 E113.37072
G1 X95.316 Y180.682 E113.52668
G1 X94.512 Y180.247 E113.67034
G1 X93.618 Y179.657 E113.83868
G1 X92.855 Y179.049 E113.992
G1 X92.459 Y178.688 E114.07621
G1 X90.459 Y176.774 E114.51126
G1 X88.577 Y175.073 E114.90993
G1 X86.669 Y173.445 E115.30409
G1 X84.749 Y171.896 E115.69178
G1 X82.717 Y170.352 E116.09285
G1 X80.682 Y168.895 E116.48618
G1 X78.608 Y167.495 E116.87942
G1 X76.492 Y166.152 E117.27328
G1 X74.357 Y164.88 E117.66384
G1 X65.256 Y159.624 E119.31549
G1 X64.662 Y159.27 E119.42416
G1 X63.801 Y158.701 E119.58634
G1 X63.025 Y158.083 E119.74224
G1 X62.308 Y157.403 E119.89754
G1 X61.743 Y156.773 E120.03053
G1 X61.212 Y156.133 E120.16122
G1 X60.362 Y155.081 E120.37377
G1 X58.745 Y153.192 E120.76454
G1 X58.167 Y152.554 E120.89983
G1 X57.409 Y151.69 E121.08046
G1 X56.791 Y150.917 E121.23599
G1 X56.303 Y150.193 E121.37321
G1 X55.972 Y149.647 E121.47355
G1 X48.861 Y137.325 E123.70933
G1 X48.521 Y136.709 E123.8199
G1 X48.064 Y135.782 E123.98232
G1 X47.717 Y134.892 E124.13245
G1 X46.893 Y132.452 E124.53718
G1 X46.008 Y130.053 E124.93903
G1 X45.423 Y128.553 E125.19205
G1 X45.128 Y127.688 E125.33568
G1 X44.872 Y126.646 E125.5043
G1 X44.733 Y125.743 E125.64788
G1 X44.666 Y124.826 E125.79238
G1 X44.651 Y124.169 E125.89565
G1 X44.651 Y96.044 E130.31561
G1 X44.662 Y95.351 E130.42454
G1 X44.727 Y94.321 E130.58673
G1 X44.876 Y93.339 E130.74282
G1 X45.11 Y92.373 E130.89902
M117 Time Left 2h07m30s
G1 X45.42 Y91.45 E131.05204
G1 X46.382 Y88.953 E131.47257
G1 X47.259 Y86.471 E131.88626
G1 X47.72 Y85.097 E132.11402
G1 X48.049 Y84.244 E132.25769
G1 X48.511 Y83.297 E132.42328
G1 X48.842 Y82.699 E132.5307
G1 X55.843 Y70.573 E134.73116
G1 X56.245 Y69.901 E134.85422
G1 X56.747 Y69.138 E134.99775
G1 X57.517 Y68.18 E135.19091
G1 X59.596 Y65.826 E135.68447
G1 X61.266 Y63.816 E136.09515
G1 X61.672 Y63.313 E136.19674
G1 X62.277 Y62.628 E136.34037
G0 F6000 X62.952 Y63.224
G1 F600 X63.615 Y62.594 E136.4841
G1 X64.33 Y62.025 E136.6277
G1 X64.958 Y61.602 E136.74669
G1 X65.529 Y61.254 E136.85178
G1 X74.764 Y55.922 E138.52763
G1 X76.987 Y54.597 E138.93434
G1 X79.15 Y53.224 E139.33696
G1 X81.248 Y51.805 E139.735
G1 X83.283 Y50.344 E140.1287
G1 X85.305 Y48.805 E140.52804
G1 X87.285 Y47.207 E140.9279
G1 X89.201 Y45.57 E141.32394
G1 X91.076 Y43.872 E141.72148
G1 X92.052 Y42.938 E141.93378
G1 X92.162 Y42.842 E141.95672
G1 X93.066 Y41.976 E142.15346
G1 X93.753 Y41.373 E142.29711
G1 X94.491 Y40.833 E142.44082
G1 X95.272 Y40.359 E142.5844
G1 X96.092 Y39.955 E142.72805
G1 X96.945 Y39.625 E142.87179
G1 X97.823 Y39.37 E143.01547
G1 X98.719 Y39.193 E143.159
G1 X100.069 Y39.076 E143.37196
G1 X101.143 Y39.053 E143.54078
G1 X102.405 Y39.062 E143.73911
G1 X103.037 Y39.088 E143.83852
G1 X103.553 Y39.125 E143.91982
G1 X106.169 Y39.274 E144.3316
G1 X108.714 Y39.346 E144.73172
G1 X111.232 Y39.346 E145.12743
G1 X113.797 Y39.273 E145.53069
G1 X117.392 Y39.066 E146.0966
G1 X117.996 Y39.052 E146.19155
G1 X118.981 Y39.051 E146.34634
G1 X119.844 Y39.062 E146.48198
G1 X120.757 Y39.115 E146.6257
G1 X121.661 Y39.247 E146.76928
G1 X122.551 Y39.459 E146.91306
G1 X123.418 Y39.746 E147.05658
M117 Time Left 2h07m15s
G1 X124.258 Y40.109 E147.20039
G1 X125.062 Y40.544 E147.34405
G1 X125.825 Y41.047 E147.48767
G1 X126.541 Y41.615 E147.6313
G1 X126.925 Y41.965 E147.71295
G1 X128.896 Y43.853 E148.14188
G1 X130.8 Y45.577 E148.54554
G1 X132.722 Y47.218 E148.9427
G1 X134.68 Y48.799 E149.3382
G1 X136.693 Y50.33 E149.73565
G1 X138.764 Y51.816 E150.13623
G1 X140.868 Y53.237 E150.53523
G1 X142.986 Y54.581 E150.92944
G1 X145.247 Y55.929 E151.34313
G1 X154.246 Y61.124 E152.97609
G1 X154.881 Y61.503 E153.09231
G1 X155.644 Y62.005 E153.23584
G1 X156.361 Y62.572 E153.3795
G1 X157.026 Y63.2 E153.52324
G1 X157.557 Y63.791 E153.6481
G1 X158.085 Y64.426 E153.77788
G1 X158.958 Y65.506 E153.99613
G1 X160.584 Y67.406 E154.38913
G1 X161.174 Y68.058 E154.52732
G1 X161.881 Y68.861 E154.69546
G1 X162.455 Y69.573 E154.83919
G1 X162.949 Y70.308 E154.97836
G1 X163.312 Y70.907 E155.08843
G1 X170.253 Y82.933 E157.27057
G1 X170.667 Y83.675 E157.4041
G1 X171.076 Y84.493 E157.54782
G1 X171.431 Y85.4 E157.70089
G1 X172.259 Y87.842 E158.10612
G1 X173.182 Y90.341 E158.52478
G1 X173.728 Y91.745 E158.76152
G1 X174.022 Y92.611 E158.90525
G1 X174.24 Y93.498 E159.04879
G1 X174.378 Y94.402 E159.19251
G1 X174.436 Y95.236 E159.32389
G1 X174.449 Y95.849 E159.42025
G1 X174.449 Y123.924 E163.83235
G1 X174.438 Y124.631 E163.94347
G1 X174.384 Y125.543 E164.08705
G1 X174.25 Y126.447 E164.23067
G1 X174.038 Y127.336 E164.37429
G1 X173.74 Y128.225 E164.52164
G1 X172.767 Y130.749 E164.94675
G1 X171.854 Y133.343 E165.37892
G1 X171.445 Y134.561 E165.58084
G1 X171.116 Y135.414 E165.72452
G1 X170.764 Y136.143 E165.85174
G1 X170.416 Y136.785 E165.9665
