;FLAVOR:Marlin
M73 P0


; Pre-Processed for Cancel-Object support by preprocess_cancellation v0.2.0
; 1 known objects
EXCLUDE_OBJECT_DEFINE NAME=polyclip_x_4_stl CENTER=109.936,110.057 POLYGON=[[95.783,93.533],[95.783,126.467],[124.219,126.467],[124.219,93.533]]
M117 Time Left 0h06m14s
;TIME:374
;Filament used: 0.366369m
;Layer height: 0.3
;MINX:93.983
;MINY:91.733
;MINZ:0.42
;MAXX:126.019
;MAXY:128.267
;MAXZ:16.22
;TARGET_MACHINE.NAME:Creality Ender-3
;POSTPROCESSED
;  [InsertAtLayerChange]
;  [MeshPrintSize]
;  [DisplayProgressOnLCD]
;  [DisplayFilenameAndLayerOnLCD]
;Generated with Cura_SteamEngine 5.6.0
M82 ;absolute extrusion mode
;Nozzle diameter = 0.6
;Filament type = PLA
;Filament name = Purple/Pink
START_PRINT PRINT_MIN=93.983,91.733 PRINT_MAX=126.019,128.267 BED_TEMP=65 EXTRUDER_TEMP=200.0
G92 E0
G92 E0
G1 F2700 E-5
;LAYER_COUNT:53
TIMELAPSE_TAKE_FRAME
;LAYER:0
M117 Printing polyclip-x-4 - Layer 0 of 52
M107
G1 F300 Z0.62
G0 F6000 X99.27 Y95.825 Z0.62
;TYPE:SKIRT
G1 F300 Z0.42
G1 F2700 E0
G1 F600 X99.908 Y95.17 E0.1437
G1 X100.841 Y94.368 E0.33705
G1 X101.713 Y93.748 E0.50519
G1 X102.499 Y93.281 E0.64887
G1 X103.61 Y92.748 E0.84253
G1 X104.612 Y92.376 E1.0105
G1 X105.569 Y92.111 E1.16655
G1 X106.718 Y91.9 E1.35014
G1 X107.83 Y91.802 E1.52557
G1 X108.7 Y91.771 E1.66239
G1 X110.742 Y91.735 E1.98334
G1 X111.404 Y91.733 E2.08738
G1 X112.554 Y91.784 E2.26829
G1 X113.46 Y91.901 E2.41185
G1 X114.661 Y92.165 E2.6051
G1 X115.534 Y92.438 E2.74884
G1 X116.671 Y92.906 E2.94207
G1 X117.482 Y93.327 E3.08568
G1 X118.518 Y93.985 E3.27855
G1 X119.305 Y94.591 E3.43465
G1 X120.154 Y95.373 E3.61605
G1 X120.828 Y96.114 E3.77346
G1 X121.589 Y97.123 E3.97208
G1 X122.071 Y97.841 E4.10798
G1 X123.722 Y100.397 E4.58618
M73 P1
G1 X124.125 Y101.046 E4.70623
G1 X124.611 Y101.913 E4.86243
G1 X125.084 Y102.961 E5.04313
G1 X125.433 Y103.969 E5.21076
G1 X125.661 Y104.854 E5.35439
G1 X125.842 Y105.91 E5.52276
G1 X125.941 Y107.282 E5.73894
G1 X125.984 Y110.206 E6.19851
G1 X126.014 Y111.437 E6.39202
G1 X126.019 Y112.372 E6.53896
G1 X125.968 Y113.526 E6.7205
G1 X125.851 Y114.432 E6.86406
G1 X125.586 Y115.636 E7.0578
G1 X125.259 Y116.656 E7.22614
G1 X124.881 Y117.565 E7.38085
G1 X124.507 Y118.308 E7.51157
G1 X124.186 Y118.876 E7.6141
G1 X122.429 Y121.813 E8.15195
G1 X122.051 Y122.422 E8.2646
G1 X121.444 Y123.305 E8.43299
G1 X120.712 Y124.194 E8.61396
G1 X120.072 Y124.847 E8.75766
G1 X119.14 Y125.646 E8.95058
G1 X118.33 Y126.223 E9.10687
G1 X117.338 Y126.805 E9.28762
G1 X116.37 Y127.261 E9.45578
G1 X115.514 Y127.582 E9.59945
G1 X114.33 Y127.911 E9.79257
G1 X113.349 Y128.089 E9.94925
G1 X112.102 Y128.201 E10.14601
G1 X111.334 Y128.229 E10.26679
G1 X109.258 Y128.265 E10.59309
G1 X108.596 Y128.267 E10.69713
M73 P2
G1 X107.446 Y128.216 E10.87803
G1 X106.54 Y128.099 E11.02159
G1 X105.339 Y127.835 E11.21484
G1 X104.466 Y127.562 E11.35859
G1 X103.329 Y127.094 E11.55182
G1 X102.518 Y126.673 E11.69542
G1 X101.482 Y126.015 E11.8883
G1 X100.695 Y125.409 E12.04439
G1 X99.846 Y124.627 E12.22579
G1 X99.172 Y123.886 E12.38321
G1 X98.41 Y122.876 E12.58204
G1 X97.909 Y122.13 E12.72326
G1 X96.276 Y119.605 E13.19583
G1 X95.924 Y119.041 E13.30031
G1 X95.398 Y118.103 E13.46932
G1 X94.925 Y117.055 E13.65001
G1 X94.598 Y116.118 E13.80598
G1 X94.348 Y115.159 E13.96173
G1 X94.159 Y114.041 E14.13992
G1 X94.089 Y113.28 E14.26002
G1 X94.056 Y112.558 E14.3736
G1 X93.983 Y108.311 E15.04113
G1 X93.985 Y107.501 E15.16843
G1 X94.039 Y106.431 E15.3368
G1 X94.185 Y105.374 E15.50449
G1 X94.383 Y104.481 E15.64823
G1 X94.728 Y103.383 E15.8291
G1 X95.169 Y102.326 E16.00909
G1 X95.579 Y101.537 E16.14883
G1 X95.959 Y100.876 E16.26865
G1 X97.493 Y98.317 E16.73753
G1 X97.936 Y97.599 E16.87012
M73 P3
G1 X98.542 Y96.712 E17.03894
G1 X99.27 Y95.825 E17.21927
G0 F6000 X99.915 Y96.453
G1 F600 X100.553 Y95.798 E17.36297
G1 X101.365 Y95.1 E17.53125
G1 X102.173 Y94.522 E17.68737
G1 X102.959 Y94.055 E17.83105
G1 X103.925 Y93.591 E17.99947
G1 X104.855 Y93.243 E18.15552
G1 X105.735 Y92.996 E18.29916
G1 X106.797 Y92.797 E18.46896
G1 X107.909 Y92.699 E18.64439
G1 X108.716 Y92.671 E18.77129
G1 X110.745 Y92.635 E19.09021
G1 X111.407 Y92.633 E19.19425
G1 X112.439 Y92.677 E19.35658
G1 X113.345 Y92.794 E19.50014
G1 X114.392 Y93.024 E19.6686
G1 X115.265 Y93.297 E19.81235
G1 X116.256 Y93.705 E19.98077
G1 X117.067 Y94.126 E20.12437
G1 X117.971 Y94.7 E20.29266
G1 X118.697 Y95.255 E20.43627
G1 X119.488 Y95.979 E20.60479
G1 X120.162 Y96.72 E20.76221
M117 Time Left 0h05m59s
G1 X120.869 Y97.663 E20.94743
G1 X121.315 Y98.33 E21.07353
G1 X122.958 Y100.872 E21.5492
G1 X123.34 Y101.486 E21.66284
G1 X123.826 Y102.353 E21.81904
G1 X124.234 Y103.258 E21.97505
G1 X124.561 Y104.194 E22.13086
M73 P4
G1 X124.789 Y105.079 E22.27449
G1 X124.954 Y106.059 E22.43066
G1 X125.041 Y107.295 E22.62539
G1 X125.084 Y110.228 E23.08637
G1 X125.114 Y111.442 E23.27721
G1 X125.119 Y112.377 E23.42415
G1 X125.075 Y113.411 E23.5868
G1 X124.958 Y114.317 E23.73036
G1 X124.728 Y115.364 E23.89883
G1 X124.428 Y116.31 E24.05479
G1 X124.05 Y117.219 E24.2095
G1 X123.723 Y117.865 E24.32329
G1 X123.402 Y118.433 E24.42582
G1 X121.664 Y121.338 E24.95782
G1 X121.286 Y121.947 E25.07047
G1 X120.748 Y122.735 E25.22041
G1 X120.069 Y123.564 E25.38882
G1 X119.429 Y124.217 E25.53251
G1 X118.618 Y124.913 E25.70046
G1 X117.808 Y125.49 E25.85675
G1 X116.952 Y125.992 E26.0127
G1 X116.054 Y126.418 E26.1689
G1 X115.198 Y126.739 E26.31257
G1 X114.166 Y127.026 E26.48091
G1 X113.267 Y127.193 E26.62461
G1 X112.07 Y127.302 E26.8135
G1 X111.318 Y127.329 E26.93176
G1 X109.255 Y127.365 E27.25601
G1 X108.593 Y127.367 E27.36005
G1 X107.561 Y127.323 E27.52238
G1 X106.655 Y127.206 E27.66594
G1 X105.608 Y126.976 E27.83441
G1 X104.735 Y126.703 E27.97816
M73 P5
G1 X103.744 Y126.295 E28.14658
G1 X102.933 Y125.874 E28.29018
G1 X102.029 Y125.3 E28.45847
G1 X101.303 Y124.745 E28.60208
G1 X100.512 Y124.021 E28.7706
G1 X99.838 Y123.28 E28.92802
G1 X99.13 Y122.336 E29.11346
G1 X98.665 Y121.641 E29.24487
G1 X97.04 Y119.128 E29.71518
G1 X96.688 Y118.564 E29.81966
G1 X96.183 Y117.663 E29.98198
G1 X95.775 Y116.758 E30.13799
G1 X95.448 Y115.821 E30.29395
G1 X95.22 Y114.935 E30.43772
G1 X95.055 Y113.957 E30.59359
G1 X94.988 Y113.239 E30.70692
G1 X94.956 Y112.542 E30.81657
G1 X94.883 Y108.312 E31.48143
G1 X94.884 Y107.544 E31.60213
G1 X94.931 Y106.552 E31.7582
G1 X95.064 Y105.569 E31.91409
G1 X95.262 Y104.676 E32.05784
G1 X95.559 Y103.728 E32.21396
G1 X95.968 Y102.741 E32.38186
G1 X96.378 Y101.952 E32.5216
G1 X96.731 Y101.339 E32.63276
G1 X98.259 Y98.79 E33.09981
G1 X98.702 Y98.072 E33.23239
G1 X99.285 Y97.22 E33.39464
G1 X99.915 Y96.453 E33.55062
G0 F6000 X100.56 Y97.081
G1 F600 X101.198 Y96.426 E33.69432
M73 P6
G1 X101.891 Y95.83 E33.83796
G1 X102.633 Y95.296 E33.98163
G1 X103.419 Y94.829 E34.12531
G1 X104.243 Y94.433 E34.26898
G1 X105.098 Y94.11 E34.41262
G1 X105.978 Y93.863 E34.55626
G1 X106.876 Y93.694 E34.69986
G1 X107.988 Y93.596 E34.87529
G1 X108.732 Y93.571 E34.99228
G1 X110.748 Y93.535 E35.30916
G1 X111.41 Y93.533 E35.41319
G1 X112.324 Y93.57 E35.55695
G1 X113.23 Y93.687 E35.70051
G1 X114.123 Y93.883 E35.84419
G1 X114.996 Y94.156 E35.98794
G1 X115.841 Y94.504 E36.13156
G1 X116.652 Y94.925 E36.27516
G1 X117.424 Y95.415 E36.41886
G1 X118.15 Y95.97 E36.56247
G1 X118.825 Y96.587 E36.70619
G1 X119.443 Y97.261 E36.84989
G1 X120.121 Y98.163 E37.02723
G1 X120.559 Y98.819 E37.15119
G1 X122.195 Y101.349 E37.62467
G1 X122.557 Y101.929 E37.73212
G1 X123.007 Y102.725 E37.87582
G1 X123.385 Y103.557 E38.01943
G1 X123.689 Y104.419 E38.16308
G1 X123.917 Y105.304 E38.3067
G1 X124.066 Y106.206 E38.45038
G1 X124.141 Y107.308 E38.62396
G1 X124.184 Y110.251 E39.08651
G1 X124.214 Y111.447 E39.27453
M73 P7
G1 X124.219 Y112.382 E39.42147
G1 X124.182 Y113.296 E39.56523
G1 X124.065 Y114.202 E39.70879
G1 X123.869 Y115.095 E39.85247
G1 X123.596 Y115.967 E39.99607
G1 X123.247 Y116.813 E40.13989
G1 X122.939 Y117.423 E40.24728
G1 X122.63 Y117.971 E40.34615
G1 X120.899 Y120.863 E40.87583
G1 X120.521 Y121.472 E40.98847
G1 X120.005 Y122.227 E41.13219
G1 X119.426 Y122.934 E41.2758
G1 X118.786 Y123.587 E41.41949
G1 X118.093 Y124.182 E41.56304
G1 X117.35 Y124.715 E41.70674
G1 X116.563 Y125.18 E41.85039
G1 X115.738 Y125.575 E41.99414
M117 Time Left 0h05m44s
G1 X114.882 Y125.896 E42.13781
G1 X114.002 Y126.141 E42.28137
G1 X113.103 Y126.308 E42.42507
G1 X112.038 Y126.403 E42.5931
G1 X111.302 Y126.429 E42.70884
G1 X109.252 Y126.465 E43.03105
G1 X108.59 Y126.467 E43.13509
G1 X107.676 Y126.43 E43.27885
G1 X106.77 Y126.313 E43.42241
G1 X105.877 Y126.117 E43.56609
G1 X105.004 Y125.844 E43.70984
G1 X104.159 Y125.496 E43.85345
G1 X103.348 Y125.075 E43.99705
G1 X102.576 Y124.585 E44.14075
G1 X101.85 Y124.03 E44.28437
M73 P8
G1 X101.175 Y123.413 E44.42808
G1 X100.557 Y122.739 E44.57179
G1 X99.878 Y121.836 E44.74934
G1 X99.421 Y121.152 E44.87862
G1 X97.804 Y118.651 E45.34666
G1 X97.452 Y118.087 E45.45114
G1 X97.002 Y117.291 E45.59484
G1 X96.624 Y116.459 E45.73846
G1 X96.32 Y115.597 E45.8821
G1 X96.092 Y114.711 E46.02587
G1 X95.943 Y113.81 E46.16939
G1 X95.887 Y113.197 E46.26613
G1 X95.856 Y112.526 E46.37169
G1 X95.783 Y108.296 E47.03655
G1 X95.783 Y107.583 E47.14861
G1 X95.823 Y106.67 E47.29222
G1 X95.943 Y105.764 E47.43585
G1 X96.141 Y104.871 E47.5796
G1 X96.417 Y104 E47.72319
G1 X96.767 Y103.155 E47.86692
G1 X97.158 Y102.401 E48.0004
G1 X97.503 Y101.802 E48.10903
G1 X99.025 Y99.263 E48.57425
G1 X99.468 Y98.545 E48.70683
G1 X99.982 Y97.789 E48.8505
G1 X100.56 Y97.081 E48.99414
G1 F2700 E43.99414
G1 F300 Z0.62
;MESH:polyclip-x-4.stl
EXCLUDE_OBJECT_START NAME=polyclip_x_4_stl
G0 F6000 X109.279 Y114.662 Z0.62
;TYPE:WALL-INNER
G1 F300 Z0.42
M73 P9
G1 F2700 E48.99414
G1 F600 X110.875 Y114.633 E49.24499
G1 X112.047 Y112.68 E49.60294
G1 X110.332 Y112.712 E49.87251
G1 X110.024 Y112.682 E49.92114
G1 F596.7 X109.599 Y112.517 E49.99318
G1 F532.5 X109.236 Y112.354 E50.06364
G1 F486 X109.087 Y112.151 E50.11249
G1 F486.5 X108.879 Y111.784 E50.19425
G1 F485.2 X108.852 Y111.386 E50.27178
G1 F486.5 X108.807 Y108.74 E50.78471
G1 F480 X108.844 Y108.272 E50.87694
G1 F477 X109.007 Y107.963 E50.94599
G1 F476.6 X109.15 Y107.752 E50.99642
G1 F529.4 X109.543 Y107.571 E51.07348
G1 F600 X109.954 Y107.4 E51.14344
G1 X110.213 Y107.365 E51.18451
G1 X112.012 Y107.333 E51.46728
G1 X110.72 Y105.338 E51.84081
G1 X109.126 Y105.367 E52.09135
G1 X108.445 Y106.496 E52.29856
G1 F529.4 X108.231 Y107.087 E52.41051
G1 F476.6 X108.043 Y107.385 E52.48021
G1 F473.7 X107.707 Y107.982 E52.61658
G1 F476.6 X107.697 Y108.758 E52.77012
G1 F486.5 X107.742 Y111.404 E53.28305
G1 F478.7 X107.772 Y112.106 E53.42145
G1 F480 X108.161 Y112.749 E53.56908
G1 F486 X108.357 Y113.037 E53.63666
G1 F532.5 X108.575 Y113.567 E53.73813
G1 F596.7 X109.279 Y114.662 E53.94385
G0 F6000 X108.795 Y115.571
M104 S190
M73 P10
;TYPE:WALL-OUTER
G1 F600 X111.39 Y115.524 E54.35173
G1 X113.326 Y112.295 E54.9434
G1 X113.317 Y111.756 E55.02812
G1 X110.24 Y111.813 E55.51176
G1 X109.976 Y111.668 E55.5591
G1 X109.864 Y111.447 E55.59803
G1 X109.81 Y108.623 E56.04192
G1 X109.921 Y108.42 E56.07828
G1 X110.182 Y108.266 E56.1259
G1 X113.257 Y108.211 E56.60923
G1 X113.247 Y107.585 E56.70762
G1 X111.204 Y104.429 E57.29845
G1 X108.61 Y104.476 E57.70617
G1 X106.674 Y107.706 E58.29798
G1 X106.754 Y112.416 E59.03828
G1 X108.795 Y115.571 E59.62881
G1 F2700 E54.62881
G1 F300 Z0.62
G0 F6000 X110.321 Y113.676 Z0.62
;TYPE:SKIN
G1 F300 Z0.42
G1 F2700 E59.62881
G1 F456.9 X109.818 Y113.655 E59.73272
G1 F2700 E54.73272
G1 F300 Z0.62
G0 F6000 X110.179 Y106.357 Z0.62
G1 F300 Z0.42
G1 F2700 E59.73272
G1 F427.9 X109.716 Y106.393 E59.83505
G1 F2700 E54.83505
G1 F300 Z0.62
M73 P11
;MESH:NONMESH
EXCLUDE_OBJECT_END NAME=polyclip_x_4_stl
G0 F6000 X100.56 Y97.081 Z0.62
;TIME_ELAPSED:44.704596
TIMELAPSE_TAKE_FRAME
;LAYER:1
M117 Printing polyclip-x-4 - Layer 1 of 52
M140 S60
M106 S63.8
G0 F7500 X100.56 Y97.081 Z0.92
;TYPE:SKIRT
G1 F300 Z0.72
G1 F2700 E59.83505
G1 F600 X101.198 Y96.426 E59.90348
G1 X101.891 Y95.83 E59.97188
G1 X102.633 Y95.296 E60.04029
G1 X103.419 Y94.829 E60.10871
M117 Time Left 0h05m29s
G1 X104.243 Y94.433 E60.17713
G1 X105.098 Y94.11 E60.24553
G1 X105.978 Y93.863 E60.31393
G1 X106.876 Y93.694 E60.38231
G1 X107.988 Y93.596 E60.46585
G1 X108.732 Y93.571 E60.52156
G1 X110.748 Y93.535 E60.67245
G1 X111.41 Y93.533 E60.72199
G1 X112.324 Y93.57 E60.79045
G1 X113.23 Y93.687 E60.85881
G1 X114.123 Y93.883 E60.92723
G1 X114.996 Y94.156 E60.99568
G1 X115.841 Y94.504 E61.06407
G1 X116.652 Y94.925 E61.13245
G1 X117.424 Y95.415 E61.20088
G1 X118.15 Y95.97 E61.26927
G1 X118.825 Y96.587 E61.3377
G1 X119.443 Y97.261 E61.40613
G1 X120.121 Y98.163 E61.49058
G1 X120.559 Y98.819 E61.54961
G1 X122.195 Y101.349 E61.77508
G1 X122.557 Y101.929 E61.82624
G1 X123.007 Y102.725 E61.89467
M73 P12
G1 X123.385 Y103.557 E61.96306
G1 X123.689 Y104.419 E62.03146
G1 X123.917 Y105.304 E62.09985
G1 X124.066 Y106.206 E62.16827
G1 X124.141 Y107.308 E62.25093
G1 X124.184 Y110.251 E62.47119
G1 X124.214 Y111.447 E62.56072
G1 X124.219 Y112.382 E62.63069
G1 X124.182 Y113.296 E62.69915
G1 X124.065 Y114.202 E62.76751
G1 X123.869 Y115.095 E62.83593
G1 X123.596 Y115.967 E62.90431
G1 X123.247 Y116.813 E62.9728
G1 X122.939 Y117.423 E63.02394
G1 X122.63 Y117.971 E63.07102
G1 X120.899 Y120.863 E63.32325
G1 X120.521 Y121.472 E63.37689
G1 X120.005 Y122.227 E63.44532
G1 X119.426 Y122.934 E63.51371
G1 X118.786 Y123.587 E63.58213
G1 X118.093 Y124.182 E63.65049
G1 X117.35 Y124.715 E63.71892
G1 X116.563 Y125.18 E63.78732
G1 X115.738 Y125.575 E63.85578
G1 X114.882 Y125.896 E63.92419
G1 X114.002 Y126.141 E63.99255
G1 X113.103 Y126.308 E64.06098
G1 X112.038 Y126.403 E64.14099
G1 X111.302 Y126.429 E64.19611
G1 X109.252 Y126.465 E64.34954
G1 X108.59 Y126.467 E64.39908
G1 X107.676 Y126.43 E64.46754
G1 X106.77 Y126.313 E64.5359
G1 X105.877 Y126.117 E64.60432
G1 X105.004 Y125.844 E64.67277
M73 P13
G1 X104.159 Y125.496 E64.74116
G1 X103.348 Y125.075 E64.80954
G1 X102.576 Y124.585 E64.87797
G1 X101.85 Y124.03 E64.94636
G1 X101.175 Y123.413 E65.0148
G1 X100.557 Y122.739 E65.08323
G1 X99.878 Y121.836 E65.16778
G1 X99.421 Y121.152 E65.22934
G1 X97.804 Y118.651 E65.45221
G1 X97.452 Y118.087 E65.50197
G1 X97.002 Y117.291 E65.5704
G1 X96.624 Y116.459 E65.63878
G1 X96.32 Y115.597 E65.70718
G1 X96.092 Y114.711 E65.77565
G1 X95.943 Y113.81 E65.84399
G1 X95.887 Y113.197 E65.89006
G1 X95.856 Y112.526 E65.94032
G1 X95.783 Y108.296 E66.25693
G1 X95.783 Y107.583 E66.31028
G1 X95.823 Y106.67 E66.37867
G1 X95.943 Y105.764 E66.44707
G1 X96.141 Y104.871 E66.51552
G1 X96.417 Y104 E66.58389
G1 X96.767 Y103.155 E66.65234
G1 X97.158 Y102.401 E66.7159
G1 X97.503 Y101.802 E66.76763
G1 X99.025 Y99.263 E66.98916
G1 X99.468 Y98.545 E67.0523
G1 X99.982 Y97.789 E67.12071
G1 X100.56 Y97.081 E67.18911
G1 F2700 E62.18911
G1 F300 Z0.92
;MESH:polyclip-x-4.stl
EXCLUDE_OBJECT_START NAME=polyclip_x_4_stl
G0 F7500 X109.037 Y115.117 Z0.92
;TYPE:WALL-INNER
M73 P14
G1 F300 Z0.72
G1 F2700 E67.18911
G1 F1125 X111.132 Y115.078 E67.34591
G1 X112.851 Y112.215 E67.59582
G1 X110.175 Y112.265 E67.79611
G1 X109.836 Y112.129 E67.82345
G1 X109.646 Y111.974 E67.8418
G1 X109.478 Y111.713 E67.86503
G1 X109.409 Y111.49 E67.8825
G1 X109.362 Y108.731 E68.089
G1 X109.397 Y108.461 E68.10937
G1 X109.581 Y108.125 E68.13804
G1 X109.782 Y107.952 E68.15789
G1 X110.106 Y107.817 E68.18415
G1 X112.8 Y107.769 E68.38579
G1 X112.799 Y107.721 E68.38938
G1 X110.962 Y104.884 E68.64231
G1 X108.868 Y104.922 E68.79904
G1 X107.126 Y107.827 E69.05253
G1 X107.202 Y112.28 E69.38582
G1 X109.037 Y115.117 E69.63867
G0 F7500 X108.715 Y115.723
;TYPE:WALL-OUTER
G1 F1125 X111.476 Y115.672 E69.84533
G1 X113.477 Y112.336 E70.13644
G1 X113.464 Y111.604 E70.19123
G1 X110.264 Y111.663 E70.43074
G1 X110.086 Y111.566 E70.44591
G1 X110.012 Y111.418 E70.4583
G1 X109.961 Y108.652 E70.66533
G1 X110.035 Y108.518 E70.67678
G1 X110.193 Y108.422 E70.69062
G1 X113.41 Y108.358 E70.93141
G1 X113.396 Y107.539 E70.99271
G1 X111.285 Y104.278 E71.28342
M73 P15
G1 X108.524 Y104.328 E71.49007
G1 X106.523 Y107.665 E71.78125
G1 X106.605 Y112.462 E72.14029
G1 X108.715 Y115.723 E72.43096
