;FLAVOR:Marlin
M73 P0


; Pre-Processed for Cancel-Object support by preprocess_cancellation v0.2.0
; 1 known objects
EXCLUDE_OBJECT_DEFINE NAME=power_supply_fan_silencer_timqui_stl CENTER=108.763,96.921 POLYGON=[[67.367,47.996],[67.367,172.359],[152.634,172.359],[152.634,47.996]]
M117 Time Left 1h22m33s
;TIME:4953
;Filament used: 7.34161m
;Layer height: 0.3
;MINX:65.567
;MINY:46.196
;MINZ:0.42
;MAXX:154.434
;MAXY:174.159
;MAXZ:12.32
;TARGET_MACHINE.NAME:Creality Ender-3
;POSTPROCESSED
;  [InsertAtLayerChange]
;  [MeshPrintSize]
;  [DisplayProgressOnLCD]
;  [DisplayFilenameAndLayerOnLCD]
;Generated with Cura_SteamEngine 5.6.0
M82 ;absolute extrusion mode
;Nozzle diameter = 0.6
;Filament type = PLA
;Filament name = Purple/Pink
START_PRINT PRINT_MIN=65.567,46.196 PRINT_MAX=154.434,174.159 BED_TEMP=65 EXTRUDER_TEMP=200.0
G92 E0
G92 E0
G1 F2700 E-5
;LAYER_COUNT:40
TIMELAPSE_TAKE_FRAME
;LAYER:0
M117 Printing power_supply_fan_silencer_timqui - Layer 0 of 39
M107
G1 F300 Z0.62
G0 F6000 X76.562 Y63.392 Z0.62
;TYPE:SKIRT
G1 F300 Z0.42
G1 F2700 E0
G1 F600 X77.16 Y62.676 E0.14661
G1 X77.937 Y61.785 E0.33239
G1 X78.62 Y61.047 E0.49042
G1 X79.389 Y60.252 E0.66424
G1 X80.163 Y59.492 E0.83472
G1 X80.994 Y58.716 E1.0134
G1 X81.783 Y58.019 E1.17885
G1 X82.92 Y57.065 E1.4121
G1 X84.255 Y56.028 E1.67776
G1 X85.138 Y55.391 E1.84886
G1 X86.347 Y54.568 E2.07871
G1 X87.82 Y53.642 E2.35214
G1 X88.67 Y53.148 E2.50664
G1 X89.691 Y52.585 E2.68987
G1 X90.096 Y52.373 E2.76171
G1 X91.775 Y51.541 E3.05619
G1 X92.717 Y51.118 E3.21847
G1 X93.866 Y50.634 E3.41441
G1 X94.702 Y50.308 E3.55543
G1 X95.772 Y49.917 E3.73446
G1 X96.779 Y49.58 E3.90134
G1 X97.964 Y49.216 E4.09615
G1 X98.769 Y48.993 E4.22743
G1 X100.072 Y48.661 E4.43874
G1 X100.875 Y48.48 E4.5681
G1 X102.04 Y48.243 E4.75494
G1 X103.181 Y48.046 E4.9369
G1 X104.388 Y47.866 E5.12868
G1 X105.183 Y47.771 E5.25451
G1 X106.484 Y47.643 E5.45995
G1 X107.209 Y47.592 E5.57417
G1 X108.613 Y47.522 E5.79509
G1 X109.559 Y47.505 E5.94378
G1 X110.83 Y47.508 E6.14353
G1 X111.734 Y47.538 E6.28567
G1 X112.784 Y47.588 E6.45087
G1 X115.318 Y47.675 E6.84933
G1 X117.838 Y47.689 E7.24537
G1 X120.319 Y47.633 E7.63537
G1 X122.805 Y47.507 E8.02655
G1 X125.226 Y47.315 E8.40822
G1 X127.718 Y47.046 E8.80212
G1 X131.366 Y46.525 E9.38124
G1 X132.033 Y46.417 E9.48743
G1 X133.043 Y46.288 E9.64744
G1 X134.079 Y46.215 E9.81066
G1 X134.856 Y46.196 E9.9328
G1 X135.733 Y46.207 E10.07064
G1 X136.352 Y46.239 E10.16804
G1 X137.089 Y46.303 E10.2843
G1 X137.94 Y46.417 E10.41924
G1 X138.541 Y46.517 E10.51498
G1 X139.461 Y46.711 E10.66274
G1 X140.235 Y46.912 E10.78842
G1 X141.092 Y47.173 E10.92921
G1 X141.782 Y47.415 E11.04412
G1 X142.73 Y47.796 E11.20468
G1 X143.261 Y48.038 E11.29639
G1 X143.917 Y48.357 E11.41102
G1 X144.709 Y48.792 E11.55303
M117 Time Left 1h22m18s
G1 X145.295 Y49.145 E11.66054
G1 X145.911 Y49.543 E11.77579
G1 X146.252 Y49.779 E11.84097
G1 X146.725 Y50.126 E11.93316
G1 X147.41 Y50.67 E12.07063
G1 X147.783 Y50.986 E12.14745
G1 X148.606 Y51.755 E12.32446
G1 X149.367 Y52.546 E12.49696
G1 X150.141 Y53.441 E12.68292
G1 X150.588 Y54.021 E12.79799
G1 X150.891 Y54.437 E12.87887
G1 X151.372 Y55.155 E13.01469
G1 X151.836 Y55.925 E13.15597
G1 X152.073 Y56.343 E13.23149
G1 X152.399 Y56.963 E13.34157
G1 X152.715 Y57.631 E13.4577
G1 X152.892 Y58.033 E13.52673
G1 X153.278 Y59.029 E13.6946
G1 X153.513 Y59.725 E13.81005
G1 X153.712 Y60.378 E13.91733
G1 X153.907 Y61.125 E14.03866
G1 X154.072 Y61.889 E14.16149
G1 X154.154 Y62.327 E14.23152
G1 X154.304 Y63.386 E14.39961
G1 X154.359 Y63.949 E14.48851
G1 X154.411 Y64.674 E14.60273
G1 X154.434 Y65.525 E14.73652
G1 X154.429 Y65.922 E14.79892
G1 X154.398 Y66.772 E14.93259
G1 X154.337 Y67.563 E15.05726
G1 X154.234 Y68.405 E15.19058
G1 X153.955 Y70.216 E15.47854
G1 X153.598 Y72.798 E15.88817
G1 X153.33 Y75.258 E16.27706
G1 X153.132 Y77.683 E16.65942
G1 X152.999 Y80.222 E17.05899
G1 X152.94 Y82.697 E17.44805
G1 X152.949 Y85.145 E17.83277
G1 X153.029 Y87.619 E18.22177
G1 X153.08 Y88.605 E18.37693
G1 X153.107 Y89.489 E18.51592
G1 X153.126 Y91.04 E18.75969
G1 X153.131 Y159.633 E29.53936
G1 X153.12 Y160.393 E29.65881
G1 X153.047 Y161.544 E29.84006
G1 X152.886 Y162.6 E30.00793
G1 X152.675 Y163.49 E30.15167
G1 X152.285 Y164.661 E30.34564
G1 X152.035 Y165.297 E30.45303
G1 X151.611 Y166.242 E30.61581
G1 X151.051 Y167.246 E30.79648
G1 X150.465 Y168.106 E30.96002
G1 X150.068 Y168.611 E31.06097
G1 X149.612 Y169.159 E31.17301
G1 X148.945 Y169.894 E31.32899
G1 X148.039 Y170.73 E31.52272
G1 X147.181 Y171.384 E31.69227
G1 X146.277 Y171.956 E31.86038
G1 X145.572 Y172.357 E31.98785
G1 X144.959 Y172.685 E32.09711
G1 X144.092 Y173.095 E32.24783
G1 X142.939 Y173.521 E32.441
G1 X141.905 Y173.797 E32.60918
G1 X140.941 Y173.969 E32.76307
G1 X140.161 Y174.052 E32.88634
G1 X139.246 Y174.111 E33.03044
G1 X138.46 Y174.141 E33.15405
G1 X137.761 Y174.151 E33.26391
M117 Time Left 1h22m03s
G1 X137.141 Y174.138 E33.36137
G1 X135.526 Y174.062 E33.61546
G1 X134.43 Y173.956 E33.7885
G1 X133.241 Y173.784 E33.9773
G1 X130.666 Y173.45 E34.38536
G1 X128.257 Y173.207 E34.76587
G1 X125.71 Y173.023 E35.16718
G1 X123.29 Y172.917 E35.54786
G1 X120.522 Y172.875 E35.98291
G1 X111.971 Y172.875 E37.32674
G1 X109.379 Y172.912 E37.73412
G1 X106.925 Y173.016 E38.12013
G1 X104.431 Y173.193 E38.51306
G1 X101.947 Y173.439 E38.90534
G1 X98.886 Y173.84 E39.39049
G1 X98.026 Y173.967 E39.52711
G1 X97.008 Y174.068 E39.68788
G1 X95.345 Y174.151 E39.94955
G1 X94.444 Y174.159 E40.09116
G1 X93.285 Y174.123 E40.27339
G1 X92.31 Y174.05 E40.42704
G1 X91.587 Y173.944 E40.54188
G1 X90.959 Y173.832 E40.64213
G1 X89.874 Y173.584 E40.81704
G1 X88.826 Y173.241 E40.99033
G1 X87.515 Y172.662 E41.21556
G1 X87.014 Y172.402 E41.30426
G1 X86.317 Y172.015 E41.42955
G1 X85.437 Y171.463 E41.5928
G1 X84.584 Y170.82 E41.76068
G1 X83.895 Y170.207 E41.90561
G1 X83.434 Y169.76 E42.00652
G1 X82.753 Y169.038 E42.16249
G1 X82.134 Y168.264 E42.31825
G1 X81.473 Y167.269 E42.50597
G1 X81.194 Y166.775 E42.59514
G1 X80.833 Y166.081 E42.71807
G1 X80.607 Y165.618 E42.79904
G1 X80.168 Y164.596 E42.97384
G1 X79.834 Y163.581 E43.14177
G1 X79.605 Y162.614 E43.29794
G1 X79.445 Y161.545 E43.46781
G1 X79.169 Y158.827 E43.89715
G1 X78.852 Y156.398 E44.28212
G1 X78.456 Y153.914 E44.67742
G1 X78.003 Y151.508 E45.06217
G1 X77.468 Y149.037 E45.4595
G1 X76.883 Y146.682 E45.84084
G1 X76.205 Y144.238 E46.23943
G1 X75.487 Y141.91 E46.62229
G1 X74.692 Y139.572 E47.01038
G1 X73.811 Y137.199 E47.40818
G1 X72.905 Y134.959 E47.78791
G1 X71.872 Y132.597 E48.19305
G1 X70.832 Y130.391 E48.57633
G1 X69.707 Y128.169 E48.96773
G1 X68.462 Y125.875 E49.37792
G1 X67.816 Y124.708 E49.58754
G1 X67.507 Y124.091 E49.69598
G1 X67.272 Y123.591 E49.78281
G1 X66.871 Y122.628 E49.94674
G1 X66.592 Y121.859 E50.0753
G1 X66.294 Y120.898 E50.23342
G1 X66.13 Y120.266 E50.33603
G1 X65.963 Y119.541 E50.45295
G1 X65.815 Y118.75 E50.57942
G1 X65.724 Y118.107 E50.68148
M117 Time Left 1h21m48s
G1 X65.656 Y117.516 E50.77497
G1 X65.587 Y116.56 E50.9256
G1 X65.572 Y116.042 E51.00704
G1 X65.567 Y115.36 E51.11422
G1 X65.602 Y114.424 E51.26142
G1 X65.662 Y113.693 E51.37668
G1 X65.714 Y113.211 E51.45287
G1 X65.8 Y112.584 E51.55233
G1 X66.263 Y109.559 E52.03326
G1 X66.56 Y107.135 E52.41705
G1 X66.792 Y104.664 E52.80708
G1 X66.956 Y102.149 E53.20317
G1 X67.044 Y99.745 E53.58122
G1 X67.066 Y97.236 E53.97553
G1 X67.016 Y94.695 E54.37494
G1 X66.889 Y91.647 E54.85436
G1 X66.878 Y90.632 E55.01388
G1 X66.884 Y89.777 E55.14825
G1 X66.915 Y88.818 E55.29904
M73 P1
G1 X67.013 Y87.215 E55.55143
G1 X67.096 Y86.306 E55.69488
G1 X67.226 Y85.151 E55.87753
G1 X67.362 Y84.19 E56.03006
G1 X67.552 Y83.02 E56.21634
G1 X67.741 Y82.031 E56.37458
G1 X67.999 Y80.84 E56.56609
G1 X68.215 Y79.973 E56.70651
G1 X68.561 Y78.697 E56.91428
G1 X68.831 Y77.797 E57.06195
G1 X69.192 Y76.679 E57.24658
G1 X69.421 Y76.03 E57.35473
G1 X69.934 Y74.671 E57.58302
G1 X70.299 Y73.789 E57.73303
G1 X70.805 Y72.643 E57.9299
G1 X71.225 Y71.758 E58.08385
G1 X71.796 Y70.625 E58.28324
G1 X72.206 Y69.861 E58.4195
G1 X72.63 Y69.103 E58.55599
G1 X73.299 Y67.985 E58.76075
G1 X73.944 Y66.969 E58.94987
G1 X74.475 Y66.182 E59.09907
G1 X75.214 Y65.139 E59.29996
G1 X75.824 Y64.328 E59.45944
G1 X76.562 Y63.392 E59.64676
G0 F6000 X77.253 Y63.969
G1 F600 X77.839 Y63.267 E59.79046
G1 X78.598 Y62.396 E59.97202
G1 X79.267 Y61.672 E60.12694
G1 X80.019 Y60.894 E60.29699
G1 X80.778 Y60.149 E60.46413
G1 X81.59 Y59.39 E60.6388
G1 X82.362 Y58.708 E60.80069
G1 X83.472 Y57.776 E61.02846
G1 X84.782 Y56.758 E61.28919
G1 X85.645 Y56.135 E61.45646
G1 X86.826 Y55.33 E61.68108
G1 X88.273 Y54.42 E61.94971
G1 X89.105 Y53.936 E62.10098
G1 X90.108 Y53.382 E62.28105
G1 X90.496 Y53.179 E62.34986
G1 X92.144 Y52.362 E62.63893
G1 X93.067 Y51.947 E62.79797
G1 X94.193 Y51.472 E62.99003
G1 X95.011 Y51.153 E63.12801
G1 X96.058 Y50.77 E63.30322
G1 X97.043 Y50.44 E63.46647
G1 X98.205 Y50.083 E63.65751
G1 X98.991 Y49.865 E63.78569
M117 Time Left 1h21m33s
G1 X100.27 Y49.539 E63.99312
G1 X101.054 Y49.362 E64.11943
G1 X102.194 Y49.13 E64.30226
G1 X103.314 Y48.936 E64.48089
G1 X104.495 Y48.76 E64.66854
G1 X105.271 Y48.667 E64.79136
G1 X106.547 Y48.541 E64.99287
G1 X107.254 Y48.491 E65.10425
G1 X108.63 Y48.422 E65.32077
G1 X109.557 Y48.405 E65.46648
G1 X110.801 Y48.408 E65.66198
G1 X111.691 Y48.437 E65.80192
G1 X112.741 Y48.487 E65.96712
G1 X115.313 Y48.575 E66.37155
G1 X117.853 Y48.589 E66.77073
G1 X120.35 Y48.533 E67.16324
G1 X122.851 Y48.406 E67.55679
G1 X125.323 Y48.21 E67.9465
G1 X127.823 Y47.94 E68.34167
G1 X131.493 Y47.416 E68.92427
G1 X132.148 Y47.31 E69.02855
G1 X133.107 Y47.186 E69.18051
G1 X134.102 Y47.115 E69.33728
G1 X134.845 Y47.096 E69.45408
G1 X135.687 Y47.106 E69.58641
G1 X136.274 Y47.136 E69.67878
G1 X137.011 Y47.2 E69.79504
G1 X137.793 Y47.305 E69.91904
G1 X138.355 Y47.398 E70.00856
G1 X139.275 Y47.592 E70.15632
G1 X139.973 Y47.773 E70.26964
G1 X140.83 Y48.034 E70.41043
G1 X141.447 Y48.25 E70.51317
G1 X142.357 Y48.615 E70.66725
G1 X142.869 Y48.848 E70.75566
G1 X143.484 Y49.146 E70.86305
G1 X144.246 Y49.564 E70.99964
G1 X144.807 Y49.901 E71.10249
G1 X145.399 Y50.283 E71.21321
G1 X145.72 Y50.505 E71.27455
G1 X146.193 Y50.852 E71.36674
G1 X146.828 Y51.357 E71.49424
G1 X147.201 Y51.673 E71.57107
G1 X147.991 Y52.412 E71.74107
G1 X148.687 Y53.135 E71.89879
G1 X149.428 Y53.99 E72.07659
G1 X149.861 Y54.552 E72.18809
G1 X150.143 Y54.938 E72.26321
G1 X150.624 Y55.656 E72.39903
G1 X151.053 Y56.368 E72.52966
G1 X151.276 Y56.762 E72.60081
G1 X151.602 Y57.382 E72.7109
G1 X151.891 Y57.994 E72.81726
G1 X152.068 Y58.396 E72.88629
G1 X152.439 Y59.354 E73.04774
G1 X152.652 Y59.989 E73.15299
G1 X152.841 Y60.606 E73.25441
G1 X153.027 Y61.315 E73.3696
G1 X153.187 Y62.055 E73.48858
G1 X153.269 Y62.493 E73.55861
G1 X153.408 Y63.474 E73.71432
G1 X153.461 Y64.015 E73.79974
G1 X153.511 Y64.699 E73.90753
G1 X153.534 Y65.515 E74.03581
G1 X153.53 Y65.89 E74.09475
G1 X153.501 Y66.704 E74.22275
G1 X153.444 Y67.453 E74.3408
G1 X153.344 Y68.268 E74.46984
M117 Time Left 1h21m18s
G1 X153.065 Y70.079 E74.75781
G1 X152.706 Y72.675 E75.16966
G1 X152.435 Y75.16 E75.56251
G1 X152.233 Y77.636 E75.95291
G1 X152.1 Y80.175 E76.35247
G1 X152.04 Y82.675 E76.74547
G1 X152.049 Y85.174 E77.1382
G1 X152.13 Y87.665 E77.52988
G1 X152.18 Y88.633 E77.68221
G1 X152.207 Y89.5 E77.81853
G1 X152.226 Y91.04 E78.06056
G1 X152.231 Y159.62 E88.83819
G1 X152.22 Y160.38 E88.95764
G1 X152.157 Y161.411 E89.11997
G1 X152.01 Y162.392 E89.27586
G1 X151.799 Y163.282 E89.41961
G1 X151.447 Y164.332 E89.59364
G1 X151.197 Y164.968 E89.70104
G1 X150.79 Y165.873 E89.85698
G1 X150.306 Y166.741 E90.01317
G1 X149.757 Y167.55 E90.16681
G1 X149.376 Y168.035 E90.26374
G1 X148.92 Y168.583 E90.37578
G1 X148.279 Y169.289 E90.52564
G1 X147.491 Y170.016 E90.69413
G1 X146.7 Y170.623 E90.85082
G1 X145.796 Y171.195 E91.01894
G1 X145.147 Y171.563 E91.13619
G1 X144.534 Y171.891 E91.24544
G1 X143.708 Y172.281 E91.389
G1 X142.704 Y172.652 E91.55721
G1 X141.745 Y172.911 E91.71332
G1 X140.845 Y173.074 E91.85706
G1 X140.102 Y173.154 E91.9745
G1 X139.212 Y173.212 E92.11466
G1 X138.447 Y173.241 E92.23497
G1 X137.779 Y173.251 E92.33996
G1 X137.183 Y173.239 E92.43364
G1 X135.612 Y173.166 E92.6808
G1 X134.558 Y173.065 E92.8472
G1 X133.369 Y172.894 E93.03598
G1 X130.769 Y172.556 E93.44802
G1 X128.322 Y172.309 E93.83453
G1 X125.775 Y172.125 E94.23584
G1 X123.307 Y172.017 E94.62407
G1 X120.536 Y171.975 E95.05959
G1 X111.958 Y171.975 E96.40766
G1 X109.364 Y172.012 E96.81536
G1 X106.861 Y172.118 E97.20907
G1 X104.35 Y172.296 E97.60467
G1 X101.858 Y172.543 E97.99822
G1 X98.754 Y172.95 E98.4902
G1 X97.937 Y173.071 E98.62
G1 X96.919 Y173.172 E98.78077
G1 X95.337 Y173.251 E99.02969
G1 X94.471 Y173.259 E99.1658
G1 X93.35 Y173.225 E99.34205
G1 X92.439 Y173.159 E99.48559
G1 X91.744 Y173.058 E99.59596
G1 X91.157 Y172.954 E99.68964
G1 X90.15 Y172.727 E99.85187
G1 X89.188 Y172.417 E100.01071
G1 X87.929 Y171.863 E100.22687
G1 X87.451 Y171.615 E100.3115
G1 X86.754 Y171.228 E100.43679
G1 X85.979 Y170.744 E100.58038
G1 X85.126 Y170.101 E100.74826
M117 Time Left 1h21m03s
G1 X84.521 Y169.56 E100.8758
G1 X84.089 Y169.142 E100.97027
G1 X83.408 Y168.42 E101.12625
G1 X82.839 Y167.704 E101.26997
G1 X82.257 Y166.826 E101.43552
G1 X81.978 Y166.332 E101.52468
G1 X81.642 Y165.686 E101.63911
G1 X81.416 Y165.223 E101.72008
G1 X81.022 Y164.312 E101.87606
G1 X80.709 Y163.37 E102.03206
G1 X80.495 Y162.481 E102.17576
G1 X80.335 Y161.412 E102.34563
G1 X80.064 Y158.736 E102.76832
G1 X79.741 Y156.256 E103.16136
G1 X79.345 Y153.772 E103.55666
G1 X78.883 Y151.317 E103.94924
G1 X78.347 Y148.846 E104.3466
G1 X77.75 Y146.441 E104.73603
G1 X77.072 Y143.997 E105.13462
G1 X76.339 Y141.62 E105.52553
G1 X75.536 Y139.259 E105.91745
G1 X74.655 Y136.886 E106.31525
G1 X73.73 Y134.598 E106.70309
G1 X72.697 Y132.236 E107.10823
G1 X71.646 Y130.007 E107.49552
G1 X70.51 Y127.763 E107.89078
G1 X69.253 Y125.446 E108.30504
G1 X68.621 Y124.306 E108.50989
G1 X68.322 Y123.708 E108.61496
G1 X68.087 Y123.208 E108.70178
G1 X67.702 Y122.282 E108.85938
G1 X67.452 Y121.592 E108.97472
G1 X67.154 Y120.631 E109.13284
G1 X67.007 Y120.063 E109.22504
G1 X66.848 Y119.375 E109.33601
G1 X66.7 Y118.584 E109.46248
G1 X66.618 Y118.004 E109.55454
G1 X66.554 Y117.45 E109.64218
M73 P2
G1 X66.487 Y116.533 E109.78667
G1 X66.472 Y116.035 E109.86497
G1 X66.467 Y115.353 E109.97215
G1 X66.499 Y114.497 E110.10677
G1 X66.557 Y113.789 E110.21841
G1 X66.606 Y113.333 E110.29048
G1 X66.69 Y112.72 E110.38772
G1 X67.153 Y109.695 E110.86865
G1 X67.456 Y107.221 E111.26035
G1 X67.688 Y104.748 E111.6507
G1 X67.854 Y102.208 E112.05072
G1 X67.944 Y99.753 E112.4368
G1 X67.966 Y97.218 E112.8352
G1 X67.916 Y94.677 E113.2346
G1 X67.789 Y91.637 E113.71277
G1 X67.778 Y90.638 E113.86977
G1 X67.784 Y89.806 E114.00053
G1 X67.815 Y88.847 E114.15132
G1 X67.909 Y87.297 E114.39536
G1 X67.99 Y86.407 E114.5358
G1 X68.117 Y85.277 E114.7145
G1 X68.25 Y84.334 E114.86417
G1 X68.436 Y83.189 E115.04647
G1 X68.621 Y82.222 E115.20119
G1 X68.879 Y81.031 E115.3927
G1 X69.084 Y80.208 E115.52599
G1 X69.423 Y78.955 E115.72999
G1 X69.687 Y78.074 E115.87452
G1 X70.041 Y76.978 E116.05552
G1 X70.263 Y76.348 E116.1605
M117 Time Left 1h20m48s
G1 X70.766 Y75.015 E116.3844
G1 X71.131 Y74.133 E116.53441
G1 X71.618 Y73.029 E116.72404
G1 X72.029 Y72.163 E116.87469
G1 X72.589 Y71.051 E117.07035
G1 X72.992 Y70.3 E117.20429
G1 X73.403 Y69.565 E117.33663
G1 X74.059 Y68.467 E117.53764
G1 X74.69 Y67.472 E117.7228
G1 X75.209 Y66.702 E117.86873
G1 X75.933 Y65.68 E118.06556
G1 X76.531 Y64.885 E118.2219
G1 X77.253 Y63.969 E118.40519
G0 F6000 X77.944 Y64.546
G1 F600 X78.518 Y63.858 E118.546
G1 X79.26 Y63.006 E118.72356
G1 X79.914 Y62.297 E118.87514
G1 X80.649 Y61.536 E119.04141
G1 X81.393 Y60.806 E119.20522
G1 X82.186 Y60.064 E119.37589
G1 X82.941 Y59.397 E119.53421
G1 X84.024 Y58.487 E119.75651
G1 X85.309 Y57.488 E120.0123
G1 X86.172 Y56.865 E120.17958
G1 X87.305 Y56.092 E120.39512
G1 X88.726 Y55.198 E120.65896
G1 X89.54 Y54.724 E120.80699
G1 X90.527 Y54.179 E120.98418
G1 X90.896 Y53.985 E121.04969
G1 X92.513 Y53.183 E121.33335
