;FLAVOR:Marlin
M73 P0


; Pre-Processed for Cancel-Object support by preprocess_cancellation v0.2.0
; 1 known objects
EXCLUDE_OBJECT_DEFINE NAME=rabbit_009__stl CENTER=111.707,109.978 POLYGON=[[82.441,91.252],[82.441,128.752],[133.874,128.752],[133.874,91.252]]
M117 Time Left 0h31m20s
;TIME:1880
;Filament used: 1.81638m
;Layer height: 0.2
;MINX:80.641
;MINY:89.452
;MINZ:0.32
;MAXX:135.674
;MAXY:130.552
;MAXZ:42.72
;TARGET_MACHINE.NAME:Creality Ender-3
;POSTPROCESSED
;  [InsertAtLayerChange]
;  [MeshPrintSize]
;  [DisplayProgressOnLCD]
;  [DisplayFilenameAndLayerOnLCD]
;Generated with Cura_SteamEngine 5.6.0
M82 ;absolute extrusion mode
;Nozzle diameter = 0.6
;Filament type = PLA
;Filament name = Purple/Pink
START_PRINT PRINT_MIN=80.641,89.452 PRINT_MAX=135.674,130.552 BED_TEMP=65 EXTRUDER_TEMP=210.0
G92 E0
G92 E0
G1 F2700 E-5
;LAYER_COUNT:212
TIMELAPSE_TAKE_FRAME
;LAYER:0
M117 Printing rabbit_009_ - Layer 0 of 211
M107
G1 F300 Z0.52
G0 F6000 X88.569 Y94.57 Z0.52
;TYPE:SKIRT
G1 F300 Z0.32
G1 F2700 E0
G1 F600 X88.889 Y94.285 E0.05131
G1 X89.836 Y93.524 E0.19677
G1 X90.421 Y93.104 E0.283
G1 X91.272 Y92.549 E0.40465
G1 X91.813 Y92.245 E0.47896
G1 X92.3 Y91.989 E0.54483
G1 X93.246 Y91.544 E0.67001
G1 X93.75 Y91.334 E0.73539
G1 X94.447 Y91.066 E0.8248
G1 X95.081 Y90.854 E0.90485
G1 X95.849 Y90.635 E1.00047
G1 X96.764 Y90.411 E1.11326
G1 X97.698 Y90.221 E1.22739
G1 X98.601 Y90.061 E1.33719
G1 X100.511 Y89.776 E1.56842
G1 X101.511 Y89.654 E1.68905
G1 X102.059 Y89.601 E1.75497
G1 X103.356 Y89.509 E1.91066
G1 X104.553 Y89.459 E2.05411
G1 X106.014 Y89.452 E2.22904
G1 X106.93 Y89.477 E2.33876
G1 X108.011 Y89.544 E2.46845
G1 X108.618 Y89.603 E2.54147
G1 X109.97 Y89.767 E2.70454
G1 X110.932 Y89.914 E2.82106
G1 X111.758 Y90.07 E2.92171
G1 X112.318 Y90.194 E2.99039
G1 X113.159 Y90.402 E3.09412
G1 X113.902 Y90.612 E3.18657
G1 X115.209 Y91.024 E3.35066
G1 X117.7 Y91.771 E3.66204
G1 X120.102 Y92.417 E3.95987
G1 X122.18 Y92.915 E4.21573
G1 X124.299 Y93.403 E4.47609
G1 X124.888 Y93.556 E4.54896
G1 X125.668 Y93.795 E4.64664
G1 X126.058 Y93.931 E4.69609
G1 X127.294 Y94.437 E4.85601
G1 X127.794 Y94.678 E4.92247
G1 X128.829 Y95.242 E5.0636
G1 X129.159 Y95.444 E5.10993
G1 X130.039 Y96.04 E5.23719
G1 X130.756 Y96.61 E5.34686
G1 X131.124 Y96.929 E5.40518
G1 X131.901 Y97.669 E5.53365
G1 X132.595 Y98.455 E5.6592
G1 X133.127 Y99.156 E5.76457
G1 X133.676 Y99.976 E5.88273
G1 X134.106 Y100.737 E5.98739
G1 X134.266 Y101.049 E6.02937
G1 X134.681 Y101.951 E6.14826
G1 X135.069 Y103.035 E6.28612
G1 X135.326 Y104.016 E6.40754
G1 X135.419 Y104.458 E6.46162
G1 X135.581 Y105.438 E6.58056
G1 X135.668 Y106.548 E6.71387
G1 X135.674 Y107.116 E6.78189
G1 X135.633 Y109.97 E7.12365
G1 X135.672 Y112.727 E7.4538
G1 X135.652 Y113.677 E7.56757
G1 X135.551 Y114.8 E7.70258
G1 X135.378 Y115.774 E7.82103
G1 X135.115 Y116.78 E7.94553
G1 X135.008 Y117.125 E7.98878
G1 X134.615 Y118.203 E8.12617
G1 X134.233 Y119.033 E8.23557
G1 X133.432 Y120.392 E8.42445
G1 X133.157 Y120.794 E8.48277
G1 X132.536 Y121.618 E8.60632
G1 X131.741 Y122.497 E8.74823
G1 X130.653 Y123.472 E8.92315
G1 X130.264 Y123.779 E8.98249
G1 X129.374 Y124.415 E9.11347
G1 X128.537 Y124.921 E9.23058
G1 X127.443 Y125.483 E9.37784
G1 X126.711 Y125.806 E9.47364
G1 X125.589 Y126.228 E9.61718
G1 X125.152 Y126.366 E9.67205
G1 X124.258 Y126.607 E9.78291
G1 X122.107 Y127.095 E10.04701
G1 X119.647 Y127.696 E10.35023
G1 X117.153 Y128.381 E10.65991
G1 X115.128 Y128.995 E10.91328
G1 X113.879 Y129.389 E11.07009
G1 X113.203 Y129.586 E11.1544
G1 X112.545 Y129.751 E11.23563
G1 X111.549 Y129.97 E11.35773
G1 X110.809 Y130.107 E11.44784
G1 X109.68 Y130.272 E11.58446
G1 X108.414 Y130.415 E11.73701
G1 X107.5 Y130.493 E11.84685
G1 X106.927 Y130.523 E11.91555
G1 X105.751 Y130.552 E12.0564
G1 X104.622 Y130.545 E12.19159
G1 X103.581 Y130.508 E12.31631
G1 X102.532 Y130.44 E12.44218
G1 X101.654 Y130.359 E12.54776
G1 X100.267 Y130.194 E12.715
G1 X99.177 Y130.034 E12.84691
G1 X98.23 Y129.876 E12.96187
G1 X97.211 Y129.685 E13.08601
G1 X96.211 Y129.461 E13.20871
G1 X95.494 Y129.266 E13.29768
G1 X94.942 Y129.097 E13.3668
G1 X94.201 Y128.843 E13.4606
G1 X93.873 Y128.717 E13.50267
G1 X93.216 Y128.442 E13.58795
G1 X92.709 Y128.21 E13.65471
G1 X92.02 Y127.867 E13.74686
G1 X91.691 Y127.688 E13.79171
G1 X90.945 Y127.245 E13.8956
G1 X90.567 Y127 E13.94953
G1 X89.645 Y126.338 E14.08544
G1 X89.334 Y126.091 E14.13299
G1 X88.356 Y125.224 E14.28948
G1 X87.788 Y124.656 E14.38567
G1 X87.247 Y124.088 E14.47959
G1 X86.32 Y123.086 E14.64303
G1 X85.245 Y121.968 E14.82874
G1 X84.62 Y121.261 E14.94173
G1 X84.314 Y120.88 E15.00024
G1 X83.526 Y119.775 E15.16275
G1 X83.06 Y119.023 E15.26868
G1 X82.536 Y118.07 E15.3989
G1 X82.361 Y117.712 E15.44661
G1 X82.074 Y117.075 E15.53027
G1 X81.934 Y116.737 E15.57407
G1 X81.684 Y116.079 E15.65835
G1 X81.498 Y115.533 E15.72742
G1 X81.157 Y114.324 E15.87783
G1 X81.061 Y113.895 E15.93047
G1 X80.924 Y113.176 E16.01811
G1 X80.8 Y112.381 E16.11445
G1 X80.678 Y111.15 E16.26256
G1 X80.641 Y110.196 E16.37688
G1 X80.671 Y108.857 E16.53725
G1 X80.716 Y108.303 E16.6038
G1 X80.878 Y107.08 E16.75152
G1 X81.003 Y106.412 E16.83289
G1 X81.186 Y105.592 E16.93349
G1 X81.346 Y104.983 E17.00888
G1 X81.673 Y103.93 E17.1409
G1 X82.154 Y102.757 E17.2927
G1 X82.546 Y101.916 E17.4038
G1 X83.003 Y101.042 E17.5219
G1 X83.487 Y100.27 E17.631
G1 X83.794 Y99.825 E17.69573
G1 X84.199 Y99.271 E17.7779
G1 X84.482 Y98.91 E17.83282
G1 X85.07 Y98.219 E17.94146
G1 X85.491 Y97.764 E18.01569
M117 Time Left 0h31m05s
G1 X87.929 Y95.192 E18.44002
G1 X88.569 Y94.57 E18.54688
G0 F6000 X89.169 Y95.241
G1 F600 X89.453 Y94.987 E18.5925
G1 X90.4 Y94.226 E18.73796
G1 X90.913 Y93.858 E18.81356
G1 X91.764 Y93.303 E18.93521
G1 X92.232 Y93.042 E18.99937
G1 X92.719 Y92.786 E19.06525
G1 X93.592 Y92.375 E19.18078
G1 X94.074 Y92.174 E19.24331
G1 X94.732 Y91.92 E19.32776
G1 X95.366 Y91.708 E19.40781
G1 X96.063 Y91.509 E19.4946
G1 X96.944 Y91.293 E19.60321
G1 X97.855 Y91.107 E19.71454
G1 X98.734 Y90.951 E19.82144
G1 X100.62 Y90.669 E20.04977
G1 X101.598 Y90.55 E20.16774
G1 X102.123 Y90.499 E20.23089
G1 X103.394 Y90.408 E20.38347
G1 X104.557 Y90.359 E20.52284
G1 X105.989 Y90.352 E20.69431
G1 X106.905 Y90.377 E20.80403
G1 X107.925 Y90.44 E20.92639
G1 X108.509 Y90.496 E20.99664
G1 X109.834 Y90.657 E21.15646
G1 X110.796 Y90.804 E21.27298
G1 X111.564 Y90.949 E21.36656
G1 X112.102 Y91.068 E21.43254
G1 X112.943 Y91.276 E21.53627
G1 X113.631 Y91.47 E21.62186
G1 X114.95 Y91.886 E21.78746
G1 X117.45 Y92.636 E22.09998
G1 X119.876 Y93.288 E22.40077
G1 X121.978 Y93.792 E22.65959
G1 X124.073 Y94.274 E22.91699
G1 X124.662 Y94.427 E22.98986
G1 X125.375 Y94.646 E23.07917
G1 X125.718 Y94.764 E23.1226
G1 X126.904 Y95.248 E23.27598
G1 X127.364 Y95.469 E23.33708
G1 X128.359 Y96.01 E23.47269
G1 X128.689 Y96.212 E23.51902
G1 X129.48 Y96.745 E23.63323
G1 X130.168 Y97.291 E23.7384
G1 X130.506 Y97.583 E23.79188
G1 X131.228 Y98.266 E23.91088
G1 X131.879 Y99 E24.02835
G1 X132.379 Y99.657 E24.12721
G1 X132.928 Y100.477 E24.24537
G1 X133.306 Y101.149 E24.33769
G1 X133.448 Y101.425 E24.37485
G1 X133.863 Y102.327 E24.49374
G1 X134.198 Y103.263 E24.61277
G1 X134.455 Y104.244 E24.7342
G1 X134.531 Y104.605 E24.77837
G1 X134.693 Y105.585 E24.8973
G1 X134.768 Y106.558 E25.01415
G1 X134.774 Y107.103 E25.07941
G1 X134.733 Y109.957 E25.42118
G1 X134.751 Y111.661 E25.62522
G1 X134.772 Y112.708 E25.75061
G1 X134.752 Y113.658 E25.86438
G1 X134.664 Y114.646 E25.98315
G1 X134.507 Y115.547 E26.09266
G1 X134.255 Y116.513 E26.21219
G1 X134.148 Y116.858 E26.25545
G1 X133.797 Y117.827 E26.37885
G1 X133.415 Y118.657 E26.48825
G1 X132.688 Y119.885 E26.65912
G1 X132.438 Y120.252 E26.71229
G1 X131.817 Y121.076 E26.83583
G1 X131.139 Y121.828 E26.95707
G1 X130.095 Y122.766 E27.12512
G1 X129.706 Y123.073 E27.18445
G1 X128.907 Y123.646 E27.30218
G1 X128.126 Y124.12 E27.41157
G1 X127.032 Y124.682 E27.55884
G1 X126.393 Y124.964 E27.64247
G1 X125.317 Y125.37 E27.78017
G1 X124.917 Y125.497 E27.83042
G1 X124.058 Y125.729 E27.93696
G1 X121.907 Y126.218 E28.20108
G1 X119.414 Y126.827 E28.50837
G1 X116.915 Y127.513 E28.81866
M73 P1
G1 X114.867 Y128.134 E29.0749
G1 X113.627 Y128.525 E29.23058
G1 X112.983 Y128.713 E29.31091
G1 X112.351 Y128.872 E29.38894
G1 X111.385 Y129.085 E29.50739
G1 X110.679 Y129.216 E29.59336
G1 X109.55 Y129.381 E29.72998
G1 X108.337 Y129.518 E29.87614
G1 X107.452 Y129.594 E29.9825
G1 X106.904 Y129.623 E30.04821
G1 X105.756 Y129.652 E30.18571
G1 X104.654 Y129.646 E30.31766
G1 X103.639 Y129.61 E30.43927
G1 X102.615 Y129.544 E30.56214
G1 X101.76 Y129.465 E30.66495
G1 X100.373 Y129.3 E30.83219
G1 X99.325 Y129.146 E30.95902
G1 X98.396 Y128.991 E31.0718
G1 X97.377 Y128.8 E31.19593
G1 X96.446 Y128.592 E31.31016
G1 X95.756 Y128.405 E31.39575
G1 X95.234 Y128.246 E31.46109
G1 X94.523 Y128.002 E31.5511
G1 X94.22 Y127.886 E31.58995
G1 X93.59 Y127.623 E31.67169
G1 X93.11 Y127.404 E31.73486
G1 X92.448 Y127.075 E31.82338
G1 X92.15 Y126.914 E31.86393
G1 X91.433 Y126.489 E31.96373
G1 X91.091 Y126.268 E32.01249
G1 X90.205 Y125.633 E32.14301
G1 X89.894 Y125.386 E32.19056
G1 X88.992 Y124.588 E32.33476
G1 X88.44 Y124.036 E32.42823
G1 X87.908 Y123.477 E32.52063
G1 X86.981 Y122.475 E32.68408
G1 X85.919 Y121.372 E32.86741
G1 X85.32 Y120.695 E32.97565
G1 X85.047 Y120.357 E33.02767
G1 X84.259 Y119.252 E33.19018
G1 X83.849 Y118.589 E33.28352
G1 X83.325 Y117.636 E33.41374
G1 X83.171 Y117.319 E33.45594
G1 X82.905 Y116.73 E33.53332
G1 X82.775 Y116.417 E33.5739
G1 X82.535 Y115.787 E33.65462
G1 X82.364 Y115.288 E33.71778
G1 X82.035 Y114.126 E33.86239
G1 X81.945 Y113.726 E33.91148
G1 X81.813 Y113.036 E33.99559
G1 X81.696 Y112.292 E34.08577
G1 X81.574 Y111.061 E34.23389
G1 X81.541 Y110.215 E34.33527
G1 X81.568 Y108.93 E34.48916
G1 X81.613 Y108.376 E34.55571
G1 X81.763 Y107.246 E34.6922
G1 X81.888 Y106.578 E34.77357
G1 X82.057 Y105.82 E34.86656
G1 X82.206 Y105.25 E34.93711
G1 X82.533 Y104.197 E35.06913
G1 X82.97 Y103.137 E35.20641
G1 X83.345 Y102.331 E35.31285
G1 X83.766 Y101.52 E35.42226
G1 X84.25 Y100.748 E35.53136
G1 X84.521 Y100.355 E35.58852
G1 X84.907 Y99.826 E35.66693
G1 X85.168 Y99.493 E35.71759
G1 X85.731 Y98.83 E35.82174
G1 X86.144 Y98.383 E35.89461
G1 X88.557 Y95.837 E36.31462
G1 X89.169 Y95.241 E36.41691
G0 F6000 X89.772 Y95.909
M117 Time Left 0h30m50s
G1 F600 X90.017 Y95.688 E36.45642
G1 X90.925 Y94.957 E36.59599
G1 X91.438 Y94.589 E36.67159
G1 X92.203 Y94.089 E36.78101
G1 X92.652 Y93.838 E36.84261
G1 X93.103 Y93.6 E36.90366
G1 X93.94 Y93.205 E37.01448
G1 X94.398 Y93.013 E37.07395
G1 X95.019 Y92.773 E37.15366
G1 X95.614 Y92.573 E37.22882
G1 X96.277 Y92.383 E37.3114
G1 X97.125 Y92.175 E37.41595
G1 X98.013 Y91.993 E37.52449
G1 X98.868 Y91.841 E37.62847
G1 X100.728 Y91.562 E37.85367
G1 X101.685 Y91.446 E37.96909
G1 X102.188 Y91.397 E38.02961
G1 X103.432 Y91.307 E38.17895
G1 X104.561 Y91.259 E38.31425
G1 X105.964 Y91.252 E38.48225
G1 X106.88 Y91.277 E38.59196
G1 X107.84 Y91.336 E38.70713
G1 X108.4 Y91.389 E38.77448
G1 X109.698 Y91.547 E38.93105
G1 X110.63 Y91.689 E39.04393
G1 X111.37 Y91.828 E39.13408
G1 X111.886 Y91.942 E39.19736
G1 X112.727 Y92.15 E39.30109
G1 X113.36 Y92.328 E39.37982
G1 X114.692 Y92.748 E39.54705
G1 X117.21 Y93.503 E39.86181
G1 X119.65 Y94.159 E40.16434
G1 X121.776 Y94.669 E40.42612
G1 X123.848 Y95.145 E40.68068
G1 X124.398 Y95.287 E40.74869
G1 X125.085 Y95.498 E40.83475
G1 X125.379 Y95.598 E40.87193
G1 X126.516 Y96.06 E41.01888
G1 X126.935 Y96.26 E41.07447
G1 X127.889 Y96.778 E41.20445
G1 X128.219 Y96.98 E41.25078
G1 X128.977 Y97.491 E41.36024
G1 X129.581 Y97.973 E41.45276
G1 X129.89 Y98.239 E41.50158
G1 X130.556 Y98.865 E41.61102
G1 X131.164 Y99.547 E41.72042
G1 X131.633 Y100.16 E41.81284
G1 X132.144 Y100.918 E41.9223
G1 X132.507 Y101.563 E42.01092
G1 X132.632 Y101.804 E42.04343
G1 X133.017 Y102.633 E42.15287
G1 X133.328 Y103.492 E42.26226
G1 X133.575 Y104.432 E42.37863
G1 X133.644 Y104.755 E42.41818
G1 X133.796 Y105.656 E42.52758
G1 X133.868 Y106.568 E42.63712
G1 X133.874 Y107.09 E42.69963
G1 X133.833 Y109.944 E43.04139
G1 X133.851 Y111.68 E43.24927
G1 X133.872 Y112.691 E43.37035
G1 X133.855 Y113.581 E43.47693
G1 X133.777 Y114.492 E43.58641
G1 X133.62 Y115.393 E43.69592
G1 X133.395 Y116.246 E43.80155
G1 X133.288 Y116.591 E43.8448
G1 X132.979 Y117.451 E43.95422
G1 X132.597 Y118.281 E44.06362
G1 X131.944 Y119.378 E44.21648
G1 X131.694 Y119.745 E44.26965
G1 X131.146 Y120.477 E44.37914
G1 X130.537 Y121.159 E44.48862
G1 X129.537 Y122.06 E44.64978
G1 X129.179 Y122.343 E44.70443
G1 X128.438 Y122.878 E44.81386
G1 X127.715 Y123.319 E44.91526
G1 X126.621 Y123.881 E45.06253
G1 X126.075 Y124.122 E45.13399
G1 X124.999 Y124.528 E45.27169
G1 X124.682 Y124.628 E45.31149
G1 X123.858 Y124.851 E45.4137
G1 X121.707 Y125.341 E45.67785
G1 X119.176 Y125.959 E45.98981
G1 X116.677 Y126.645 E46.3001
G1 X114.606 Y127.273 E46.55923
G1 X113.375 Y127.661 E46.71377
G1 X112.762 Y127.84 E46.79023
G1 X112.157 Y127.993 E46.86496
G1 X111.22 Y128.2 E46.97985
G1 X110.549 Y128.325 E47.06158
G1 X109.42 Y128.49 E47.1982
G1 X108.259 Y128.621 E47.33809
G1 X107.404 Y128.695 E47.44085
G1 X106.881 Y128.723 E47.50356
G1 X105.76 Y128.752 E47.63783
G1 X104.686 Y128.747 E47.76643
G1 X103.697 Y128.712 E47.88492
G1 X102.698 Y128.648 E48.00479
G1 X101.866 Y128.571 E48.10483
G1 X100.479 Y128.406 E48.27208
G1 X99.473 Y128.258 E48.39383
G1 X98.562 Y128.106 E48.50442
G1 X97.543 Y127.915 E48.62855
G1 X96.681 Y127.723 E48.7343
G1 X96.018 Y127.544 E48.81652
G1 X95.525 Y127.394 E48.87823
G1 X94.844 Y127.161 E48.96441
G1 X94.566 Y127.055 E49.00003
G1 X93.963 Y126.804 E49.07824
G1 X93.51 Y126.598 E49.13782
G1 X92.875 Y126.283 E49.2227
G1 X92.608 Y126.139 E49.25902
G1 X91.92 Y125.732 E49.35473
G1 X91.615 Y125.536 E49.39814
G1 X90.765 Y124.928 E49.52328
G1 X90.454 Y124.681 E49.57083
G1 X89.628 Y123.951 E49.70282
G1 X89.092 Y123.416 E49.7935
G1 X88.569 Y122.866 E49.88437
G1 X87.642 Y121.864 E50.04782
G1 X86.593 Y120.775 E50.22887
G1 X86.018 Y120.126 E50.33269
G1 X85.78 Y119.834 E50.3778
G1 X84.992 Y118.729 E50.5403
G1 X84.637 Y118.155 E50.62111
G1 X84.134 Y117.241 E50.74603
G1 X83.991 Y116.948 E50.78507
G1 X83.736 Y116.384 E50.85918
G1 X83.616 Y116.096 E50.89654
G1 X83.386 Y115.493 E50.97381
G1 X83.23 Y115.042 E51.03095
G1 X82.913 Y113.928 E51.16963
G1 X82.829 Y113.556 E51.2153
G1 X82.702 Y112.895 E51.29589
G1 X82.592 Y112.203 E51.37979
G1 X82.47 Y110.972 E51.52791
G1 X82.441 Y110.233 E51.61646
G1 X82.465 Y109.001 E51.764
G1 X82.505 Y108.494 E51.8249
G1 X82.648 Y107.41 E51.95582
G1 X82.766 Y106.774 E52.03327
G1 X82.928 Y106.047 E52.12245
G1 X83.066 Y105.517 E52.18803
G1 X83.393 Y104.464 E52.32005
G1 X83.786 Y103.516 E52.44293
G1 X84.144 Y102.746 E52.5446
G1 X84.565 Y101.935 E52.65401
G1 X85.011 Y101.229 E52.754
G1 X85.247 Y100.886 E52.80386
G1 X85.617 Y100.38 E52.87891
G1 X85.855 Y100.075 E52.92523
G1 X86.393 Y99.44 E53.02489
G1 X86.797 Y99.002 E53.09623
G1 X89.186 Y96.481 E53.5121
G1 X89.772 Y95.909 E53.61015
G1 F2700 E48.61015
G1 F300 Z0.52
;MESH:rabbit_009_.stl
EXCLUDE_OBJECT_START NAME=rabbit_009__stl
G0 F6000 X106.031 Y116.887 Z0.52
;TYPE:WALL-INNER
M117 Time Left 0h30m35s
G1 F300 Z0.32
G1 F2700 E53.61015
G1 F600 X106.795 Y116.841 E53.70179
G1 X107.657 Y116.752 E53.80555
G1 X108.5 Y116.623 E53.90767
G1 X109.214 Y116.467 E53.99518
G1 X109.882 Y116.283 E54.07814
G1 X110.354 Y116.123 E54.13781
G1 X110.784 Y115.944 E54.19358
G1 X111.125 Y115.773 E54.23926
G1 X111.395 Y115.615 E54.27672
G1 X111.77 Y115.312 E54.33444
G1 X111.914 Y115.111 E54.36405
M73 P2
G1 X111.886 Y114.881 E54.39179
G1 X111.596 Y114.216 E54.47866
G1 X111.531 Y113.874 E54.52034
G1 X111.53 Y113.631 E54.54944
G1 X111.638 Y113.109 E54.61326
G1 X111.835 Y112.77 E54.66021
G1 X111.996 Y112.589 E54.68922
G1 X112.338 Y112.329 E54.74066
G1 X112.599 Y112.195 E54.77578
G1 X113.068 Y112.069 E54.83393
G1 X114.047 Y111.989 E54.95155
G1 X114.348 Y111.95 E54.98789
G1 X114.915 Y111.858 E55.05667
G1 X115.557 Y111.738 E55.13487
G1 X116.066 Y111.724 E55.19584
G1 X116.356 Y111.785 E55.23132
G1 F594.1 X116.769 Y111.927 E55.28414
G1 F582.5 X117.131 Y112.171 E55.33798
G1 X116.899 Y111.838 E55.38803
