;FLAVOR:Marlin
M73 P0


; Pre-Processed for Cancel-Object support by preprocess_cancellation v0.2.0
; 1 known objects
EXCLUDE_OBJECT_DEFINE NAME=rabbit_009__stl CENTER=111.627,109.991 POLYGON=[[83.159,91.464],[83.159,128.546],[133.337,128.546],[133.337,91.464]]
M117 Time Left 0h42m37s
;TIME:2557
;Filament used: 1.63772m
;Layer height: 0.2
;MINX:81.959
;MINY:90.264
;MINZ:0.32
;MAXX:134.537
;MAXY:129.746
;MAXZ:42.72
;POSTPROCESSED
;Generated with Cura_SteamEngine 5.4.0-beta.1
M82 ;absolute extrusion mode
;Nozzle diameter = 0.4
;Filament type = PLA
;Filament name = Purple/Pink
START_PRINT PRINT_MIN=81.959,90.264 PRINT_MAX=134.537,129.746 BED_TEMP=65 EXTRUDER_TEMP=220.0
G92 E0
G92 E0
G1 F2700 E-5
;LAYER_COUNT:212
TIMELAPSE_TAKE_FRAME
;LAYER:0
M117 Printing rabbit_009_ - Layer 0 of 211
M107
G1 F300 Z0.52
G0 F6000 X89.018 Y95.509 Z0.52
;TYPE:SKIRT
G1 F300 Z0.32
G1 F2700 E0
G1 F600 X89.939 Y94.672 E0.10232
G1 X90.366 Y94.325 E0.14756
G1 X91.172 Y93.734 E0.22974
G1 X91.627 Y93.433 E0.27459
G1 X92.552 Y92.888 E0.36286
G1 X92.985 Y92.663 E0.40298
G1 X93.821 Y92.272 E0.47886
G1 X94.491 Y91.994 E0.5385
G1 X95.705 Y91.573 E0.64415
G1 X96.417 Y91.374 E0.70493
G1 X96.977 Y91.234 E0.75239
G1 X97.7 Y91.074 E0.81328
G1 X98.2 Y90.976 E0.85517
G1 X99.795 Y90.706 E0.98817
G1 X101.508 Y90.472 E1.13032
G1 X102.362 Y90.38 E1.20094
G1 X102.99 Y90.336 E1.2527
G1 X104.695 Y90.265 E1.39301
G1 X105.899 Y90.264 E1.492
G1 X106.88 Y90.3 E1.57271
G1 X107.786 Y90.36 E1.64736
G1 X108.853 Y90.461 E1.73548
G1 X110.106 Y90.629 E1.83943
G1 X111.048 Y90.791 E1.91801
G1 X111.841 Y90.959 E1.98466
G1 X112.992 Y91.251 E2.08229
G1 X113.76 Y91.469 E2.14793
G1 X116.115 Y92.235 E2.35154
G1 X118.519 Y92.953 E2.55782
G1 X120.927 Y93.596 E2.76274
G1 X124.013 Y94.334 E3.02363
G1 X124.857 Y94.571 E3.0957
G1 X125.657 Y94.842 E3.16515
G1 X125.956 Y94.956 E3.19146
G1 X126.921 Y95.373 E3.27789
G1 X127.729 Y95.787 E3.35254
G1 X128.771 Y96.426 E3.45304
G1 X129.11 Y96.659 E3.48686
G1 X129.834 Y97.206 E3.56146
G1 X130.644 Y97.935 E3.65106
G1 X130.914 Y98.204 E3.6824
G1 X131.563 Y98.911 E3.7613
G1 X132.203 Y99.741 E3.84748
G1 X132.552 Y100.271 E3.89965
G1 X132.775 Y100.633 E3.93461
G1 X133.267 Y101.52 E4.01801
G1 X133.686 Y102.466 E4.10307
G1 X134.097 Y103.73 E4.21235
G1 X134.193 Y104.104 E4.2441
G1 X134.388 Y105.046 E4.32319
G1 X134.51 Y106.105 E4.41084
G1 X134.537 Y107.088 E4.49169
G1 X134.508 Y108.8 E4.63247
G1 X134.514 Y111.332 E4.84065
G1 X134.53 Y111.983 E4.89419
G1 X134.536 Y113.093 E4.98545
G1 X134.501 Y113.999 E5.06
G1 X134.354 Y115.132 E5.15394
G1 X134.055 Y116.391 E5.26033
G1 X133.92 Y116.836 E5.29856
G1 X133.578 Y117.787 E5.38166
G1 X133.179 Y118.656 E5.46028
G1 X132.684 Y119.54 E5.54358
G1 X132.024 Y120.515 E5.64038
G1 X131.421 Y121.256 E5.71893
G1 X130.849 Y121.857 E5.78714
G1 X130.494 Y122.201 E5.82779
G1 X129.731 Y122.874 E5.91144
G1 X128.915 Y123.475 E5.99476
G1 X128.613 Y123.675 E6.02454
G1 X127.61 Y124.268 E6.12034
G1 X127.2 Y124.482 E6.15837
G1 X125.989 Y125.026 E6.26752
G1 X125.579 Y125.182 E6.30359
G1 X124.729 Y125.463 E6.37719
G1 X124.093 Y125.643 E6.43154
G1 X123.585 Y125.774 E6.47467
G1 X122.69 Y125.981 E6.5502
G1 X120.237 Y126.584 E6.75789
G1 X117.875 Y127.237 E6.95937
G1 X115.039 Y128.121 E7.20361
G1 X114.858 Y128.169 E7.21901
G1 X113.849 Y128.496 E7.30622
G1 X113.394 Y128.634 E7.34531
G1 X112.528 Y128.875 E7.41922
G1 X111.896 Y129.029 E7.4727
G1 X111 Y129.21 E7.54785
G1 X109.92 Y129.394 E7.63793
G1 X108.992 Y129.524 E7.71497
G1 X108.437 Y129.585 E7.76088
G1 X107.019 Y129.696 E7.87782
G1 X106.267 Y129.732 E7.93972
G1 X105.794 Y129.743 E7.97862
G1 X104.881 Y129.746 E8.05369
G1 X104.385 Y129.735 E8.09448
G1 X103.217 Y129.681 E8.19062
G1 X102.165 Y129.6 E8.27737
G1 X101.355 Y129.514 E8.34434
G1 X100.247 Y129.37 E8.4362
G1 X99.249 Y129.214 E8.51925
G1 X98.333 Y129.049 E8.59578
G1 X97.541 Y128.89 E8.6622
G1 X96.759 Y128.712 E8.72813
G1 X95.839 Y128.464 E8.80648
G1 X95.003 Y128.194 E8.87871
G1 X94.273 Y127.92 E8.94282
G1 X93.708 Y127.679 E8.99332
G1 X93.216 Y127.452 E9.03787
G1 X92.386 Y127.024 E9.11465
G1 X92.003 Y126.803 E9.15101
G1 X90.854 Y126.044 E9.26423
G1 X90.335 Y125.653 E9.31765
G1 X89.599 Y125.043 E9.39625
G1 X88.926 Y124.39 E9.47335
G1 X88.052 Y123.397 E9.58211
G1 X85.241 Y119.789 E9.95816
G1 X84.697 Y119.023 E10.03541
G1 X84.412 Y118.583 E10.07851
G1 X83.827 Y117.566 E10.17497
G1 X83.533 Y116.987 E10.22836
G1 X83.112 Y116.056 E10.31237
G1 X82.903 Y115.489 E10.36206
G1 X82.722 Y114.953 E10.40857
G1 X82.399 Y113.79 E10.50781
G1 X82.258 Y113.139 E10.56258
G1 X82.079 Y112.026 E10.65526
G1 X82.024 Y111.517 E10.69736
G1 X81.96 Y110.347 E10.7937
G1 X81.959 Y109.852 E10.83439
G1 X81.98 Y109.158 E10.89148
G1 X82.007 Y108.743 E10.92567
G1 X82.079 Y107.996 E10.98738
G1 X82.128 Y107.636 E11.01725
G1 X82.276 Y106.779 E11.08875
G1 X82.38 Y106.298 E11.12921
M117 Time Left 0h42m22s
G1 X82.67 Y105.218 E11.22116
G1 X82.825 Y104.742 E11.26231
G1 X83.127 Y103.925 E11.33393
G1 X83.298 Y103.518 E11.37023
G1 X83.699 Y102.663 E11.44787
G1 X83.884 Y102.309 E11.48071
G1 X84.494 Y101.279 E11.57913
G1 X84.769 Y100.867 E11.61986
G1 X85.335 Y100.091 E11.69883
G1 X85.918 Y99.359 E11.77577
G1 X88.043 Y96.613 E12.06125
G1 X89.018 Y95.509 E12.18235
G0 F6000 X89.422 Y95.953
G1 F600 X90.343 Y95.116 E12.28468
G1 X90.721 Y94.809 E12.32471
G1 X91.527 Y94.218 E12.40689
G1 X91.932 Y93.95 E12.44682
G1 X92.857 Y93.405 E12.53509
G1 X93.24 Y93.206 E12.57057
G1 X94.051 Y92.826 E12.64421
G1 X94.688 Y92.561 E12.70094
G1 X95.902 Y92.14 E12.80658
G1 X96.562 Y91.956 E12.86292
G1 X97.107 Y91.82 E12.9091
G1 X97.816 Y91.663 E12.9688
G1 X98.3 Y91.568 E13.00936
G1 X99.895 Y91.298 E13.14236
G1 X101.572 Y91.069 E13.28152
G1 X102.426 Y90.977 E13.35215
G1 X103.015 Y90.935 E13.4007
G1 X104.696 Y90.865 E13.53903
G1 X105.877 Y90.864 E13.63613
G1 X106.841 Y90.899 E13.71544
G1 X107.729 Y90.957 E13.7886
G1 X108.773 Y91.056 E13.87483
G1 X110.026 Y91.224 E13.97877
G1 X110.924 Y91.378 E14.05368
G1 X111.694 Y91.541 E14.11839
G1 X112.828 Y91.828 E14.21457
G1 X113.574 Y92.04 E14.27833
G1 X115.929 Y92.806 E14.48194
G1 X118.364 Y93.533 E14.69088
G1 X120.778 Y94.178 E14.89632
G1 X123.851 Y94.912 E15.15608
G1 X124.695 Y95.149 E15.22816
G1 X125.443 Y95.403 E15.29311
G1 X125.742 Y95.517 E15.31942
G1 X126.647 Y95.907 E15.40044
G1 X127.455 Y96.321 E15.47509
G1 X128.431 Y96.92 E15.56924
G1 X128.748 Y97.138 E15.60087
G1 X129.472 Y97.685 E15.67548
G1 X130.221 Y98.361 E15.75843
G1 X130.472 Y98.61 E15.7875
G1 X131.121 Y99.317 E15.86641
G1 X131.702 Y100.071 E15.94467
G1 X132.042 Y100.587 E15.99548
G1 X132.251 Y100.925 E16.02815
G1 X132.719 Y101.764 E16.10714
G1 X133.115 Y102.652 E16.18708
G1 X133.526 Y103.916 E16.29636
G1 X133.605 Y104.226 E16.32266
G1 X133.8 Y105.168 E16.40176
G1 X133.91 Y106.122 E16.48071
G1 X133.937 Y107.078 E16.55935
G1 X133.908 Y108.79 E16.70013
G1 X133.914 Y111.347 E16.91036
G1 X133.93 Y111.986 E16.96291
G1 X133.936 Y113.07 E17.05204
G1 X133.901 Y113.976 E17.12659
G1 X133.77 Y114.993 E17.2109
G1 X133.471 Y116.252 E17.31729
G1 X133.355 Y116.634 E17.35011
G1 X133.032 Y117.538 E17.42904
G1 X132.655 Y118.363 E17.50362
G1 X132.16 Y119.247 E17.58692
G1 X131.558 Y120.137 E17.67526
G1 X130.986 Y120.842 E17.7499
G1 X130.414 Y121.443 E17.81812
G1 X130.096 Y121.752 E17.85458
G1 X129.375 Y122.391 E17.93379
G1 X128.559 Y122.992 E18.01711
G1 X128.307 Y123.159 E18.04197
G1 X127.332 Y123.736 E18.13512
G1 X126.922 Y123.95 E18.17314
G1 X125.743 Y124.479 E18.27939
G1 X125.391 Y124.612 E18.31033
G1 X124.541 Y124.893 E18.38393
G1 X123.943 Y125.062 E18.43502
G1 X123.45 Y125.189 E18.47688
G1 X122.555 Y125.396 E18.55241
G1 X120.094 Y126.001 E18.76078
G1 X117.696 Y126.664 E18.96533
G1 X114.885 Y127.541 E19.20744
G1 X114.686 Y127.594 E19.22437
G1 X113.675 Y127.922 E19.31176
G1 X113.233 Y128.056 E19.34973
G1 X112.385 Y128.292 E19.42211
G1 X111.777 Y128.441 E19.47357
G1 X110.899 Y128.619 E19.54723
G1 X109.836 Y128.8 E19.63589
G1 X108.926 Y128.928 E19.71144
G1 X108.39 Y128.987 E19.75578
G1 X106.991 Y129.097 E19.87116
G1 X106.253 Y129.132 E19.9319
G1 X105.792 Y129.143 E19.96982
G1 X104.893 Y129.146 E20.04373
G1 X104.413 Y129.136 E20.08321
G1 X103.263 Y129.083 E20.17786
G1 X102.228 Y129.003 E20.26321
G1 X101.432 Y128.919 E20.32902
G1 X100.339 Y128.777 E20.41964
G1 X99.355 Y128.624 E20.50152
G1 X98.451 Y128.461 E20.57704
G1 X97.674 Y128.305 E20.6422
G1 X96.915 Y128.133 E20.70619
G1 X96.023 Y127.893 E20.78213
G1 X95.213 Y127.632 E20.8521
M73 P1
G1 X94.508 Y127.368 E20.914
G1 X93.959 Y127.134 E20.96307
G1 X93.49 Y126.918 E21.00552
G1 X92.685 Y126.504 E21.07995
G1 X92.333 Y126.302 E21.11331
G1 X91.215 Y125.565 E21.22341
G1 X90.717 Y125.19 E21.27467
G1 X90.017 Y124.612 E21.3493
G1 X89.344 Y123.959 E21.4264
G1 X88.503 Y123.001 E21.53121
G1 X85.73 Y119.441 E21.90223
G1 X85.201 Y118.697 E21.97729
G1 X84.916 Y118.257 E22.02039
G1 X84.362 Y117.294 E22.11174
G1 X84.068 Y116.715 E22.16513
G1 X83.675 Y115.848 E22.24339
G1 X83.471 Y115.296 E22.29178
G1 X83.3 Y114.792 E22.33553
G1 X82.977 Y113.629 E22.43477
G1 X82.85 Y113.043 E22.48407
G1 X82.675 Y111.961 E22.57419
G1 X82.623 Y111.484 E22.61364
G1 X82.56 Y110.346 E22.70735
G1 X82.559 Y109.87 E22.74649
G1 X82.579 Y109.196 E22.80193
M117 Time Left 0h42m07s
G1 X82.604 Y108.801 E22.83447
G1 X82.674 Y108.075 E22.89444
G1 X82.719 Y107.738 E22.92239
G1 X82.863 Y106.905 E22.99189
G1 X82.96 Y106.453 E23.0299
G1 X83.241 Y105.403 E23.11927
G1 X83.388 Y104.95 E23.15843
G1 X83.69 Y104.133 E23.23004
G1 X83.841 Y103.773 E23.26214
G1 X84.231 Y102.941 E23.33769
G1 X84.416 Y102.587 E23.37053
G1 X84.993 Y101.612 E23.46368
G1 X85.254 Y101.22 E23.5024
G1 X85.804 Y100.465 E23.5792
G1 X86.393 Y99.726 E23.6569
G1 X88.494 Y97.009 E23.93928
G1 X89.422 Y95.953 E24.05487
G0 F6000 X89.826 Y96.397
G1 F600 X90.747 Y95.56 E24.15719
G1 X91.076 Y95.293 E24.19203
G1 X91.882 Y94.702 E24.2742
G1 X92.237 Y94.467 E24.30921
G1 X93.162 Y93.922 E24.39748
G1 X93.494 Y93.749 E24.42826
G1 X94.282 Y93.38 E24.4998
G1 X94.885 Y93.128 E24.55353
G1 X96.099 Y92.707 E24.65918
G1 X96.707 Y92.538 E24.71106
G1 X97.237 Y92.406 E24.75597
G1 X97.932 Y92.252 E24.8145
G1 X98.4 Y92.16 E24.85371
G1 X99.995 Y91.89 E24.98672
G1 X101.636 Y91.666 E25.12289
G1 X102.49 Y91.574 E25.19351
G1 X103.04 Y91.534 E25.23885
G1 X104.697 Y91.465 E25.37521
G1 X105.855 Y91.464 E25.47042
G1 X106.802 Y91.498 E25.54833
G1 X107.672 Y91.554 E25.62001
G1 X108.693 Y91.651 E25.70433
G1 X109.946 Y91.819 E25.80827
G1 X110.8 Y91.965 E25.87951
G1 X111.547 Y92.123 E25.94228
G1 X112.664 Y92.405 E26.037
G1 X113.388 Y92.611 E26.09889
G1 X115.743 Y93.377 E26.3025
G1 X118.209 Y94.113 E26.51409
G1 X120.629 Y94.76 E26.72005
G1 X123.689 Y95.49 E26.9787
G1 X124.533 Y95.727 E27.05078
G1 X125.229 Y95.964 E27.11123
G1 X125.528 Y96.078 E27.13754
G1 X126.373 Y96.441 E27.21315
G1 X127.181 Y96.855 E27.2878
G1 X128.091 Y97.414 E27.37561
G1 X128.386 Y97.617 E27.40505
G1 X129.11 Y98.164 E27.47966
G1 X129.799 Y98.787 E27.55603
G1 X130.031 Y99.017 E27.58289
G1 X130.646 Y99.684 E27.65748
G1 X131.201 Y100.402 E27.7321
G1 X131.532 Y100.903 E27.78147
G1 X131.728 Y101.219 E27.81204
G1 X132.172 Y102.01 E27.88662
G1 X132.544 Y102.838 E27.96125
G1 X132.955 Y104.102 E28.07053
G1 X133.018 Y104.349 E28.09149
G1 X133.204 Y105.238 E28.16617
G1 X133.31 Y106.139 E28.24076
G1 X133.337 Y107.068 E28.31717
G1 X133.308 Y108.78 E28.45795
G1 X133.314 Y111.362 E28.67024
G1 X133.33 Y111.989 E28.72181
G1 X133.336 Y113.047 E28.8088
G1 X133.301 Y113.953 E28.88334
G1 X133.186 Y114.854 E28.95802
G1 X132.887 Y116.113 E29.06442
G1 X132.789 Y116.434 E29.09201
G1 X132.486 Y117.289 E29.16659
G1 X132.109 Y118.114 E29.24117
G1 X131.662 Y118.912 E29.31637
G1 X131.092 Y119.759 E29.40031
G1 X130.52 Y120.464 E29.47496
G1 X129.996 Y121.013 E29.53736
G1 X129.697 Y121.304 E29.57166
G1 X129.019 Y121.908 E29.64632
G1 X128.226 Y122.493 E29.72734
G1 X128.001 Y122.643 E29.74957
G1 X127.054 Y123.204 E29.84007
G1 X126.644 Y123.418 E29.87809
G1 X125.53 Y123.918 E29.97849
G1 X125.203 Y124.042 E30.00724
G1 X124.353 Y124.323 E30.08085
G1 X123.794 Y124.481 E30.12861
G1 X123.315 Y124.604 E30.16927
G1 X122.42 Y124.811 E30.2448
G1 X119.951 Y125.418 E30.45384
G1 X117.517 Y126.091 E30.66147
G1 X114.706 Y126.968 E30.90358
G1 X114.505 Y127.021 E30.92067
G1 X113.501 Y127.348 E31.00748
G1 X113.072 Y127.478 E31.04434
G1 X112.241 Y127.709 E31.11526
G1 X111.657 Y127.853 E31.16471
G1 X110.798 Y128.028 E31.23679
G1 X109.752 Y128.206 E31.32402
G1 X108.86 Y128.332 E31.39809
G1 X108.343 Y128.389 E31.44086
G1 X106.963 Y128.498 E31.55467
G1 X106.238 Y128.532 E31.61435
G1 X105.79 Y128.543 E31.65119
G1 X104.905 Y128.546 E31.72396
G1 X104.441 Y128.537 E31.76211
G1 X103.309 Y128.485 E31.85528
G1 X102.291 Y128.406 E31.93923
G1 X101.509 Y128.324 E32.00388
G1 X100.431 Y128.184 E32.09326
G1 X99.461 Y128.033 E32.17397
G1 X98.569 Y127.873 E32.24848
G1 X97.806 Y127.72 E32.31246
G1 X97.071 Y127.554 E32.37442
G1 X96.207 Y127.322 E32.44797
G1 X95.423 Y127.07 E32.51568
G1 X94.743 Y126.816 E32.57536
G1 X94.21 Y126.589 E32.62299
G1 X93.764 Y126.384 E32.66335
G1 X92.959 Y125.97 E32.73777
G1 X92.663 Y125.801 E32.7658
G1 X91.576 Y125.086 E32.87277
G1 X91.099 Y124.727 E32.92186
G1 X90.399 Y124.149 E32.99649
G1 X89.762 Y123.529 E33.06958
G1 X88.976 Y122.632 E33.16764
G1 X86.219 Y119.093 E33.53649
G1 X85.704 Y118.37 E33.60947
G1 X85.436 Y117.957 E33.64995
G1 X84.897 Y117.022 E33.73868
G1 X84.614 Y116.466 E33.78998
G1 X84.238 Y115.64 E33.86459
G1 X84.039 Y115.103 E33.91168
G1 X83.868 Y114.599 E33.95544
G1 X83.555 Y113.469 E34.05184
M117 Time Left 0h41m52s
G1 X83.442 Y112.947 E34.09576
G1 X83.271 Y111.895 E34.18339
G1 X83.222 Y111.45 E34.2202
G1 X83.16 Y110.345 E34.31119
G1 X83.159 Y109.887 E34.34885
G1 X83.178 Y109.233 E34.40264
G1 X83.201 Y108.859 E34.43345
G1 X83.269 Y108.153 E34.49176
G1 X83.31 Y107.84 E34.51772
G1 X83.45 Y107.03 E34.5853
G1 X83.54 Y106.608 E34.62078
G1 X83.812 Y105.588 E34.70757
G1 X83.951 Y105.158 E34.74473
G1 X84.244 Y104.364 E34.81431
G1 X84.384 Y104.028 E34.84424
G1 X84.763 Y103.219 E34.91769
G1 X84.948 Y102.865 E34.95053
G1 X85.493 Y101.944 E35.03852
G1 X85.739 Y101.573 E35.07512
G1 X86.273 Y100.839 E35.14975
G1 X86.868 Y100.093 E35.22821
G1 X88.946 Y97.404 E35.50762
G1 X89.826 Y96.397 E35.61757
G1 F2700 E30.61757
G1 F300 Z0.52
;MESH:rabbit_009_.stl
EXCLUDE_OBJECT_START NAME=rabbit_009__stl
G0 F6000 X111.303 Y116.189 Z0.52
;TYPE:WALL-INNER
G1 F300 Z0.32
G1 F2700 E35.61757
G1 F600 X111.316 Y116.191 E35.61865
G1 X111.634 Y116 E35.64915
G1 X111.861 Y115.834 E35.67227
G1 X112.2 Y115.529 E35.70977
G1 X112.347 Y115.255 E35.73533
G1 X112.373 Y115.054 E35.752
G1 X112.31 Y114.734 E35.77881
G1 X112.014 Y114.037 E35.84107
G1 X111.977 Y113.72 E35.86731
G1 X112.071 Y113.225 E35.90874
G1 X112.307 Y112.913 E35.9409
G1 X112.673 Y112.641 E35.97839
G1 X113.146 Y112.512 E36.0187
G1 X114.114 Y112.432 E36.09856
G1 X114.396 Y112.398 E36.12192
G1 X114.974 Y112.305 E36.17005
G1 X115.602 Y112.184 E36.22263
G1 X116.051 Y112.181 E36.25955
G1 X116.247 Y112.221 E36.276
G1 F585.4 X116.681 Y112.414 E36.31603
G1 F515.8 X116.9 Y112.477 E36.33782
G1 F470 X117.03 Y112.608 E36.3572
G1 F497.2 X117.308 Y113.09 E36.4124
G1 F561.6 X117.543 Y113.285 E36.43922
G1 F600 X117.974 Y113.508 E36.47912
G1 X118.507 Y113.669 E36.5249
G1 X118.905 Y113.742 E36.55817
G1 X119.453 Y113.794 E36.60343
G1 X119.715 Y113.8 E36.62497
G1 X120.067 Y113.79 E36.65393
G1 X120.409 Y113.759 E36.68216
G1 X120.833 Y113.69 E36.71748
G1 X121.197 Y113.589 E36.74854
G1 X121.682 Y113.407 E36.79113
G1 X121.944 Y113.233 E36.81699
G1 X122.143 Y113.002 E36.84206
G1 X121.952 Y112.792 E36.8654
G1 X121.652 Y112.624 E36.89367
G1 X121.301 Y112.476 E36.92499
G1 X120.842 Y112.356 E36.96399
G1 X120.313 Y112.261 E37.00818
G1 X119.569 Y112.231 E37.0694
G1 X118.314 Y112.288 E37.17269
G1 F527.1 X117.572 Y112.073 E37.245
G1 F497.2 X117.41 Y111.91 E37.2678
G1 F561.6 X117.258 Y111.501 E37.30612
G1 F600 X117.183 Y111.168 E37.33419
G1 X117.204 Y110.906 E37.3558
G1 X117.394 Y110.104 E37.42356
G1 X117.38 Y109.777 E37.45047
G1 X117.236 Y108.946 E37.51982
G1 X117.279 Y108.653 E37.54416
G1 X117.386 Y108.377 E37.5685
G1 F512.1 X117.456 Y108.065 E37.5993
