;FLAVOR:Marlin
M73 P0


; Pre-Processed for Cancel-Object support by preprocess_cancellation v0.2.0
; 1 known objects
EXCLUDE_OBJECT_DEFINE NAME=relais_cover_stl CENTER=129.602,110.142 POLYGON=[[51.6,78.35],[51.6,141.65],[168.4,141.65],[168.4,78.35]]
M117 Time Left 1h52m37s
;TIME:6757
;Filament used: 7.02857m
;Layer height: 0.2
;MINX:49.8
;MINY:76.55
;MINZ:0.32
;MAXX:170.2
;MAXY:143.45
;MAXZ:24.12
;TARGET_MACHINE.NAME:Creality Ender-3
;POSTPROCESSED
;  [InsertAtLayerChange]
;  [MeshPrintSize]
;  [DisplayProgressOnLCD]
;  [DisplayFilenameAndLayerOnLCD]
;Generated with Cura_SteamEngine 5.6.0
M82 ;absolute extrusion mode
;Nozzle diameter = 0.6
;Filament type = PLA
;Filament name = Purple/Pink
START_PRINT PRINT_MIN=49.8,76.55 PRINT_MAX=170.2,143.45 BED_TEMP=65 EXTRUDER_TEMP=200.0
G92 E0
G92 E0
G1 F2700 E-5
;LAYER_COUNT:119
TIMELAPSE_TAKE_FRAME
;LAYER:0
M117 Printing relais_cover - Layer 0 of 118
M107
G1 F300 Z0.52
G0 F6000 X56.949 Y80.128 Z0.52
;TYPE:SKIRT
G1 F300 Z0.32
G1 F2700 E0
G1 F600 X57.732 Y79.658 E0.10935
G1 X58.764 Y79.152 E0.24697
G1 X59.765 Y78.769 E0.3753
G1 X60.877 Y78.455 E0.51365
G1 X61.955 Y78.257 E0.64489
G1 X63.247 Y78.146 E0.80016
G1 X63.92 Y78.13 E0.88076
G1 X106.485 Y78.13 E5.97735
G1 X109.078 Y78.093 E6.28785
G1 X111.531 Y77.989 E6.58183
G1 X114.025 Y77.812 E6.88121
G1 X116.513 Y77.566 E7.18056
G1 X118.951 Y77.253 E7.47488
G1 X122.268 Y76.724 E7.87706
G1 X123.299 Y76.597 E8.00144
G1 X123.929 Y76.563 E8.07699
G1 X124.58 Y76.55 E8.15495
G1 X157.419 Y76.551 E12.08698
G1 X158.117 Y76.561 E12.17056
G1 X159.267 Y76.634 E12.30854
G1 X160.324 Y76.795 E12.43656
G1 X161.213 Y77.006 E12.54596
G1 X162.382 Y77.395 E12.69348
G1 X163.292 Y77.792 E12.81236
G1 X164.3 Y78.341 E12.94979
G1 X165.063 Y78.845 E13.05928
G1 X166.025 Y79.609 E13.20637
G1 X166.799 Y80.349 E13.33459
G1 X167.455 Y81.095 E13.45354
G1 X168.092 Y81.956 E13.58178
G1 X168.613 Y82.799 E13.70044
G1 X169.162 Y83.902 E13.84796
G1 X169.548 Y84.898 E13.97586
G1 X169.808 Y85.774 E14.08527
G1 X170.055 Y87.017 E14.23702
G1 X170.187 Y88.479 E14.41278
G1 X170.2 Y89.13 E14.49075
G1 X170.199 Y130.616 E19.45814
G1 X170.189 Y131.382 E19.54986
G1 X170.121 Y132.491 E19.6829
G1 X169.99 Y133.396 E19.79239
G1 X169.709 Y134.594 E19.93973
G1 X169.422 Y135.462 E20.04919
G1 X168.972 Y136.515 E20.1863
G1 X168.463 Y137.46 E20.31483
G1 X167.828 Y138.421 E20.45274
G1 X167.209 Y139.2 E20.57188
G1 X166.416 Y140.035 E20.70976
G1 X165.615 Y140.738 E20.83737
M117 Time Left 1h52m22s
G1 X164.816 Y141.329 E20.95637
G1 X163.904 Y141.89 E21.08457
G1 X162.872 Y142.404 E21.22262
G1 X161.875 Y142.792 E21.35072
G1 X160.999 Y143.053 E21.46016
G1 X159.855 Y143.288 E21.6
G1 X158.271 Y143.437 E21.7905
G1 X157.62 Y143.45 E21.86847
G1 X124.767 Y143.449 E25.80217
G1 X124.057 Y143.438 E25.88719
G1 X123.007 Y143.375 E26.01314
G1 X122.355 Y143.292 E26.09184
G1 X121.577 Y143.169 E26.18615
G1 X120.176 Y142.93 E26.35633
G1 X117.722 Y142.58 E26.65313
G1 X115.294 Y142.304 E26.94573
G1 X112.808 Y142.093 E27.24446
G1 X110.323 Y141.952 E27.54248
G1 X107.774 Y141.879 E27.84782
G1 X106.506 Y141.87 E27.99965
G1 X64.313 Y141.87 E33.05169
G1 X63.465 Y141.859 E33.15323
G1 X62.313 Y141.786 E33.29145
G1 X61.256 Y141.625 E33.41947
G1 X60.367 Y141.414 E33.52887
G1 X59.198 Y141.025 E33.67639
G1 X58.288 Y140.628 E33.79527
G1 X57.28 Y140.079 E33.9327
G1 X56.517 Y139.575 E34.04219
G1 X55.555 Y138.811 E34.18929
G1 X54.781 Y138.071 E34.3175
G1 X54.125 Y137.325 E34.43645
G1 X53.488 Y136.464 E34.56469
G1 X52.967 Y135.621 E34.68335
G1 X52.418 Y134.518 E34.83087
G1 X52.032 Y133.522 E34.95877
G1 X51.757 Y132.588 E35.07535
G1 X51.63 Y132.023 E35.14469
G1 X51.371 Y130.74 E35.30141
G1 X50.823 Y128.196 E35.61301
G1 X50.166 Y125.538 E35.94085
G1 X49.942 Y124.373 E36.0829
G1 X49.815 Y122.958 E36.25301
G1 X49.8 Y122.27 E36.3354
G1 X49.801 Y97.916 E39.25147
G1 X49.812 Y97.209 E39.33613
G1 X49.886 Y96.059 E39.47411
G1 X50.031 Y95.095 E39.59084
G1 X50.164 Y94.478 E39.66641
G1 X50.577 Y92.832 E39.86961
G1 X51.141 Y90.389 E40.16982
G1 X51.646 Y87.888 E40.47532
G1 X51.866 Y87.001 E40.58475
G1 X52.237 Y85.913 E40.72238
G1 X52.671 Y84.935 E40.8505
G1 X53.148 Y84.065 E40.9693
G1 X53.835 Y83.045 E41.11655
M117 Time Left 1h52m07s
G1 X54.41 Y82.334 E41.22604
G1 X55.263 Y81.451 E41.37304
G1 X56.015 Y80.802 E41.49198
G1 X56.949 Y80.128 E41.62989
G0 F6000 X57.412 Y80.9
G1 F600 X58.195 Y80.43 E41.73924
G1 X59.086 Y79.993 E41.85806
G1 X60.087 Y79.61 E41.98639
G1 X61.043 Y79.34 E42.10534
G1 X62.033 Y79.154 E42.22595
G1 X63.268 Y79.046 E42.37439
G1 X63.941 Y79.03 E42.455
G1 X106.498 Y79.03 E47.55062
G1 X109.093 Y78.993 E47.86137
G1 X111.595 Y78.887 E48.16122
G1 X114.106 Y78.709 E48.46263
G1 X116.613 Y78.461 E48.76428
G1 X119.066 Y78.146 E49.0604
G1 X121.799 Y77.716 E49.39167
G1 X122.38 Y77.617 E49.46224
G1 X123.349 Y77.496 E49.57916
G1 X123.947 Y77.463 E49.65087
G1 X124.58 Y77.45 E49.72668
G1 X157.406 Y77.451 E53.65715
G1 X158.104 Y77.461 E53.74074
G1 X159.134 Y77.524 E53.8643
G1 X160.116 Y77.671 E53.98319
G1 X161.005 Y77.882 E54.09259
G1 X162.022 Y78.22 E54.22091
G1 X162.932 Y78.617 E54.33979
G1 X163.804 Y79.092 E54.45869
G1 X164.567 Y79.596 E54.56818
G1 X165.405 Y80.261 E54.69627
G1 X166.125 Y80.946 E54.81526
G1 X166.731 Y81.63 E54.92468
G1 X167.368 Y82.491 E55.05292
G1 X167.846 Y83.27 E55.16236
G1 X168.324 Y84.229 E55.29066
G1 X168.685 Y85.154 E55.40955
G1 X168.945 Y86.03 E55.51896
G1 X169.159 Y87.099 E55.6495
G1 X169.287 Y88.497 E55.81759
G1 X169.3 Y89.13 E55.8934
G1 X169.299 Y130.604 E60.85935
G1 X169.289 Y131.37 E60.95108
G1 X169.23 Y132.362 E61.07007
G1 X169.099 Y133.267 E61.17956
G1 X168.854 Y134.311 E61.30796
G1 X168.567 Y135.179 E61.41742
G1 X168.178 Y136.091 E61.53614
G1 X167.711 Y136.966 E61.6549
G1 X167.123 Y137.861 E61.78312
G1 X166.504 Y138.64 E61.90226
G1 X165.82 Y139.36 E62.02117
G1 X165.077 Y140.016 E62.13985
G1 X164.344 Y140.562 E62.24929
G1 X163.432 Y141.123 E62.37749
M117 Time Left 1h51m52s
G1 X162.543 Y141.566 E62.49642
G1 X161.618 Y141.929 E62.6154
G1 X160.742 Y142.19 E62.72485
G1 X159.769 Y142.392 E62.84383
G1 X158.253 Y142.537 E63.02618
G1 X157.62 Y142.55 E63.10199
G1 X124.781 Y142.549 E67.03402
G1 X124.071 Y142.538 E67.11904
G1 X123.12 Y142.482 E67.23311
G1 X122.495 Y142.403 E67.30854
G1 X121.729 Y142.282 E67.4014
G1 X120.313 Y142.04 E67.5734
G1 X117.843 Y141.688 E67.87214
G1 X115.37 Y141.407 E68.17015
G1 X112.863 Y141.194 E68.47141
G1 X110.364 Y141.052 E68.77112
G1 X107.8 Y140.979 E69.07825
G1 X106.512 Y140.97 E69.23247
G1 X64.325 Y140.97 E74.28379
G1 X63.477 Y140.959 E74.38534
G1 X62.446 Y140.896 E74.50902
G1 X61.464 Y140.749 E74.62791
G1 X60.575 Y140.538 E74.73731
G1 X59.558 Y140.2 E74.86563
G1 X58.648 Y139.803 E74.98451
G1 X57.776 Y139.328 E75.10341
G1 X57.013 Y138.824 E75.2129
G1 X56.175 Y138.159 E75.34099
G1 X55.455 Y137.474 E75.45998
G1 X54.849 Y136.79 E75.5694
G1 X54.212 Y135.929 E75.69764
G1 X53.734 Y135.15 E75.80708
G1 X53.256 Y134.191 E75.93538
G1 X52.895 Y133.266 E76.05427
G1 X52.635 Y132.39 E76.16368
G1 X52.512 Y131.845 E76.23058
G1 X52.251 Y130.55 E76.38876
G1 X51.703 Y128.006 E76.70035
G1 X51.04 Y125.322 E77.03139
G1 X50.838 Y124.292 E77.15706
G1 X50.715 Y122.938 E77.31985
G1 X50.7 Y122.27 E77.39986
G1 X50.701 Y97.93 E80.31424
G1 X50.712 Y97.223 E80.39891
G1 X50.776 Y96.193 E80.52247
G1 X50.921 Y95.229 E80.6392
G1 X51.037 Y94.697 E80.7044
G1 X51.45 Y93.051 E80.90759
G1 X52.018 Y90.591 E81.20989
G1 X52.52 Y88.105 E81.51357
G1 X52.74 Y87.218 E81.62299
G1 X53.06 Y86.278 E81.74189
G1 X53.494 Y85.3 E81.87
G1 X53.936 Y84.5 E81.97944
G1 X54.535 Y83.611 E82.10779
G1 X55.11 Y82.9 E82.21728
M117 Time Left 1h51m37s
G1 X55.854 Y82.13 E82.34548
G1 X56.544 Y81.53 E82.45497
G1 X57.412 Y80.9 E82.58339
G0 F6000 X57.875 Y81.672
G1 F600 X58.658 Y81.202 E82.69274
G1 X59.48 Y80.802 E82.80219
G1 X60.334 Y80.475 E82.91169
G1 X61.213 Y80.224 E83.02114
G1 X62.111 Y80.051 E83.13065
G1 X63.346 Y79.943 E83.27908
G1 X63.96 Y79.93 E83.35262
G1 X106.511 Y79.93 E88.44753
G1 X109.108 Y79.893 E88.75851
G1 X111.659 Y79.785 E89.06423
G1 X114.187 Y79.606 E89.36769
G1 X116.709 Y79.356 E89.67114
G1 X119.183 Y79.039 E89.96979
G1 X121.939 Y78.605 E90.30385
G1 X122.493 Y78.51 E90.37115
G1 X123.4 Y78.395 E90.48062
G1 X123.966 Y78.363 E90.5485
G1 X124.58 Y78.35 E90.62204
G1 X157.393 Y78.351 E94.55095
G1 X158.091 Y78.361 E94.63454
G1 X159.003 Y78.414 E94.74392
G1 X159.908 Y78.547 E94.85345
G1 X160.797 Y78.758 E94.96285
G1 X161.665 Y79.046 E95.07235
G1 X162.504 Y79.409 E95.18181
G1 X163.308 Y79.843 E95.29121
G1 X164.071 Y80.347 E95.4007
G1 X164.787 Y80.915 E95.51013
G1 X165.451 Y81.543 E95.61956
G1 X166.057 Y82.227 E95.72898
G1 X166.601 Y82.962 E95.83847
G1 X167.079 Y83.741 E95.9479
G1 X167.487 Y84.559 E96.05736
G1 X167.822 Y85.41 E96.16686
G1 X168.082 Y86.286 E96.27627
G1 X168.263 Y87.182 E96.38573
G1 X168.387 Y88.516 E96.54614
G1 X168.4 Y89.13 E96.61968
G1 X168.399 Y130.593 E101.58431
G1 X168.39 Y131.32 E101.67137
G1 X168.339 Y132.233 E101.78086
G1 X168.208 Y133.138 E101.89035
G1 X167.999 Y134.028 E101.99981
G1 X167.712 Y134.896 E102.10928
G1 X167.351 Y135.735 E102.21864
G1 X166.918 Y136.54 E102.32809
G1 X166.416 Y137.304 E102.43755
G1 X165.85 Y138.022 E102.54702
G1 X165.222 Y138.687 E102.65654
G1 X164.539 Y139.294 E102.76594
G1 X163.806 Y139.84 E102.87538
G1 X163.028 Y140.319 E102.98478
G1 X162.211 Y140.729 E103.09423
M117 Time Left 1h51m22s
G1 X161.361 Y141.066 E103.20371
G1 X160.485 Y141.327 E103.31316
G1 X159.589 Y141.51 E103.42266
G1 X158.234 Y141.637 E103.58561
G1 X157.62 Y141.65 E103.65915
G1 X124.795 Y141.649 E107.5895
G1 X124.085 Y141.638 E107.67452
G1 X123.173 Y141.584 E107.78391
G1 X122.635 Y141.514 E107.84887
G1 X121.881 Y141.395 E107.94027
G1 X120.45 Y141.15 E108.11411
G1 X117.964 Y140.796 E108.41478
G1 X115.446 Y140.51 E108.71821
G1 X112.919 Y140.295 E109.02188
G1 X110.406 Y140.152 E109.32326
M73 P1
G1 X107.825 Y140.079 E109.63243
G1 X106.518 Y140.07 E109.78893
G1 X64.337 Y140.07 E114.83953
G1 X63.489 Y140.059 E114.94108
G1 X62.577 Y140.006 E115.05046
G1 X61.672 Y139.873 E115.15998
G1 X60.783 Y139.662 E115.26939
G1 X59.915 Y139.374 E115.37889
G1 X59.076 Y139.011 E115.48835
G1 X58.272 Y138.577 E115.59775
G1 X57.509 Y138.073 E115.70724
G1 X56.793 Y137.505 E115.81667
G1 X56.129 Y136.877 E115.9261
G1 X55.523 Y136.193 E116.03552
G1 X54.979 Y135.458 E116.14501
G1 X54.501 Y134.679 E116.25444
G1 X54.093 Y133.861 E116.3639
G1 X53.758 Y133.01 E116.4734
G1 X53.498 Y132.134 E116.58281
G1 X53.394 Y131.668 E116.63998
G1 X53.131 Y130.36 E116.79973
G1 X52.583 Y127.816 E117.11133
G1 X51.914 Y125.106 E117.44556
G1 X51.734 Y124.21 E117.55498
G1 X51.615 Y122.917 E117.71046
G1 X51.6 Y122.27 E117.78795
G1 X51.601 Y97.944 E120.70066
G1 X51.612 Y97.237 E120.78532
G1 X51.666 Y96.325 E120.89471
G1 X51.8 Y95.421 E121.00414
G1 X51.91 Y94.916 E121.06602
G1 X52.323 Y93.27 E121.26922
G1 X52.895 Y90.794 E121.57349
G1 X53.394 Y88.322 E121.87545
G1 X53.614 Y87.435 E121.98488
G1 X53.911 Y86.57 E122.09438
G1 X54.282 Y85.735 E122.20379
G1 X54.724 Y84.935 E122.31323
G1 X55.235 Y84.177 E122.42268
G1 X55.81 Y83.466 E122.53217
G1 X56.445 Y82.809 E122.64158
G1 X57.135 Y82.209 E122.75106
M117 Time Left 1h51m07s
G1 X57.875 Y81.672 E122.86054
G1 F2700 E117.86054
G1 F300 Z0.52
G0 F6000 X128 Y125 Z0.52
;TYPE:SUPPORT
G1 F300 Z0.32
G1 F2700 E122.86054
G1 F600 X129.5 Y123.5 E123.11454
G1 X132.5 Y123.5 E123.47375
G1 X132.5 Y126.5 E123.83296
G1 X131 Y128 E124.08696
G1 X133.75 Y130.75 E124.55262
G1 X125.4 Y130.75 E125.55242
G1 X125.4 Y122.4 E126.55222
G1 X128 Y125 E126.99249
G1 F2700 E121.99249
G1 F300 Z0.52
G0 F6000 X125.4 Y121.6 Z0.52
G1 F300 Z0.32
G1 F2700 E126.99249
G1 F600 X125.4 Y111.5 E128.20183
G1 X126.5 Y111.5 E128.33354
G1 X128 Y113 E128.58753
G1 X129.5 Y111.5 E128.84153
G1 X132.5 Y111.5 E129.20074
G1 X132.5 Y114.5 E129.55995
G1 X131 Y116 E129.81395
G1 X132.5 Y117.5 E130.06795
G1 X132.5 Y120.5 E130.42716
G1 X129.5 Y120.5 E130.78637
G1 X128 Y119 E131.04037
G1 X125.4 Y121.6 E131.48064
G1 F2700 E126.48064
G1 F300 Z0.52
G0 F6000 X135.5 Y120.5 Z0.52
G1 F300 Z0.32
G1 F2700 E131.48064
G1 F600 X135.5 Y117.5 E131.83985
G1 X137 Y116 E132.09385
G1 X135.5 Y114.5 E132.34784
G1 X135.5 Y111.5 E132.70705
G1 X138.5 Y111.5 E133.06626
G1 X140 Y113 E133.32026
G1 X141.5 Y111.5 E133.57426
G1 X144.5 Y111.5 E133.93347
G1 X144.5 Y114.5 E134.29268
G1 X143 Y116 E134.54668
G1 X146 Y119 E135.05468
G1 X149 Y116 E135.56268
G1 X147.5 Y114.5 E135.81668
G1 X147.5 Y111.5 E136.17589
G1 X150.5 Y111.5 E136.5351
G1 X152 Y113 E136.7891
G1 X153.5 Y111.5 E137.0431
G1 X156.5 Y111.5 E137.40231
G1 X156.5 Y114.5 E137.76151
M117 Time Left 1h50m52s
G1 X155 Y116 E138.01551
G1 X156.5 Y117.5 E138.26951
G1 X156.5 Y120.5 E138.62872
G1 X153.5 Y120.5 E138.98793
G1 X152 Y119 E139.24193
G1 X149 Y122 E139.74993
G1 X152 Y125 E140.25793
G1 X153.5 Y123.5 E140.51193
G1 X156.5 Y123.5 E140.87114
G1 X156.5 Y126.5 E141.23035
G1 X155 Y128 E141.48435
G1 X156.5 Y129.5 E141.73835
G1 X156.5 Y130.75 E141.88802
G1 X147.5 Y130.75 E142.96565
G1 X147.5 Y129.5 E143.11532
G1 X149 Y128 E143.36932
G1 X146 Y125 E143.87731
G1 X143 Y128 E144.38531
G1 X144.5 Y129.5 E144.63931
G1 X144.5 Y130.75 E144.78898
G1 X134.25 Y130.75 E146.01628
G1 X137 Y128 E146.48195
G1 X135.5 Y126.5 E146.73595
G1 X135.5 Y123.5 E147.09516
G1 X138.5 Y123.5 E147.45437
G1 X140 Y125 E147.70837
G1 X143 Y122 E148.21637
G1 X140 Y119 E148.72436
G1 X138.5 Y120.5 E148.97836
G1 X135.5 Y120.5 E149.33757
G1 F2700 E144.33757
G1 F300 Z0.52
G0 F6000 X135.5 Y108.5 Z0.52
G1 F300 Z0.32
G1 F2700 E149.33757
G1 F600 X135.5 Y105.5 E149.69678
G1 X137 Y104 E149.95078
G1 X135.5 Y102.5 E150.20478
G1 X135.5 Y99.5 E150.56399
G1 X138.5 Y99.5 E150.9232
G1 X140 Y101 E151.1772
G1 X143 Y98 E151.6852
G1 X140 Y95 E152.1932
G1 X138.5 Y96.5 E152.4472
G1 X135.5 Y96.5 E152.80641
G1 X135.5 Y93.5 E153.16562
G1 X137 Y92 E153.41962
G1 X134.25 Y89.25 E153.88528
G1 X144.5 Y89.25 E155.11258
G1 X144.5 Y90.5 E155.26225
G1 X143 Y92 E155.51625
G1 X146 Y95 E156.02425
G1 X149 Y92 E156.53225
G1 X147.5 Y90.5 E156.78625
G1 X147.5 Y89.25 E156.93592
G1 X156.5 Y89.25 E158.01355
G1 X156.5 Y90.5 E158.16322
M117 Time Left 1h50m37s
G1 X155 Y92 E158.41722
G1 X156.5 Y93.5 E158.67122
G1 X156.5 Y96.5 E159.03043
G1 X153.5 Y96.5 E159.38963
G1 X152 Y95 E159.64363
G1 X149 Y98 E160.15163
G1 X152 Y101 E160.65963
G1 X153.5 Y99.5 E160.91363
G1 X156.5 Y99.5 E161.27284
G1 X156.5 Y102.5 E161.63205
G1 X155 Y104 E161.88605
G1 X156.5 Y105.5 E162.14005
G1 X156.5 Y108.5 E162.49926
G1 X153.5 Y108.5 E162.85847
G1 X152 Y107 E163.11247
G1 X150.5 Y108.5 E163.36647
G1 X147.5 Y108.5 E163.72568
G1 X147.5 Y105.5 E164.08489
G1 X149 Y104 E164.33889
G1 X146 Y101 E164.84688
G1 X143 Y104 E165.35488
G1 X144.5 Y105.5 E165.60888
G1 X144.5 Y108.5 E165.96809
G1 X141.5 Y108.5 E166.3273
G1 X140 Y107 E166.5813
G1 X138.5 Y108.5 E166.8353
G1 X135.5 Y108.5 E167.19451
G1 F2700 E162.19451
G1 F300 Z0.52
G0 F6000 X132.5 Y108.5 Z0.52
G1 F300 Z0.32
G1 F2700 E167.19451
G1 F600 X129.5 Y108.5 E167.55372
G1 X128 Y107 E167.80772
G1 X126.5 Y108.5 E168.06172
G1 X125.4 Y108.5 E168.19343
G1 X125.4 Y98.4 E169.40277
G1 X128 Y101 E169.84303
G1 X129.5 Y99.5 E170.09703
G1 X132.5 Y99.5 E170.45624
G1 X132.5 Y102.5 E170.81545
G1 X131 Y104 E171.06945
G1 X132.5 Y105.5 E171.32345
G1 X132.5 Y108.5 E171.68266
G1 F2700 E166.68266
G1 F300 Z0.52
G0 F6000 X132.5 Y96.5 Z0.52
G1 F300 Z0.32
G1 F2700 E171.68266
G1 F600 X129.5 Y96.5 E172.04187
G1 X128 Y95 E172.29587
G1 X125.4 Y97.6 E172.73613
G1 X125.4 Y89.25 E173.73593
G1 X133.75 Y89.25 E174.73573
G1 X131 Y92 E175.2014
G1 X132.5 Y93.5 E175.4554
G1 X132.5 Y96.5 E175.81461
M117 Time Left 1h50m22s
G1 F2700 E170.81461
G1 F300 Z0.52
;MESH:relais_cover.stl
EXCLUDE_OBJECT_START NAME=relais_cover_stl
G0 F6000 X122.16 Y127.81 Z0.52
;TYPE:WALL-INNER
G1 F300 Z0.32
G1 F2700 E175.81461
G1 F1650 X122.16 Y92.19 E180.07962
G1 X65.44 Y92.19 E186.87107
G1 X65.44 Y102.072 E188.05431
G1 F1463.1 X65.555 Y102.467 E188.10986
G1 F1192.8 X65.67 Y102.862 E188.17801
G1 X65.864 Y102.544 E188.23971
G1 F1463.1 X66.058 Y102.226 E188.29001
G1 F1650 X66.44 Y101.782 E188.36014
G1 X66.871 Y101.565 E188.41792
G1 X67.25 Y101.512 E188.46374
G1 X70.337 Y101.514 E188.83337
