;FLAVOR:Marlin
;TIME:2515
;Filament used: 3.17772m
;Layer height: 0.3
;MINX:80.688
;MINY:69.212
;MINZ:0.42
;MAXX:139.312
;MAXY:150.788
;MAXZ:37.22
;TARGET_MACHINE.NAME:Creality Ender-3
;POSTPROCESSED
;  [InsertAtLayerChange]
;  [MeshPrintSize]
;Generated with Cura_SteamEngine 5.7.0


; Pre-Processed for Cancel-Object support by preprocess_cancellation v0.2.0
; 1 known objects
EXCLUDE_OBJECT_DEFINE NAME=SFS_V2_0_Bracket_for_Ender3_V2_STL CENTER=102.909,107.651 POLYGON=[[82.488,71.012],[82.488,148.988],[137.512,148.988],[137.512,71.012]]
M82 ;absolute extrusion mode
;Nozzle diameter = 0.6
;Filament type = PLA
;Filament name = Purple/Pink
START_PRINT PRINT_MIN=80.688,69.212 PRINT_MAX=139.312,150.788 BED_TEMP=65 EXTRUDER_TEMP=210
G92 E0
G92 E0
G1 F2700 E-5
;LAYER_COUNT:123
TIMELAPSE_TAKE_FRAME
;LAYER:0
M107
G1 F300 Z0.62
G0 F6000 X84.868 Y75.236 Z0.62
;TYPE:SKIRT
G1 F300 Z0.42
G1 F2700 E0
G1 F600 X85.329 Y74.718 E0.10898
G1 X86.215 Y73.828 E0.30633
G1 X86.754 Y73.352 E0.41934
G1 X87.219 Y72.969 E0.51402
G1 X88.184 Y72.253 E0.70285
G1 X88.97 Y71.748 E0.84968
G1 X89.556 Y71.405 E0.95638
G1 X90.595 Y70.868 E1.14019
G1 X91.397 Y70.52 E1.27758
G1 X91.989 Y70.289 E1.37744
G1 X93.171 Y69.899 E1.57305
G1 X93.932 Y69.703 E1.69655
G1 X94.548 Y69.566 E1.79572
G1 X95.736 Y69.368 E1.98499
G1 X96.665 Y69.278 E2.13167
G1 X97.711 Y69.224 E2.29628
G1 X98.434 Y69.212 E2.40991
G1 X102.299 Y69.212 E3.01732
G1 X103.509 Y69.233 E3.2075
G1 X104.178 Y69.261 E3.31273
G1 X106.77 Y69.334 E3.72023
G1 X109.185 Y69.334 E4.09976
G1 X113.306 Y69.212 E4.74768
G1 X121.53 Y69.213 E6.04011
G1 X122.284 Y69.225 E6.15862
G1 X123.04 Y69.257 E6.27754
G1 X123.971 Y69.335 E6.42436
G1 X125.295 Y69.531 E6.6347
G1 X126.09 Y69.707 E6.76266
G1 X126.736 Y69.876 E6.8676
G1 X127.962 Y70.268 E7.06988
G1 X128.734 Y70.575 E7.20044
G1 X129.302 Y70.824 E7.29791
G1 X130.337 Y71.342 E7.4798
G1 X131.085 Y71.781 E7.6161
G1 X131.59 Y72.102 E7.71014
G1 X132.612 Y72.831 E7.90742
G1 X133.296 Y73.395 E8.04675
G1 X133.771 Y73.818 E8.1467
G1 X134.639 Y74.679 E8.33884
G1 X135.171 Y75.279 E8.46486
G1 X135.559 Y75.747 E8.5604
G1 X136.235 Y76.654 E8.73817
G1 X136.772 Y77.489 E8.89419
G1 X137.091 Y78.032 E8.99316
G1 X137.682 Y79.177 E9.19566
G1 X137.987 Y79.885 E9.31681
G1 X138.223 Y80.485 E9.41813
G1 X138.607 Y81.636 E9.60882
G1 X138.824 Y82.471 E9.7444
G1 X138.959 Y83.078 E9.84212
G1 X139.156 Y84.259 E10.03029
G1 X139.244 Y85.191 E10.1774
G1 X139.288 Y85.912 E10.29092
G1 X139.307 Y86.589 E10.39736
G1 X139.312 Y106.483 E13.52378
G1 X139.293 Y107.569 E13.69448
G1 X139.252 Y108.349 E13.81723
G1 X139.195 Y109.005 E13.92071
G1 X138.978 Y110.462 E14.15221
G1 X138.812 Y111.201 E14.27124
G1 X138.655 Y111.811 E14.37023
G1 X138.308 Y112.916 E14.55224
G1 X137.949 Y113.835 E14.7073
G1 X137.698 Y114.407 E14.80546
G1 X137.181 Y115.438 E14.98672
G1 X136.737 Y116.193 E15.12437
G1 X136.39 Y116.737 E15.22577
G1 X135.708 Y117.69 E15.40994
G1 X135.163 Y118.354 E15.54494
G1 X134.788 Y118.781 E15.63425
G1 X133.804 Y119.779 E15.8545
G1 X133.227 Y120.287 E15.97532
G1 X132.532 Y120.859 E16.11677
G1 X131.616 Y121.576 E16.29958
G1 X129.607 Y123.196 E16.70516
G1 X127.775 Y124.759 E17.08361
G1 X125.896 Y126.46 E17.48193
G1 X124.122 Y128.158 E17.86785
G1 X122.381 Y129.922 E18.25735
G1 X120.662 Y131.766 E18.65353
G1 X119.056 Y133.589 E19.03534
G1 X117.446 Y135.522 E19.43069
G1 X115.908 Y137.481 E19.8221
G1 X114.433 Y139.471 E20.21138
G1 X113.015 Y141.505 E20.60104
G1 X111.663 Y143.565 E20.98827
G1 X110.741 Y145.042 E21.2619
G1 X110.202 Y145.829 E21.41181
G1 X109.471 Y146.72 E21.59293
G1 X108.663 Y147.539 E21.77373
G1 X107.968 Y148.132 E21.91731
G1 X107.034 Y148.801 E22.09786
G1 X106.042 Y149.383 E22.27861
G1 X105.216 Y149.776 E22.42236
G1 X104.064 Y150.205 E22.61555
G1 X103.183 Y150.448 E22.75917
G1 X101.958 Y150.672 E22.95487
G1 X100.764 Y150.771 E23.14316
G1 X100.041 Y150.788 E23.25681
G1 X93.486 Y150.787 E24.28696
G1 X92.71 Y150.776 E24.40892
G1 X91.72 Y150.716 E24.56479
G1 X90.659 Y150.562 E24.73328
G1 X89.539 Y150.295 E24.91422
G1 X88.671 Y150.008 E25.0579
G1 X87.615 Y149.556 E25.23842
G1 X86.602 Y149.006 E25.41956
G1 X85.774 Y148.458 E25.57561
G1 X84.933 Y147.792 E25.7442
G1 X84.212 Y147.114 E25.89973
G1 X83.394 Y146.195 E26.09308
G1 X82.804 Y145.396 E26.24917
G1 X82.205 Y144.414 E26.42994
G1 X81.732 Y143.453 E26.59827
G1 X81.345 Y142.458 E26.76605
G1 X81.084 Y141.581 E26.90985
G1 X80.849 Y140.437 E27.09339
G1 X80.701 Y138.848 E27.34418
G1 X80.688 Y138.196 E27.44667
G1 X80.689 Y136.069 E27.78094
G1 X80.701 Y135.297 E27.90227
G1 X80.755 Y134.357 E28.05024
G1 X80.853 Y133.354 E28.20862
G1 X81.07 Y130.788 E28.61332
G1 X81.21 Y128.319 E29.00195
G1 X81.279 Y125.814 E29.39577
G1 X81.279 Y123.395 E29.77593
G1 X81.206 Y120.844 E30.17699
G1 X81.064 Y118.379 E30.56502
G1 X80.848 Y115.84 E30.96548
G1 X80.757 Y114.95 E31.10607
G1 X80.703 Y114.12 E31.23679
G1 X80.688 Y113.433 E31.34478
G1 X80.689 Y86.995 E35.49962
G1 X80.701 Y86.234 E35.61923
G1 X80.738 Y85.414 E35.74822
G1 X80.814 Y84.535 E35.88688
G1 X81.01 Y83.226 E36.09489
G1 X81.2 Y82.37 E36.23268
G1 X81.352 Y81.789 E36.32706
G1 X81.749 Y80.552 E36.53123
G1 X82.076 Y79.733 E36.66982
G1 X82.325 Y79.169 E36.76671
G1 X82.859 Y78.115 E36.95239
G1 X83.252 Y77.45 E37.07379
G1 X83.616 Y76.879 E37.1802
G1 X84.275 Y75.955 E37.35856
G1 X84.868 Y75.236 E37.50503
G0 F6000 X85.541 Y75.833
G1 F600 X85.968 Y75.352 E37.60611
G1 X86.811 Y74.503 E37.79413
G1 X87.35 Y74.027 E37.90714
G1 X87.756 Y73.691 E37.98996
G1 X88.671 Y73.01 E38.16921
G1 X89.427 Y72.524 E38.31045
G1 X89.969 Y72.205 E38.40929
G1 X91.008 Y71.668 E38.59309
G1 X91.725 Y71.358 E38.71585
G1 X92.271 Y71.144 E38.80801
G1 X93.453 Y70.754 E39.00362
G1 X94.129 Y70.581 E39.11328
G1 X94.696 Y70.454 E39.20459
G1 X95.884 Y70.256 E39.39387
G1 X96.712 Y70.177 E39.52458
G1 X97.726 Y70.124 E39.68416
G1 X98.449 Y70.112 E39.79779
G1 X102.284 Y70.112 E40.40048
G1 X103.471 Y70.132 E40.58705
G1 X104.153 Y70.161 E40.69432
G1 X106.745 Y70.234 E41.10183
G1 X109.212 Y70.234 E41.48953
G1 X113.306 Y70.112 E42.1332
G1 X121.516 Y70.113 E43.42344
G1 X122.246 Y70.124 E43.53817
G1 X122.965 Y70.154 E43.65127
G1 X123.896 Y70.232 E43.79809
G1 X125.1 Y70.41 E43.98936
G1 X125.895 Y70.586 E44.11732
G1 X126.463 Y70.733 E44.20953
G1 X127.63 Y71.105 E44.40202
G1 X128.374 Y71.4 E44.5278
G1 X128.899 Y71.629 E44.61781
G1 X129.934 Y72.147 E44.7997
G1 X130.604 Y72.542 E44.92193
G1 X131.067 Y72.835 E45.00804
G1 X132.089 Y73.564 E45.20532
G1 X132.699 Y74.069 E45.32977
G1 X133.137 Y74.457 E45.42173
G1 X134.005 Y75.318 E45.61387
G1 X134.479 Y75.854 E45.72631
G1 X134.837 Y76.285 E45.81437
G1 X135.513 Y77.192 E45.99214
G1 X135.997 Y77.946 E46.13295
G1 X136.292 Y78.446 E46.22418
G1 X136.856 Y79.534 E46.41677
G1 X137.15 Y80.215 E46.53334
G1 X137.369 Y80.77 E46.62711
G1 X137.753 Y81.921 E46.81779
G1 X137.946 Y82.667 E46.93889
G1 X138.071 Y83.226 E47.02891
G1 X138.268 Y84.407 E47.21707
G1 X138.346 Y85.246 E47.34949
G1 X138.388 Y85.938 E47.45844
G1 X138.407 Y86.589 E47.56079
G1 X138.412 Y106.468 E50.68486
G1 X138.394 Y107.522 E50.85052
G1 X138.355 Y108.271 E50.96839
G1 X138.298 Y108.927 E51.07187
G1 X138.1 Y110.265 E51.28444
G1 X137.94 Y110.978 E51.39927
G1 X137.796 Y111.541 E51.4906
G1 X137.449 Y112.646 E51.67262
G1 X137.124 Y113.475 E51.81255
G1 X136.893 Y114.004 E51.90327
G1 X136.376 Y115.035 E52.08452
G1 X135.978 Y115.71 E52.20767
G1 X135.658 Y116.213 E52.30136
G1 X134.976 Y117.166 E52.48553
G1 X134.487 Y117.76 E52.60644
G1 X134.112 Y118.187 E52.69575
G1 X133.209 Y119.104 E52.898
G1 X132.655 Y119.592 E53.01402
G1 X131.977 Y120.15 E53.15202
G1 X131.061 Y120.867 E53.33483
G1 X129.042 Y122.495 E53.74242
G1 X127.191 Y124.074 E54.12478
G1 X125.292 Y125.793 E54.52732
G1 X123.481 Y127.526 E54.92125
G1 X121.74 Y129.29 E55.31075
G1 X120.004 Y131.152 E55.71082
G1 X118.364 Y133.013 E56.10064
G1 X116.754 Y134.946 E56.49599
G1 X115.2 Y136.925 E56.89142
G1 X113.71 Y138.935 E57.28463
G1 X112.277 Y140.99 E57.67835
G1 X110.899 Y143.089 E58.07295
G1 X109.998 Y144.533 E58.34043
G1 X109.459 Y145.32 E58.49034
G1 X108.777 Y146.147 E58.6588
G1 X108.079 Y146.854 E58.81493
G1 X107.384 Y147.447 E58.95851
G1 X106.577 Y148.026 E59.11459
G1 X105.655 Y148.57 E59.28283
G1 X104.829 Y148.963 E59.42658
G1 X103.825 Y149.337 E59.59496
G1 X102.944 Y149.58 E59.73858
G1 X101.883 Y149.775 E59.90812
G1 X100.742 Y149.871 E60.08806
G1 X100.041 Y149.888 E60.19826
G1 X93.498 Y149.887 E61.22652
G1 X92.761 Y149.877 E61.34235
G1 X91.849 Y149.825 E61.48591
G1 X90.788 Y149.671 E61.6544
G1 X89.822 Y149.44 E61.81049
G1 X88.954 Y149.153 E61.95416
G1 X88.042 Y148.764 E62.10998
G1 X87.099 Y148.255 E62.27839
G1 X86.271 Y147.707 E62.43443
G1 X85.494 Y147.088 E62.59055
G1 X84.83 Y146.46 E62.73418
G1 X84.118 Y145.66 E62.90248
G1 X83.528 Y144.861 E63.05857
G1 X83.011 Y144.014 E63.21452
G1 X82.57 Y143.125 E63.37047
G1 X82.208 Y142.201 E63.52643
G1 X81.947 Y141.324 E63.67023
G1 X81.745 Y140.352 E63.82625
G1 X81.601 Y138.83 E64.0665
G1 X81.588 Y138.196 E64.16616
G1 X81.589 Y136.082 E64.49838
G1 X81.6 Y135.348 E64.61375
G1 X81.651 Y134.445 E64.75588
G1 X81.749 Y133.442 E64.91426
G1 X81.969 Y130.843 E65.32416
G1 X82.109 Y128.37 E65.71343
G1 X82.179 Y125.839 E66.11134
G1 X82.179 Y123.369 E66.49951
G1 X82.106 Y120.818 E66.90057
G1 X81.963 Y118.327 E67.29269
G1 X81.744 Y115.763 E67.6971
G1 X81.655 Y114.891 E67.83485
G1 X81.603 Y114.1 E67.95943
G1 X81.588 Y113.433 E68.06428
G1 X81.589 Y87.008 E72.21707
G1 X81.6 Y86.274 E72.33244
G1 X81.635 Y85.492 E72.45545
G1 X81.711 Y84.613 E72.59411
G1 X81.889 Y83.42 E72.78367
G1 X82.071 Y82.596 E72.91629
G1 X82.209 Y82.063 E73.00281
G1 X82.585 Y80.885 E73.19714
G1 X82.9 Y80.095 E73.3308
G1 X83.129 Y79.574 E73.42023
G1 X83.634 Y78.573 E73.59643
G1 X84.027 Y77.908 E73.71782
G1 X84.349 Y77.402 E73.81208
G1 X85.008 Y76.478 E73.99044
G1 X85.541 Y75.833 E74.12193
G0 F6000 X86.215 Y76.429
G1 F600 X86.607 Y75.986 E74.2149
G1 X87.45 Y75.137 E74.40292
G1 X87.926 Y74.719 E74.50247
G1 X88.295 Y74.412 E74.57791
G1 X89.158 Y73.767 E74.74723
G1 X89.914 Y73.281 E74.88847
G1 X90.382 Y73.005 E74.97385
G1 X91.421 Y72.468 E75.15766
G1 X92.056 Y72.195 E75.26628
G1 X92.554 Y71.998 E75.35045
G1 X93.677 Y71.626 E75.53636
G1 X94.328 Y71.459 E75.64198
G1 X94.844 Y71.342 E75.72513
G1 X96.032 Y71.144 E75.9144
G1 X96.76 Y71.076 E76.02931
G1 X97.741 Y71.024 E76.1837
G1 X98.464 Y71.012 E76.29733
G1 X102.269 Y71.012 E76.8953
G1 X103.432 Y71.031 E77.0781
G1 X104.128 Y71.061 E77.18758
G1 X106.72 Y71.134 E77.59509
G1 X109.239 Y71.134 E77.99096
G1 X113.306 Y71.012 E78.63039
G1 X121.503 Y71.013 E79.91858
G1 X122.209 Y71.023 E80.02954
G1 X122.89 Y71.051 E80.13666
G1 X123.821 Y71.129 E80.28348
G1 X124.906 Y71.289 E80.45584
G1 X125.672 Y71.458 E80.57911
G1 X126.191 Y71.591 E80.66331
G1 X127.299 Y71.942 E80.84596
G1 X128.016 Y72.226 E80.96716
G1 X128.496 Y72.434 E81.04937
G1 X129.531 Y72.952 E81.23126
G1 X130.123 Y73.303 E81.33942
G1 X130.586 Y73.596 E81.42553
G1 X131.516 Y74.258 E81.60493
G1 X132.104 Y74.744 E81.72481
G1 X132.503 Y75.096 E81.80843
G1 X133.371 Y75.957 E82.00057
G1 X133.788 Y76.431 E82.09978
G1 X134.115 Y76.823 E82.18001
G1 X134.791 Y77.73 E82.35778
G1 X135.223 Y78.405 E82.48372
G1 X135.494 Y78.862 E82.56722
G1 X136.03 Y79.891 E82.74956
G1 X136.314 Y80.548 E82.86204
G1 X136.516 Y81.056 E82.94796
G1 X136.882 Y82.147 E83.1288
G1 X137.068 Y82.865 E83.24536
G1 X137.183 Y83.374 E83.32737
G1 X137.38 Y84.555 E83.51553
G1 X137.448 Y85.3 E83.6331
G1 X137.488 Y85.965 E83.7378
G1 X137.507 Y86.589 E83.83591
G1 X137.512 Y106.453 E86.95762
G1 X137.495 Y107.476 E87.11841
G1 X137.458 Y108.193 E87.23124
G1 X137.401 Y108.849 E87.33472
G1 X137.222 Y110.068 E87.52834
G1 X137.068 Y110.756 E87.63914
G1 X136.937 Y111.271 E87.72265
G1 X136.59 Y112.376 E87.90467
G1 X136.298 Y113.117 E88.02984
G1 X136.088 Y113.601 E88.11275
G1 X135.571 Y114.632 E88.29401
G1 X135.218 Y115.228 E88.40287
G1 X134.926 Y115.689 E88.48862
G1 X134.244 Y116.642 E88.67279
G1 X133.811 Y117.166 E88.77962
G1 X133.436 Y117.593 E88.86893
G1 X132.613 Y118.429 E89.05329
G1 X132.083 Y118.897 E89.1644
G1 X131.422 Y119.441 E89.29894
G1 X130.506 Y120.158 E89.48175
G1 X128.477 Y121.794 E89.89136
G1 X126.588 Y123.407 E90.28172
G1 X124.688 Y125.125 E90.68428
G1 X122.859 Y126.876 E91.0822
G1 X121.082 Y128.676 E91.4797
G1 X119.346 Y130.538 E91.87977
G1 X117.672 Y132.437 E92.27761
G1 X116.062 Y134.37 E92.67296
G1 X114.492 Y136.369 E93.07242
G1 X112.987 Y138.399 E93.46955
G1 X111.539 Y140.475 E93.86732
G1 X110.135 Y142.613 E94.26929
G1 X109.234 Y144.057 E94.53677
G1 X108.717 Y144.811 E94.68045
G1 X108.135 Y145.517 E94.82424
G1 X107.495 Y146.169 E94.96782
G1 X106.8 Y146.762 E95.11139
G1 X106.055 Y147.293 E95.25517
G1 X105.268 Y147.757 E95.39874
G1 X104.442 Y148.15 E95.5425
G1 X103.586 Y148.469 E95.68606
G1 X102.705 Y148.712 E95.82968
G1 X101.806 Y148.878 E95.97335
G1 X100.719 Y148.971 E96.1448
G1 X100.041 Y148.988 E96.25139
G1 X93.51 Y148.987 E97.27776
G1 X92.812 Y148.978 E97.38746
G1 X91.9 Y148.926 E97.53102
G1 X90.995 Y148.795 E97.67473
G1 X90.105 Y148.585 E97.81844
G1 X89.237 Y148.298 E97.96211
G1 X88.398 Y147.937 E98.10565
G1 X87.593 Y147.503 E98.24937
G1 X86.829 Y147.001 E98.39304
G1 X86.112 Y146.434 E98.53669
G1 X85.448 Y145.806 E98.68032
G1 X84.84 Y145.123 E98.82402
G1 X84.295 Y144.39 E98.96757
G1 X83.816 Y143.611 E99.11128
G1 X83.407 Y142.794 E99.25487
G1 X83.071 Y141.944 E99.39851
G1 X82.81 Y141.067 E99.54231
G1 X82.627 Y140.172 E99.68587
G1 X82.501 Y138.811 E99.90067
G1 X82.488 Y138.196 E99.99734
G1 X82.489 Y136.095 E100.32752
G1 X82.499 Y135.398 E100.43707
G1 X82.547 Y134.533 E100.57322
G1 X82.645 Y133.53 E100.7316
G1 X82.868 Y130.898 E101.14671
G1 X83.008 Y128.421 E101.5366
G1 X83.079 Y125.864 E101.9386
G1 X83.079 Y123.343 E102.33478
G1 X83.006 Y120.792 E102.73585
G1 X82.862 Y118.276 E103.13189
G1 X82.641 Y115.686 E103.5404
G1 X82.553 Y114.831 E103.67548
G1 X82.503 Y114.079 E103.79392
G1 X82.488 Y113.433 E103.89547
G1 X82.489 Y87.021 E108.04622
G1 X82.499 Y86.314 E108.15734
G1 X82.532 Y85.57 E108.27438
G1 X82.608 Y84.691 E108.41303
G1 X82.779 Y83.554 E108.59373
G1 X82.943 Y82.819 E108.71208
G1 X83.067 Y82.335 E108.7906
G1 X83.421 Y81.218 E108.97474
G1 X83.724 Y80.456 E109.10361
G1 X83.933 Y79.979 E109.18546
G1 X84.438 Y78.978 E109.36165
G1 X84.787 Y78.39 E109.46911
G1 X85.082 Y77.925 E109.55565
G1 X85.741 Y77.001 E109.73401
G1 X86.215 Y76.429 E109.85076
G1 F2700 E104.85076
G1 F300 Z0.62
;MESH:SFS V2.0 Bracket for Ender3 V2.STL
EXCLUDE_OBJECT_START NAME=SFS_V2_0_Bracket_for_Ender3_V2_STL
G0 F6000 X98.868 Y113.76 Z0.62
;TYPE:WALL-INNER
G1 F300 Z0.42
G1 F2700 E109.85076
G1 F450 X98.868 Y135.536 E114.41367
G1 F445.9 X98.857 Y135.797 E114.46891
G0 F6000 X99.04 Y137.208
G1 F630.1 X99.04 Y136.779 E114.53311
G1 F581.9 X98.969 Y136.157 E114.63456
G1 F486 X98.857 Y135.797 E114.7077
G1 X98.653 Y136.092 E114.77728
G1 F581.9 X98.308 Y136.476 E114.86093
G1 F581.3 X97.924 Y136.821 E114.94467
G1 F485.6 X97.629 Y137.025 E115.01431
G1 X97.989 Y137.136 E115.08746
G1 F581.3 X98.611 Y137.208 E115.18903
G1 F630.1 X99.04 Y137.208 E115.25323
G0 F6000 X97.629 Y137.025
G1 F445.5 X97.368 Y137.036 E115.30852
G1 F450 X94.436 Y137.036 E115.92289
G1 F2700 E110.92289
G1 F300 Z0.62
G0 F6000 X98.868 Y113.76 Z0.62
G1 F300 Z0.42
G1 F2700 E115.92289
G1 F480 X98.943 Y113.36 E116.00283
G1 F553.8 X99.018 Y112.96 E116.07212
G1 F600 X99.018 Y112.16 E116.19784
G1 X99.066 Y111.737 E116.26474
G1 X99.303 Y111.329 E116.3389
G1 X99.477 Y111.144 E116.37881
G1 X99.857 Y110.91 E116.44894
G1 X100.255 Y110.81 E116.51343
G1 X122.015 Y110.81 E119.93311
G1 X122.631 Y110.762 E120.03021
G1 X123.185 Y110.628 E120.11978
G1 X123.717 Y110.408 E120.21025
G1 X124.208 Y110.107 E120.30076
G1 X124.638 Y109.742 E120.3894
G1 X125.008 Y109.308 E120.47903
G1 X125.308 Y108.817 E120.56945
G1 X125.528 Y108.285 E120.65993
G1 X125.662 Y107.731 E120.7495
G1 X125.71 Y107.115 E120.8466
G1 X125.71 Y86.508 E124.08508
G1 X125.662 Y85.889 E124.18265
G1 X125.528 Y85.338 E124.27176
G1 X125.308 Y84.801 E124.36296
G1 X125.009 Y84.314 E124.45277
G1 X124.643 Y83.887 E124.54115
G1 X124.202 Y83.511 E124.63223
G1 X123.716 Y83.211 E124.72198
