;FLAVOR:Marlin
;TIME:2587
;Filament used: 3.32706m
;Layer height: 0.3
;MINX:85.29
;MINY:73.809
;MINZ:0.42
;MAXX:134.709
;MAXY:146.191
;MAXZ:37.22
;TARGET_MACHINE.NAME:Creality Ender-3
;POSTPROCESSED
;  [InsertAtLayerChange]
;  [MeshPrintSize]
;Generated with Cura_SteamEngine 5.7.0


; Pre-Processed for Cancel-Object support by preprocess_cancellation v0.2.0
; 1 known objects
EXCLUDE_OBJECT_DEFINE NAME=SFS_V2_0_Bracket_for_Ender_3_V3_stl CENTER=102.668,108.552 POLYGON=[[93.24,81.756],[93.24,138.24],[126.76,138.24],[126.76,81.756]]
M82 ;absolute extrusion mode
;Nozzle diameter = 0.6
;Filament type = PLA
;Filament name = Purple/Pink
START_PRINT PRINT_MIN=85.29,73.809 PRINT_MAX=134.709,146.191 BED_TEMP=65 EXTRUDER_TEMP=210
G92 E0
G92 E0
G1 F2700 E-5
;LAYER_COUNT:123
TIMELAPSE_TAKE_FRAME
;LAYER:0
M107
G1 F300 Z0.62
G0 F6000 X89.012 Y77.464 Z0.62
;TYPE:SKIRT
G1 F300 Z0.42
G1 F2700 E0
G1 F600 X90.537 Y76.177 E0.3136
G1 X92.281 Y75.124 E0.63376
G1 X94.293 Y74.293 E0.97586
G1 X97.404 Y73.809 E1.47065
G1 X102.648 Y73.809 E2.29477
G1 X104.366 Y74.087 E2.56827
G1 X106.052 Y74.841 E2.85852
G1 X107.276 Y75.737 E3.09691
G1 X107.938 Y76.481 E3.25342
G1 X108.114 Y76.275 E3.296
G1 X109.289 Y75.229 E3.54322
G1 X110.399 Y74.561 E3.74681
G1 X111.757 Y74.046 E3.97506
G1 X113.037 Y73.809 E4.17964
G1 X122.659 Y73.834 E5.69178
G1 X124.03 Y73.943 E5.90792
G1 X126.022 Y74.423 E6.22993
G1 X127.861 Y75.192 E6.54318
G1 X129.48 Y76.19 E6.84207
G1 X131.063 Y77.542 E7.16923
G1 X132.356 Y79.074 E7.48428
G1 X133.389 Y80.785 E7.79838
G1 X134.143 Y82.635 E8.11233
G1 X134.589 Y84.554 E8.42195
G1 X134.709 Y86.426 E8.71675
G1 X134.685 Y107.809 E12.07718
G1 X134.568 Y109.179 E12.29326
G1 X134.119 Y111.057 E12.59671
G1 X133.339 Y112.946 E12.91789
G1 X132.345 Y114.569 E13.21699
G1 X130.973 Y116.173 E13.5487
G1 X129.453 Y117.452 E13.86089
G1 X127.742 Y118.486 E14.17506
G1 X126.016 Y119.197 E14.46842
G1 X123.978 Y119.694 E14.79809
G1 X122.579 Y119.795 E15.01852
G1 X108.022 Y119.809 E17.30621
G1 X108.022 Y139.032 E20.32719
G1 X107.744 Y140.75 E20.60069
G1 X106.99 Y142.436 E20.89094
G1 X106.094 Y143.66 E21.12933
G1 X104.845 Y144.772 E21.39214
G1 X103.733 Y145.44 E21.596
G1 X102.385 Y145.954 E21.82272
G1 X101.107 Y146.191 E22.02699
G1 X92.449 Y146.191 E23.38763
G1 X90.731 Y145.913 E23.66113
G1 X89.045 Y145.159 E23.95138
G1 X87.821 Y144.263 E24.18977
G1 X86.709 Y143.014 E24.45258
G1 X86.041 Y141.902 E24.65644
G1 X85.527 Y140.554 E24.88316
G1 X85.29 Y139.276 E25.08743
G1 X85.29 Y135.05 E25.75156
G1 X85.568 Y133.332 E26.02507
G1 X86.322 Y131.646 E26.31532
G1 X87.218 Y130.422 E26.5537
G1 X88.467 Y129.31 E26.81651
G1 X89.51 Y128.684 E27.00768
G1 X89.723 Y128.588 E27.0444
G1 X89.723 Y120.683 E28.2867
G1 X89.045 Y120.38 E28.40341
G1 X87.821 Y119.484 E28.64179
G1 X86.709 Y118.235 E28.9046
G1 X86.041 Y117.123 E29.10846
G1 X85.527 Y115.775 E29.33518
G1 X85.29 Y114.497 E29.53945
G1 X85.315 Y85.813 E34.04726
G1 X85.432 Y84.444 E34.26319
G1 X85.883 Y82.559 E34.56779
G1 X86.658 Y80.687 E34.8862
G1 X87.672 Y79.036 E35.19069
G1 X89.012 Y77.464 E35.51531
G0 F6000 X89.65 Y78.103
G1 F600 X91.065 Y76.909 E35.80627
G1 X92.683 Y75.932 E36.1033
G1 X94.54 Y75.165 E36.41905
G1 X97.471 Y74.709 E36.88521
G1 X102.578 Y74.709 E37.6878
G1 X104.104 Y74.956 E37.93074
G1 X105.598 Y75.624 E38.18793
G1 X106.669 Y76.408 E38.39652
G1 X107.658 Y77.519 E38.63027
G1 X107.944 Y77.995 E38.71754
G1 X108.712 Y76.947 E38.92173
G1 X109.823 Y75.958 E39.15548
G1 X110.796 Y75.373 E39.3339
G1 X111.997 Y74.917 E39.53579
G1 X113.119 Y74.709 E39.71512
G1 X122.588 Y74.731 E41.20322
G1 X123.886 Y74.834 E41.40785
G1 X125.742 Y75.281 E41.70787
G1 X127.45 Y75.996 E41.99885
G1 X128.947 Y76.918 E42.27516
G1 X130.423 Y78.179 E42.58024
G1 X131.624 Y79.602 E42.87287
G1 X132.582 Y81.189 E43.1642
G1 X133.281 Y82.904 E43.45524
G1 X133.696 Y84.689 E43.74324
G1 X133.809 Y86.425 E44.01664
G1 X133.788 Y107.733 E47.36528
G1 X133.677 Y109.038 E47.57111
G1 X133.26 Y110.778 E47.8523
G1 X132.535 Y112.534 E48.15086
G1 X131.613 Y114.04 E48.42837
G1 X130.337 Y115.532 E48.73689
G1 X128.925 Y116.72 E49.02689
G1 X127.338 Y117.679 E49.31829
G1 X125.734 Y118.34 E49.59093
G1 X123.843 Y118.801 E49.89681
G1 X122.514 Y118.897 E50.10622
G1 X107.122 Y118.91 E52.52513
G1 X107.122 Y138.962 E55.67639
G1 X106.875 Y140.488 E55.91933
G1 X106.207 Y141.982 E56.17652
G1 X105.423 Y143.053 E56.3851
G1 X104.312 Y144.042 E56.61886
G1 X103.338 Y144.627 E56.79741
G1 X102.14 Y145.084 E56.99892
G1 X101.024 Y145.291 E57.17729
G1 X92.519 Y145.291 E58.51389
G1 X90.993 Y145.044 E58.75683
G1 X89.499 Y144.376 E59.01402
G1 X88.428 Y143.592 E59.22261
G1 X87.439 Y142.481 E59.45636
G1 X86.854 Y141.507 E59.63492
G1 X86.397 Y140.309 E59.83642
G1 X86.19 Y139.193 E60.0148
G1 X86.19 Y135.12 E60.65489
G1 X86.437 Y133.594 E60.89782
G1 X87.105 Y132.1 E61.15501
G1 X87.889 Y131.029 E61.3636
G1 X89 Y130.04 E61.59736
G1 X89.973 Y129.456 E61.7757
G1 X90.623 Y129.208 E61.88503
G1 X90.623 Y120.099 E63.31655
G1 X89.499 Y119.597 E63.51
G1 X88.428 Y118.813 E63.71859
G1 X87.439 Y117.702 E63.95235
G1 X86.854 Y116.728 E64.1309
G1 X86.397 Y115.53 E64.33241
G1 X86.19 Y114.414 E64.51078
G1 X86.212 Y85.889 E68.99361
G1 X86.323 Y84.585 E69.19928
G1 X86.741 Y82.84 E69.48127
G1 X87.463 Y81.096 E69.7779
G1 X88.402 Y79.567 E70.05989
G1 X89.65 Y78.103 E70.36221
G0 F6000 X90.288 Y78.742
G1 F600 X91.593 Y77.641 E70.63054
G1 X93.085 Y76.74 E70.90445
G1 X94.787 Y76.037 E71.19384
G1 X97.538 Y75.609 E71.63138
G1 X102.508 Y75.609 E72.41243
G1 X103.842 Y75.825 E72.62481
G1 X105.144 Y76.407 E72.84893
G1 X106.062 Y77.079 E73.02772
G1 X106.931 Y78.055 E73.23309
G1 X107.429 Y78.884 E73.38507
G1 X107.83 Y79.936 E73.562
G1 X107.976 Y80.721 E73.68749
G1 X108.129 Y79.774 E73.83824
G1 X108.711 Y78.472 E74.06237
G1 X109.383 Y77.554 E74.24116
G1 X110.359 Y76.685 E74.44653
G1 X111.188 Y76.187 E74.59851
G1 X112.239 Y75.787 E74.77523
G1 X113.201 Y75.609 E74.92898
G1 X122.517 Y75.628 E76.39303
G1 X123.742 Y75.725 E76.58615
G1 X125.464 Y76.14 E76.86452
G1 X127.037 Y76.798 E77.13248
G1 X128.418 Y77.649 E77.38741
G1 X129.781 Y78.813 E77.66909
G1 X130.888 Y80.125 E77.93886
G1 X131.777 Y81.598 E78.20924
G1 X132.419 Y83.173 E78.47653
G1 X132.803 Y84.824 E78.74292
G1 X132.909 Y86.424 E78.99492
G1 X132.891 Y107.656 E82.33162
G1 X132.785 Y108.897 E82.52735
G1 X132.402 Y110.497 E82.7859
G1 X131.73 Y112.124 E83.06254
G1 X130.881 Y113.511 E83.31811
G1 X129.701 Y114.891 E83.60346
G1 X128.397 Y115.988 E83.87126
G1 X126.934 Y116.872 E84.13989
G1 X125.452 Y117.483 E84.39181
G1 X123.708 Y117.908 E84.6739
G1 X122.449 Y117.999 E84.87228
G1 X106.222 Y118.011 E87.42242
G1 X106.222 Y138.892 E90.70395
G1 X106.006 Y140.226 E90.91633
G1 X105.424 Y141.528 E91.14045
G1 X104.752 Y142.446 E91.31925
G1 X103.776 Y143.315 E91.52461
G1 X102.947 Y143.813 E91.6766
G1 X101.895 Y144.214 E91.85353
G1 X100.941 Y144.391 E92.00601
G1 X92.589 Y144.391 E93.31856
G1 X91.255 Y144.175 E93.53093
G1 X89.953 Y143.593 E93.75506
G1 X89.035 Y142.921 E93.93385
G1 X88.166 Y141.945 E94.13922
G1 X87.668 Y141.116 E94.2912
G1 X87.267 Y140.064 E94.46813
G1 X87.09 Y139.11 E94.62062
G1 X87.09 Y135.19 E95.23666
G1 X87.306 Y133.856 E95.44903
G1 X87.888 Y132.554 E95.67316
G1 X88.56 Y131.636 E95.85195
G1 X89.536 Y130.767 E96.05732
G1 X90.365 Y130.269 E96.2093
G1 X91.523 Y129.828 E96.40404
G1 X91.523 Y119.439 E98.03671
G1 X91.15 Y119.349 E98.09701
G1 X89.953 Y118.814 E98.30306
G1 X89.035 Y118.142 E98.48185
G1 X88.166 Y117.166 E98.68722
G1 X87.668 Y116.337 E98.8392
G1 X87.267 Y115.285 E99.01613
G1 X87.09 Y114.331 E99.16861
G1 X87.109 Y85.966 E103.62629
G1 X87.215 Y84.724 E103.82219
G1 X87.598 Y83.123 E104.08089
G1 X88.268 Y81.505 E104.3561
G1 X89.132 Y80.098 E104.61558
G1 X90.288 Y78.742 E104.89561
G0 F6000 X90.924 Y79.384
G1 F600 X92.124 Y78.371 E105.14241
G1 X93.487 Y77.548 E105.39263
G1 X95.034 Y76.909 E105.65567
G1 X97.605 Y76.509 E106.06457
G1 X102.438 Y76.509 E106.8241
G1 X103.58 Y76.694 E107.00591
G1 X104.69 Y77.19 E107.19697
G1 X105.455 Y77.75 E107.34596
G1 X106.202 Y78.589 E107.5225
G1 X106.617 Y79.279 E107.64904
G1 X106.959 Y80.178 E107.8002
G1 X107.107 Y80.974 E107.92744
G1 X107.107 Y89.144 E109.21139
G1 X106.949 Y90.169 E109.37437
G1 X106.988 Y90.535 E109.43222
G1 X107.137 Y90.847 E109.48656
G1 X107.395 Y91.1 E109.54334
G1 X107.702 Y91.242 E109.5965
G1 X107.898 Y91.276 E109.62776
G1 X108.241 Y91.244 E109.6819
G1 X108.421 Y91.179 E109.71198
G1 X108.697 Y90.985 E109.76499
G1 X108.898 Y90.709 E109.81865
G1 X109 Y90.353 E109.87685
G1 X109.003 Y90.183 E109.90357
G1 X108.813 Y88.991 E110.09326
G1 X108.813 Y81.178 E111.32111
G1 X108.998 Y80.036 E111.50292
G1 X109.494 Y78.926 E111.69398
G1 X110.054 Y78.161 E111.84297
G1 X110.893 Y77.414 E112.01951
G1 X111.583 Y76.999 E112.14605
G1 X112.482 Y76.657 E112.29721
G1 X113.283 Y76.509 E112.42522
G1 X122.446 Y76.525 E113.86523
G1 X123.599 Y76.616 E114.04699
G1 X125.184 Y76.998 E114.30321
G1 X126.626 Y77.602 E114.5489
G1 X127.885 Y78.377 E114.78124
G1 X129.141 Y79.45 E115.04085
G1 X130.152 Y80.648 E115.2872
G1 X130.972 Y82.007 E115.53664
G1 X131.557 Y83.442 E115.78018
G1 X131.91 Y84.959 E116.02495
G1 X132.009 Y86.423 E116.25555
G1 X131.994 Y107.579 E119.5803
G1 X131.893 Y108.758 E119.76627
G1 X131.545 Y110.214 E120.00153
G1 X130.925 Y111.714 E120.2566
G1 X130.149 Y112.982 E120.49023
G1 X129.065 Y114.25 E120.75239
G1 X127.869 Y115.256 E120.998
G1 X126.53 Y116.065 E121.24385
G1 X125.17 Y116.626 E121.47505
G1 X123.573 Y117.015 E121.73337
G1 X122.384 Y117.101 E121.92071
G1 X105.322 Y117.112 E124.60207
G1 X105.322 Y138.822 E128.01389
G1 X105.137 Y139.964 E128.1957
G1 X104.641 Y141.074 E128.38677
G1 X104.081 Y141.839 E128.53576
G1 X103.242 Y142.586 E128.7123
G1 X102.552 Y143.001 E128.83884
G1 X101.653 Y143.343 E128.99
G1 X100.857 Y143.491 E129.11723
G1 X92.659 Y143.491 E130.40558
G1 X91.517 Y143.306 E130.58739
G1 X90.407 Y142.81 E130.77846
G1 X89.642 Y142.25 E130.92745
G1 X88.895 Y141.411 E131.10399
G1 X88.48 Y140.721 E131.23053
G1 X88.138 Y139.822 E131.38169
G1 X87.99 Y139.026 E131.50893
G1 X87.99 Y135.26 E132.10077
G1 X88.175 Y134.118 E132.28258
G1 X88.671 Y133.008 E132.47364
G1 X89.231 Y132.243 E132.62264
G1 X90.07 Y131.496 E132.79918
G1 X90.76 Y131.081 E132.92571
G1 X91.662 Y130.738 E133.07737
G1 X92.423 Y130.602 E133.19886
G1 X92.423 Y118.674 E135.07339
G1 X91.517 Y118.527 E135.21764
G1 X90.407 Y118.031 E135.4087
G1 X89.642 Y117.471 E135.55769
G1 X88.895 Y116.632 E135.73423
G1 X88.48 Y115.942 E135.86077
G1 X88.138 Y115.043 E136.01193
G1 X87.99 Y114.247 E136.13917
G1 X88.006 Y86.042 E140.5717
G1 X88.106 Y84.865 E140.75734
G1 X88.456 Y83.404 E140.99344
G1 X89.073 Y81.914 E141.24688
G1 X89.862 Y80.629 E141.48385
G1 X90.924 Y79.384 E141.74102
G0 F6000 X91.562 Y80.023
G1 F600 X92.652 Y79.103 E141.96518
G1 X93.889 Y78.356 E142.19228
G1 X95.281 Y77.781 E142.42896
G1 X97.672 Y77.409 E142.80924
G1 X102.368 Y77.409 E143.54724
G1 X103.318 Y77.563 E143.69848
G1 X104.236 Y77.973 E143.85648
G1 X104.848 Y78.421 E143.97568
G1 X105.473 Y79.123 E144.12339
G1 X105.805 Y79.674 E144.22448
G1 X106.089 Y80.421 E144.35008
G1 X106.207 Y81.057 E144.45173
G1 X106.207 Y89.078 E145.71227
G1 X106.047 Y90.114 E145.87701
G1 X106.054 Y90.442 E145.92857
G1 X106.119 Y90.781 E145.98281
G1 X106.238 Y91.096 E146.03573
G1 X106.402 Y91.372 E146.08618
G1 X106.623 Y91.63 E146.13957
G1 X106.883 Y91.844 E146.19249
G1 X107.164 Y92.004 E146.24331
G1 X107.474 Y92.116 E146.29511
G1 X107.819 Y92.176 E146.35014
G1 X108.133 Y92.176 E146.39949
G1 X108.474 Y92.116 E146.4539
G1 X108.797 Y92 E146.50784
G1 X109.066 Y91.847 E146.55647
G1 X109.329 Y91.63 E146.61005
G1 X109.554 Y91.368 E146.66433
G1 X109.714 Y91.098 E146.71365
G1 X109.834 Y90.781 E146.76692
G1 X109.898 Y90.445 E146.82067
G1 X109.905 Y90.121 E146.8716
G1 X109.713 Y88.918 E147.06305
G1 X109.713 Y81.248 E148.26842
G1 X109.867 Y80.298 E148.41967
G1 X110.277 Y79.38 E148.57767
G1 X110.725 Y78.768 E148.69686
G1 X111.427 Y78.143 E148.84457
G1 X111.978 Y77.811 E148.94567
G1 X112.725 Y77.527 E149.07126
G1 X113.364 Y77.409 E149.17338
G1 X122.375 Y77.422 E150.5895
G1 X123.456 Y77.507 E150.75991
G1 X124.903 Y77.856 E150.99383
G1 X126.21 Y78.404 E151.21655
G1 X127.356 Y79.109 E151.428
G1 X128.501 Y80.087 E151.66465
G1 X129.42 Y81.176 E151.88859
G1 X130.165 Y82.41 E152.11512
G1 X130.695 Y83.711 E152.33589
G1 X131.017 Y85.094 E152.55905
G1 X131.109 Y86.422 E152.76825
G1 X131.097 Y107.503 E156.08121
G1 X131.002 Y108.617 E156.25692
G1 X130.687 Y109.933 E156.46958
G1 X130.12 Y111.304 E156.70273
G1 X129.417 Y112.453 E156.91442
G1 X128.429 Y113.609 E157.1534
G1 X127.341 Y114.524 E157.37681
G1 X126.126 Y115.258 E157.59989
G1 X124.888 Y115.769 E157.81037
G1 X123.438 Y116.122 E158.0449
G1 X122.319 Y116.203 E158.22122
G1 X104.422 Y116.213 E161.0338
G1 X104.422 Y138.752 E164.5759
G1 X104.268 Y139.702 E164.72715
G1 X103.858 Y140.62 E164.88515
G1 X103.41 Y141.232 E165.00434
G1 X102.708 Y141.857 E165.15205
G1 X102.157 Y142.189 E165.25315
G1 X101.41 Y142.473 E165.37874
G1 X100.774 Y142.591 E165.4804
G1 X92.729 Y142.591 E166.7447
G1 X91.779 Y142.437 E166.89595
G1 X90.861 Y142.027 E167.05395
G1 X90.249 Y141.579 E167.17314
G1 X89.624 Y140.877 E167.32085
G1 X89.292 Y140.326 E167.42195
G1 X89.008 Y139.579 E167.54754
G1 X88.89 Y138.943 E167.6492
G1 X88.89 Y135.33 E168.217
G1 X89.044 Y134.38 E168.36824
G1 X89.454 Y133.462 E168.52624
G1 X89.902 Y132.85 E168.64544
G1 X90.604 Y132.225 E168.79315
G1 X91.155 Y131.893 E168.89424
G1 X91.902 Y131.609 E169.01984
G1 X92.538 Y131.491 E169.12149
G1 X93.323 Y131.491 E169.24486
G1 X93.323 Y117.812 E171.39457
G1 X92.729 Y117.812 E171.48792
G1 X91.779 Y117.658 E171.63917
G1 X90.861 Y117.248 E171.79717
G1 X90.249 Y116.8 E171.91636
G1 X89.624 Y116.098 E172.06407
G1 X89.292 Y115.547 E172.16517
G1 X89.008 Y114.8 E172.29076
G1 X88.89 Y114.164 E172.39242
G1 X88.903 Y86.119 E176.7998
G1 X88.998 Y85.006 E176.97535
G1 X89.314 Y83.686 E177.18866
G1 X89.878 Y82.323 E177.42047
G1 X90.592 Y81.16 E177.63494
G1 X91.562 Y80.023 E177.86981
G0 F6000 X92.2 Y80.662
G1 F600 X93.18 Y79.835 E178.07133
G1 X94.291 Y79.164 E178.2753
G1 X95.528 Y78.653 E178.48564
G1 X97.739 Y78.309 E178.83729
G1 X102.298 Y78.309 E179.55375
G1 X103.056 Y78.432 E179.67443
G1 X103.782 Y78.756 E179.79937
G1 X104.241 Y79.092 E179.88877
G1 X104.743 Y79.656 E180.00743
G1 X104.994 Y80.072 E180.08378
G1 X105.219 Y80.664 E180.18331
G1 X105.307 Y81.14 E180.25938
G1 X105.307 Y89.006 E181.49556
G1 X105.146 Y90.051 E181.66172
G1 X105.155 Y90.538 E181.73827
G1 X105.249 Y91.023 E181.81591
G1 X105.425 Y91.49 E181.89434
G1 X105.668 Y91.898 E181.96897
G1 X105.99 Y92.275 E182.04688
G1 X106.369 Y92.587 E182.12403
G1 X106.787 Y92.825 E182.19962
G1 X107.246 Y92.99 E182.27628
G1 X107.739 Y93.076 E182.35492
G1 X108.214 Y93.076 E182.42957
G1 X108.705 Y92.99 E182.50791
G1 X109.172 Y92.822 E182.5859
G1 X109.58 Y92.59 E182.65966
G1 X109.964 Y92.273 E182.73792
G1 X110.288 Y91.896 E182.81604
G1 X110.529 Y91.488 E182.89051
G1 X110.703 Y91.029 E182.96765
G1 X110.797 Y90.538 E183.04621
G1 X110.806 Y90.059 E183.1215
G1 X110.613 Y88.846 E183.31453
G1 X110.613 Y81.318 E184.49759
G1 X110.736 Y80.56 E184.61827
G1 X111.06 Y79.834 E184.74321
G1 X111.396 Y79.375 E184.8326
G1 X111.96 Y78.873 E184.95126
G1 X112.376 Y78.622 E185.02762
G1 X112.968 Y78.397 E185.12714
G1 X113.445 Y78.309 E185.20337
G1 X122.305 Y78.319 E186.59576
G1 X123.312 Y78.398 E186.7545
G1 X124.622 Y78.714 E186.96628
G1 X125.797 Y79.207 E187.16653
G1 X126.825 Y79.839 E187.35617
G1 X127.861 Y80.724 E187.5703
G1 X128.688 Y81.704 E187.77182
G1 X129.356 Y82.81 E187.97488
G1 X129.834 Y83.984 E188.17408
G1 X130.124 Y85.229 E188.37498
G1 X130.209 Y86.422 E188.56294
G1 X130.2 Y107.427 E191.86396
G1 X130.111 Y108.475 E192.02925
G1 X129.828 Y109.654 E192.2198
G1 X129.317 Y110.892 E192.43028
G1 X128.685 Y111.924 E192.62046
G1 X127.793 Y112.968 E192.83625
G1 X126.816 Y113.79 E193.03691
G1 X125.719 Y114.453 E193.23835
G1 X124.611 Y114.91 E193.4267
G1 X123.298 Y115.229 E193.63905
G1 X122.254 Y115.305 E193.80355
G1 X103.522 Y115.313 E196.74736
G1 X103.522 Y138.682 E200.4199
G1 X103.399 Y139.44 E200.54058
G1 X103.075 Y140.166 E200.66552
