;FLAVOR:Marlin
M73 P0


; Pre-Processed for Cancel-Object support by preprocess_cancellation v0.2.0
; 1 known objects
EXCLUDE_OBJECT_DEFINE NAME=Fabulous_Bojo_stl CENTER=109.714,110.053 POLYGON=[[106.554,106.554],[106.554,113.446],[113.446,113.446],[113.446,106.554]]
M117 Time Left 0h19m16s
;TIME:1156
;Filament used: 1.33161m
;Layer height: 0.3
;MINX:98.606
;MINY:98.606
;MINZ:0.45
;MAXX:121.394
;MAXY:121.394
;MAXZ:90.05
;TARGET_MACHINE.NAME:Creality Ender-3
;POSTPROCESSED
;  [InsertAtLayerChange]
;  [MeshPrintSize]
;  [DisplayProgressOnLCD]
;  [DisplayFilenameAndLayerOnLCD]
;KLIPPERSETTINGSPROCESSED
SET_RETRACTION RETRACT_LENGTH=5 RETRACT_SPEED=20 UNRETRACT_SPEED=20 ;KlipperSettingsPlugin

;Generated with Cura_SteamEngine 5.6.0
M82 ;absolute extrusion mode
;Nozzle diameter = 0.6
;Filament type = PLA
;Filament name = PLA
START_PRINT PRINT_MIN=98.606,98.606 PRINT_MAX=121.394,121.394 BED_TEMP=65 EXTRUDER_TEMP=215
G92 E0
G92 E0
G10
;LAYER_COUNT:299
TIMELAPSE_TAKE_FRAME
;LAYER:0
M117 Printing Fabulous Bojo - Layer 0 of 298
M107
G1 F300 Z0.65
G0 F6000 X101.156 Y102.785 Z0.65
;TYPE:SKIRT
G1 F300 Z0.45
G11
G1 F600 X102.801 Y101.142 E0.39148
G1 X103.815 Y100.41 E0.60205
G1 X105.87 Y99.365 E0.99024
G1 X107.087 Y98.967 E1.20584
G1 X109.358 Y98.606 E1.59303
G1 X110.656 Y98.606 E1.81159
G1 X112.908 Y98.967 E2.19562
G1 X114.132 Y99.368 E2.41249
G1 X116.185 Y100.409 E2.80008
G1 X117.215 Y101.156 E3.01432
G1 X118.858 Y102.801 E3.40579
G1 X119.59 Y103.815 E3.61637
G1 X120.635 Y105.87 E4.00456
G1 X121.033 Y107.087 E4.22016
G1 X121.394 Y109.358 E4.60735
G1 X121.394 Y110.656 E4.8259
G1 X121.033 Y112.908 E5.20993
G1 X120.632 Y114.132 E5.42681
G1 X119.591 Y116.185 E5.81439
G1 X118.844 Y117.215 E6.02863
G1 X117.199 Y118.858 E6.42011
G1 X116.185 Y119.59 E6.63069
G1 X114.13 Y120.635 E7.01887
G1 X112.911 Y121.033 E7.23479
G1 X110.647 Y121.394 E7.62082
G1 X109.347 Y121.394 E7.83971
G1 X107.089 Y121.032 E8.22477
G1 X105.868 Y120.632 E8.44111
G1 X103.795 Y119.58 E8.83254
G1 X102.812 Y118.862 E9.0375
G1 X101.138 Y117.188 E9.43612
G1 X100.42 Y116.206 E9.64096
G1 X99.361 Y114.121 E10.03471
G1 X98.967 Y112.921 E10.24738
G1 X98.606 Y110.642 E10.6359
G1 X98.606 Y109.344 E10.85446
G1 X98.967 Y107.092 E11.23849
G1 X99.368 Y105.868 E11.45537
G1 X100.409 Y103.815 E11.84295
G1 X101.156 Y102.785 E12.05719
G0 F6000 X101.842 Y103.373
G1 F600 X103.388 Y101.828 E12.42521
G1 X104.285 Y101.181 E12.61144
G1 X106.217 Y100.198 E12.97643
G1 X107.296 Y99.845 E13.16759
G1 X109.43 Y99.506 E13.53142
G1 X110.583 Y99.506 E13.72556
G1 X112.699 Y99.845 E14.08639
G1 X113.783 Y100.2 E14.27846
G1 X115.716 Y101.181 E14.64345
G1 X116.627 Y101.842 E14.83297
G1 X118.172 Y103.388 E15.20099
G1 X118.819 Y104.285 E15.38721
G1 X119.802 Y106.217 E15.75221
G1 X120.155 Y107.296 E15.94337
G1 X120.494 Y109.43 E16.30719
G1 X120.494 Y110.583 E16.50134
G1 X120.155 Y112.699 E16.86217
G1 X119.8 Y113.783 E17.05423
G1 X118.819 Y115.716 E17.41923
G1 X118.158 Y116.627 E17.60874
G1 X116.612 Y118.172 E17.97676
G1 X115.715 Y118.819 E18.16299
G1 X113.783 Y119.802 E18.52799
G1 X112.703 Y120.155 E18.7193
G1 X110.574 Y120.494 E19.0823
G1 X109.42 Y120.494 E19.27661
G1 X107.298 Y120.154 E19.63847
G1 X106.217 Y119.8 E19.83
G1 X104.267 Y118.81 E20.19823
G1 X103.395 Y118.173 E20.38006
G1 X101.827 Y116.605 E20.75344
G1 X101.188 Y115.731 E20.93574
G1 X100.195 Y113.776 E21.30495
G1 X99.845 Y112.71 E21.49387
G1 X99.506 Y110.57 E21.8587
G1 X99.506 Y109.417 E22.05284
G1 X99.845 Y107.301 E22.41367
G1 X100.2 Y106.217 E22.60573
G1 X101.181 Y104.284 E22.97073
G1 X101.842 Y103.373 E23.16024
G0 F6000 X102.528 Y103.96
G1 F600 X101.952 Y104.753 E23.32528
G1 X101.032 Y106.566 E23.6676
G1 X100.723 Y107.51 E23.83485
G1 X100.406 Y109.49 E24.17249
G1 X100.406 Y110.498 E24.34221
G1 X100.723 Y112.499 E24.68334
G1 X101.029 Y113.431 E24.84852
G1 X101.956 Y115.256 E25.19318
G1 X102.516 Y116.022 E25.35295
G1 X103.978 Y117.484 E25.70109
G1 X104.742 Y118.042 E25.86039
G1 X106.563 Y118.967 E26.20429
G1 X107.507 Y119.276 E26.37154
G1 X109.493 Y119.594 E26.7102
G1 X110.501 Y119.594 E26.87993
G1 X112.491 Y119.277 E27.21923
G1 X113.44 Y118.967 E27.38733
G1 X115.242 Y118.05 E27.72778
G1 X116.028 Y117.483 E27.89097
G1 X117.472 Y116.04 E28.2347
G1 X118.048 Y115.247 E28.39973
G1 X118.968 Y113.434 E28.74206
G1 X119.277 Y112.49 E28.90931
G1 X119.594 Y110.51 E29.24694
M73 P1
G1 X119.594 Y109.502 E29.41667
G1 X119.277 Y107.509 E29.75647
G1 X118.967 Y106.56 E29.92457
G1 X118.05 Y104.758 E30.26502
G1 X117.483 Y103.972 E30.42821
G1 X116.04 Y102.528 E30.77194
G1 X115.247 Y101.952 E30.93697
G1 X113.434 Y101.032 E31.2793
M117 Time Left 0h19m01s
G1 X112.49 Y100.723 E31.44655
G1 X110.51 Y100.406 E31.78418
G1 X109.502 Y100.406 E31.95391
G1 X107.509 Y100.723 E32.29371
G1 X106.56 Y101.033 E32.46181
G1 X104.758 Y101.95 E32.80226
G1 X103.972 Y102.517 E32.96544
G1 X102.528 Y103.96 E33.30918
G0 F6000 X103.214 Y104.547
G1 F600 X104.556 Y103.206 E33.62862
G1 X105.231 Y102.719 E33.76877
G1 X106.907 Y101.866 E34.08542
G1 X107.718 Y101.601 E34.22908
G1 X109.574 Y101.306 E34.54552
G1 X110.437 Y101.306 E34.69083
G1 X112.281 Y101.601 E35.00527
G1 X113.09 Y101.866 E35.14861
G1 X114.772 Y102.72 E35.46624
G1 X115.453 Y103.214 E35.6079
G1 X116.794 Y104.556 E35.92734
G1 X117.281 Y105.231 E36.06749
G1 X118.134 Y106.907 E36.38414
G1 X118.399 Y107.718 E36.5278
G1 X118.694 Y109.574 E36.84424
G1 X118.694 Y110.437 E36.98955
G1 X118.399 Y112.281 E37.30399
G1 X118.134 Y113.09 E37.44733
G1 X117.28 Y114.772 E37.76496
G1 X116.786 Y115.453 E37.90662
G1 X115.444 Y116.794 E38.22606
G1 X114.769 Y117.281 E38.36621
G1 X113.093 Y118.134 E38.68286
G1 X112.282 Y118.399 E38.82652
G1 X110.429 Y118.694 E39.14246
G1 X109.566 Y118.694 E39.28777
G1 X107.716 Y118.398 E39.60323
G1 X106.907 Y118.133 E39.74657
G1 X105.219 Y117.276 E40.06533
G1 X104.561 Y116.795 E40.20257
G1 X103.205 Y115.439 E40.52547
G1 X102.724 Y114.781 E40.66271
G1 X101.863 Y113.086 E40.98282
G1 X101.601 Y112.288 E41.12424
G1 X101.306 Y110.426 E41.44168
G1 X101.306 Y109.563 E41.58699
G1 X101.601 Y107.719 E41.90143
G1 X101.866 Y106.91 E42.04477
G1 X102.72 Y105.228 E42.3624
G1 X103.214 Y104.547 E42.50406
G0 F6000 X103.901 Y105.133
G1 F600 X103.489 Y105.701 E42.62221
G1 X102.699 Y107.256 E42.91589
G1 X102.479 Y107.928 E43.03495
G1 X102.206 Y109.636 E43.32619
G1 X102.206 Y110.354 E43.44709
G1 X102.479 Y112.077 E43.74082
G1 X102.697 Y112.741 E43.8585
G1 X103.492 Y114.306 E44.15406
G1 X103.894 Y114.856 E44.26877
G1 X105.144 Y116.106 E44.56643
G1 X105.694 Y116.508 E44.68114
G1 X107.253 Y117.3 E44.97557
G1 X107.925 Y117.52 E45.09463
G1 X109.639 Y117.794 E45.3869
G1 X110.357 Y117.794 E45.5078
G1 X112.073 Y117.521 E45.80037
G1 X112.746 Y117.301 E45.91959
G1 X114.296 Y116.512 E46.21244
G1 X114.86 Y116.105 E46.32956
G1 X116.099 Y114.867 E46.62447
G1 X116.511 Y114.299 E46.74262
G1 X117.301 Y112.744 E47.0363
G1 X117.521 Y112.072 E47.15536
G1 X117.794 Y110.364 E47.44661
G1 X117.794 Y109.646 E47.5675
G1 X117.521 Y107.927 E47.86058
G1 X117.301 Y107.254 E47.9798
G1 X116.512 Y105.704 E48.27265
G1 X116.105 Y105.14 E48.38976
G1 X114.867 Y103.901 E48.68468
G1 X114.299 Y103.489 E48.80283
G1 X112.744 Y102.699 E49.09651
G1 X112.072 Y102.479 E49.21557
G1 X110.364 Y102.206 E49.50681
G1 X109.646 Y102.206 E49.62771
G1 X107.927 Y102.479 E49.92078
G1 X107.254 Y102.699 E50.04
G1 X105.704 Y103.488 E50.33286
G1 X105.14 Y103.895 E50.44997
G1 X103.901 Y105.133 E50.74489
G0 F6000 X104.588 Y105.719
G1 F600 X104.258 Y106.174 E50.83953
G1 X103.534 Y107.599 E51.10866
G1 X103.357 Y108.141 E51.20467
G1 X103.106 Y109.709 E51.47205
G1 X103.106 Y110.282 E51.56853
G1 X103.357 Y111.866 E51.83857
G1 X103.531 Y112.396 E51.9325
G1 X104.26 Y113.831 E52.20351
G1 X104.583 Y114.273 E52.29569
G1 X105.727 Y115.417 E52.5681
G1 X106.169 Y115.74 E52.66028
G1 X107.596 Y116.465 E52.92979
G1 X108.138 Y116.642 E53.0258
G1 X109.712 Y116.894 E53.2942
M73 P2
G1 X110.285 Y116.894 E53.39068
G1 X111.864 Y116.643 E53.65989
G1 X112.399 Y116.468 E53.75467
G1 X113.823 Y115.743 E54.02373
G1 X114.276 Y115.416 E54.1178
G1 X115.412 Y114.281 E54.38819
G1 X115.742 Y113.826 E54.48284
G1 X116.466 Y112.401 E54.75197
G1 X116.643 Y111.859 E54.84797
G1 X116.894 Y110.291 E55.11535
G1 X116.894 Y109.718 E55.21184
G1 X116.643 Y108.136 E55.48154
G1 X116.468 Y107.601 E55.57632
G1 X115.743 Y106.177 E55.84538
G1 X115.416 Y105.724 E55.93946
G1 X114.281 Y104.588 E56.20985
G1 X113.826 Y104.258 E56.30449
M117 Time Left 0h18m46s
G1 X112.401 Y103.534 E56.57362
G1 X111.859 Y103.357 E56.66963
G1 X110.291 Y103.106 E56.93701
G1 X109.718 Y103.106 E57.03349
G1 X108.136 Y103.357 E57.3032
G1 X107.601 Y103.532 E57.39798
G1 X106.177 Y104.257 E57.66703
G1 X105.724 Y104.584 E57.76111
G1 X104.588 Y105.719 E58.0315
G0 F6000 X105.275 Y106.305
G1 F600 X105.027 Y106.647 E58.10263
G1 X104.367 Y107.945 E58.34782
G1 X104.235 Y108.349 E58.41938
G1 X104.006 Y109.782 E58.66373
G1 X104.006 Y110.21 E58.7358
G1 X104.235 Y111.655 E58.98214
G1 X104.365 Y112.051 E59.05232
G1 X105.028 Y113.356 E59.29879
G1 X105.272 Y113.69 E59.36844
G1 X106.31 Y114.728 E59.61561
G1 X106.644 Y114.972 E59.68526
G1 X107.942 Y115.632 E59.93044
G1 X108.346 Y115.764 E60.00201
G1 X109.785 Y115.994 E60.24738
G1 X110.213 Y115.994 E60.31945
G1 X111.655 Y115.765 E60.56529
G1 X112.052 Y115.635 E60.63563
G1 X113.35 Y114.974 E60.8809
G1 X113.692 Y114.727 E60.95193
G1 X114.725 Y113.695 E61.19779
G1 X114.973 Y113.353 E61.26893
G1 X115.633 Y112.055 E61.51411
G1 X115.765 Y111.651 E61.58568
G1 X115.994 Y110.218 E61.83003
G1 X115.994 Y109.79 E61.90209
G1 X115.765 Y108.345 E62.14844
G1 X115.635 Y107.948 E62.21878
G1 X114.974 Y106.65 E62.46404
G1 X114.727 Y106.308 E62.53508
G1 X113.695 Y105.275 E62.78094
G1 X113.353 Y105.027 E62.85207
G1 X112.055 Y104.367 E63.09726
G1 X111.651 Y104.235 E63.16882
G1 X110.218 Y104.006 E63.41317
G1 X109.79 Y104.006 E63.48524
G1 X108.345 Y104.235 E63.73158
G1 X107.948 Y104.365 E63.80192
G1 X106.65 Y105.026 E64.04719
G1 X106.308 Y105.273 E64.11822
G1 X105.275 Y106.305 E64.36409
G10
G1 F300 Z0.65
G0 F6000 X106.598 Y107.528 Z0.65
G1 F300 Z0.45
G11
G1 F600 X107.53 Y106.597 E64.5859
G1 X108.699 Y106.002 E64.80676
G1 X110.003 Y105.795 E65.02908
G1 X111.301 Y106.002 E65.2504
G1 X112.472 Y106.598 E65.47164
G1 X113.403 Y107.53 E65.69345
G1 X113.998 Y108.699 E65.91432
G1 X114.205 Y110.003 E66.13663
G1 X113.998 Y111.301 E66.35795
G1 X113.402 Y112.472 E66.57919
G1 X112.47 Y113.403 E66.80101
G1 X111.301 Y113.998 E67.02187
G1 X110 Y114.205 E67.24369
G1 X108.697 Y113.997 E67.46587
G1 X107.528 Y113.402 E67.68673
G1 X106.598 Y112.472 E67.90819
G1 X106.002 Y111.301 E68.12943
G1 X105.795 Y109.997 E68.35174
G1 X106.002 Y108.699 E68.57306
G1 X106.598 Y107.528 E68.7943
G0 F6000 X105.962 Y106.891
G1 F600 X106.894 Y105.96 E69.01612
G1 X107.122 Y105.795 E69.06351
G1 X108.291 Y105.2 E69.28437
G1 X108.558 Y105.113 E69.33165
G1 X109.862 Y104.906 E69.55397
G1 X110.145 Y104.906 E69.60162
G1 X111.443 Y105.113 E69.82294
G1 X111.709 Y105.2 E69.87006
G1 X112.88 Y105.796 E70.09131
G1 X113.109 Y105.962 E70.13893
G1 X114.04 Y106.894 E70.36074
G1 X114.205 Y107.122 E70.40813
G1 X114.8 Y108.291 E70.629
G1 X114.887 Y108.558 E70.67628
G1 X115.094 Y109.862 E70.8986
G1 X115.094 Y110.145 E70.94625
G1 X114.887 Y111.443 E71.16757
G1 X114.8 Y111.709 E71.21469
G1 X114.204 Y112.88 E71.43593
M73 P3
G1 X114.038 Y113.109 E71.48356
G1 X113.106 Y114.04 E71.70537
G1 X112.878 Y114.205 E71.75276
G1 X111.709 Y114.8 E71.97362
G1 X111.442 Y114.887 E72.02091
G1 X110.141 Y115.094 E72.24272
G1 X109.858 Y115.094 E72.29037
G1 X108.555 Y114.886 E72.51255
G1 X108.289 Y114.799 E72.55967
G1 X107.12 Y114.204 E72.78054
G1 X106.892 Y114.038 E72.82803
G1 X105.962 Y113.108 E73.04948
G1 X105.796 Y112.88 E73.09697
G1 X105.2 Y111.709 E73.31821
G1 X105.113 Y111.442 E73.3655
G1 X104.906 Y110.138 E73.58781
G1 X104.906 Y109.855 E73.63546
G1 X105.113 Y108.557 E73.85678
G1 X105.2 Y108.291 E73.90391
G1 X105.796 Y107.12 E74.12515
G1 X105.962 Y106.891 E74.17277
G10
G1 F300 Z0.65
;MESH:Fabulous Bojo.stl
EXCLUDE_OBJECT_START NAME=Fabulous_Bojo_stl
G0 F6000 X108.603 Y108.07 Z0.65
;TYPE:WALL-INNER
M117 Time Left 0h18m31s
G1 F300 Z0.45
G11
G1 F600 X109.263 Y107.734 E74.29747
G1 X110.002 Y107.617 E74.42346
G1 X110.736 Y107.733 E74.54858
G1 X111.399 Y108.071 E74.67389
G1 X111.93 Y108.603 E74.80045
G1 X112.266 Y109.263 E74.92515
G1 X112.382 Y110.003 E75.05127
G1 X112.266 Y110.736 E75.17623
G1 X111.929 Y111.398 E75.30131
G1 X111.397 Y111.929 E75.42788
G1 X110.736 Y112.266 E75.5528
G1 X109.998 Y112.382 E75.67859
G1 X109.262 Y112.265 E75.80408
G1 X108.597 Y111.927 E75.92968
G1 X108.073 Y111.403 E76.05446
G1 X107.734 Y110.737 E76.18029
G1 X107.617 Y109.998 E76.30627
G1 X107.733 Y109.264 E76.4314
G1 X108.071 Y108.601 E76.5567
G1 X108.603 Y108.07 E76.68327
G10
G1 F300 Z0.65
G0 F6000 X109.999 Y113.294 Z0.65
M104 S200
;TYPE:WALL-OUTER
G1 F300 Z0.45
G11
G1 F600 X111.018 Y113.133 E76.85697
G1 X111.933 Y112.667 E77.02987
G1 X112.666 Y111.934 E77.20442
G1 X113.133 Y111.018 E77.37754
G1 X113.294 Y110.003 E77.55058
G1 X113.133 Y108.982 E77.72462
G1 X112.667 Y108.067 E77.89752
G1 X111.935 Y107.334 E78.07195
G1 X111.018 Y106.867 E78.24522
G1 X110.002 Y106.706 E78.41843
G1 X108.982 Y106.867 E78.5923
G1 X108.067 Y107.333 E78.7652
G1 X107.334 Y108.065 E78.93962
G1 X106.867 Y108.982 E79.1129
G1 X106.706 Y109.998 E79.28611
G1 X106.867 Y111.018 E79.45998
G1 X107.336 Y111.939 E79.63401
G1 X108.061 Y112.664 E79.80665
G1 X108.98 Y113.132 E79.9803
G1 X109.999 Y113.294 E80.15403
G10
G1 F300 Z0.65
G0 F6000 X109.997 Y111.531 Z0.65
;TYPE:SKIN
G1 F300 Z0.45
G11
G1 F600 X109.525 Y111.457 E80.23448
G1 X109.095 Y111.237 E80.3158
G1 X108.763 Y110.906 E80.39474
G1 X108.543 Y110.474 E80.47637
G1 X108.468 Y109.998 E80.55751
G1 X108.542 Y109.527 E80.63779
G1 X108.761 Y109.101 E80.71844
G1 X109.099 Y108.76 E80.79929
G1 X109.526 Y108.542 E80.88001
G1 X110 Y108.471 E80.96071
G1 X110.471 Y108.545 E81.04099
G1 X110.9 Y108.763 E81.12202
G1 X111.24 Y109.099 E81.20251
G1 X111.458 Y109.526 E81.28323
G1 X111.532 Y110.002 E81.36435
G1 X111.458 Y110.472 E81.44446
G1 X111.237 Y110.901 E81.52572
G1 X110.899 Y111.24 E81.60632
G1 X110.475 Y111.458 E81.6866
G1 X109.997 Y111.531 E81.76802
G10
G1 F300 Z0.65
G0 F6000 X108.96 Y110.233 Z0.65
G1 F300 Z0.45
G11
G1 F600 X109.764 Y111.037 E81.95947
G0 F6000 X110.75 Y110.75
G1 F600 X109.247 Y109.247 E82.31737
G0 F6000 X110.24 Y108.967
G1 F600 X111.039 Y109.767 E82.50775
G10
G1 F300 Z0.65
M73 P4
;MESH:NONMESH
EXCLUDE_OBJECT_END NAME=Fabulous_Bojo_stl
G0 F6000 X109.999 Y112.838 Z0.65
;TIME_ELAPSED:56.756184
TIMELAPSE_TAKE_FRAME
;LAYER:1
M117 Printing Fabulous Bojo - Layer 1 of 298
M140 S60
M106 S229.3
;MESH:Fabulous Bojo.stl
EXCLUDE_OBJECT_START NAME=Fabulous_Bojo_stl
G0 F7500 X109.999 Y112.838 Z0.95
;TYPE:WALL-INNER
G1 F300 Z0.75
G11
G1 F1200 X110.876 Y112.7 E82.57419
G1 X111.671 Y112.295 E82.64096
G1 X112.295 Y111.671 E82.707
G1 X112.699 Y110.877 E82.77367
G1 X112.838 Y110.001 E82.84004
G1 X112.699 Y109.124 E82.90649
G1 X112.295 Y108.329 E82.97323
G1 X111.671 Y107.705 E83.03927
G1 X110.876 Y107.301 E83.106
G1 X109.999 Y107.162 E83.17245
G1 X109.123 Y107.301 E83.23883
G1 X108.329 Y107.705 E83.3055
G1 X107.705 Y108.329 E83.37154
G1 X107.3 Y109.124 E83.4383
G1 X107.162 Y110.001 E83.50474
G1 X107.3 Y110.877 E83.57111
G1 X107.705 Y111.671 E83.63781
G1 X108.329 Y112.295 E83.70385
G1 X109.123 Y112.7 E83.77055
G1 X109.999 Y112.838 E83.83692
G10
G1 F300 Z0.95
G0 F7500 X107.972 Y107.213 Z0.95
;TYPE:WALL-OUTER
G1 F300 Z0.75
G11
G1 F1200 X108.935 Y106.723 E83.91778
G1 X109.999 Y106.554 E83.9984
G1 X111.064 Y106.723 E84.0791
G1 X112.028 Y107.213 E84.16002
G1 X112.787 Y107.972 E84.24035
G1 X113.277 Y108.936 E84.32127
G1 X113.446 Y110.001 E84.40197
G1 X113.277 Y111.065 E84.48259
G1 X112.787 Y112.028 E84.56345
G1 X112.028 Y112.787 E84.64378
G1 X111.064 Y113.278 E84.72474
G1 X109.999 Y113.446 E84.80543
G1 X108.935 Y113.278 E84.88604
G1 X107.972 Y112.787 E84.96693
G1 X107.213 Y112.028 E85.04726
G1 X106.722 Y111.065 E85.12815
G1 X106.554 Y110.001 E85.20876
G1 X106.722 Y108.936 E85.28945
G1 X107.213 Y107.972 E85.37041
G1 X107.972 Y107.213 E85.45073
G0 F7500 X108.648 Y108.148
