;FLAVOR:Marlin
;TIME:4068
;Filament used: 6.39915m
;Layer height: 0.3
;MINX:57.501
;MINY:67.28
;MINZ:0.42
;MAXX:160.871
;MAXY:152.72
;MAXZ:15.32
;TARGET_MACHINE.NAME:Creality Ender-3
;POSTPROCESSED
;  [InsertAtLayerChange]
;  [MeshPrintSize]
;Generated with Cura_SteamEngine 5.7.0


; Pre-Processed for Cancel-Object support by preprocess_cancellation v0.2.0
; 1 known objects
EXCLUDE_OBJECT_DEFINE NAME=top_case_STL CENTER=120.144,110.730 POLYGON=[[59.301,69.08],[59.301,150.92],[159.071,150.92],[159.071,69.08]]
M82 ;absolute extrusion mode
;Nozzle diameter = 0.6
;Filament type = PLA
;Filament name = Purple/Pink
START_PRINT PRINT_MIN=57.501,67.28 PRINT_MAX=160.871,152.72 BED_TEMP=65 EXTRUDER_TEMP=210
G92 E0
G92 E0
G1 F2700 E-5
;LAYER_COUNT:50
TIMELAPSE_TAKE_FRAME
;LAYER:0
M107
G1 F300 Z0.62
G0 F6000 X61.989 Y70.07 Z0.62
;TYPE:SKIRT
G1 F300 Z0.42
G1 F2700 E0
G1 F600 X62.981 Y69.337 E0.19384
G1 X63.896 Y68.785 E0.36178
G1 X64.786 Y68.346 E0.51773
G1 X65.861 Y67.928 E0.699
G1 X66.885 Y67.633 E0.86647
G1 X67.876 Y67.437 E1.02522
G1 X69.428 Y67.293 E1.27017
G1 X70.042 Y67.28 E1.36669
G1 X146.891 Y67.28 E13.44383
G1 X147.741 Y67.291 E13.57742
G1 X148.894 Y67.364 E13.75898
G1 X149.95 Y67.525 E13.92685
G1 X150.839 Y67.736 E14.07044
G1 X152.007 Y68.125 E14.26391
G1 X152.986 Y68.554 E14.43189
G1 X153.858 Y69.03 E14.58802
G1 X154.752 Y69.62 E14.75635
G1 X155.58 Y70.274 E14.92217
G1 X156.095 Y70.745 E15.03184
G1 X156.885 Y71.517 E15.20543
G1 X157.446 Y72.096 E15.33213
G1 X158.155 Y72.902 E15.50083
G1 X158.787 Y73.762 E15.66855
G1 X159.267 Y74.539 E15.81208
G1 X159.818 Y75.639 E16.00543
G1 X160.208 Y76.639 E16.17411
G1 X160.509 Y77.666 E16.3423
G1 X160.693 Y78.561 E16.48589
G1 X160.822 Y79.622 E16.65386
G1 X160.859 Y80.353 E16.76889
G1 X160.871 Y81.111 E16.88802
G1 X160.869 Y139.903 E26.12743
G1 X160.859 Y140.628 E26.24138
G1 X160.788 Y141.777 E26.42229
G1 X160.656 Y142.681 E26.56587
G1 X160.394 Y143.802 E26.74678
G1 X160.028 Y144.893 E26.92763
G1 X159.596 Y145.877 E27.09652
G1 X159.083 Y146.812 E27.26412
G1 X158.581 Y147.575 E27.40765
G1 X157.815 Y148.541 E27.6014
G1 X157.13 Y149.26 E27.75746
G1 X156.266 Y150.021 E27.9384
G1 X155.405 Y150.651 E28.10607
G1 X154.626 Y151.13 E28.24978
G1 X153.524 Y151.679 E28.44327
G1 X152.525 Y152.066 E28.61163
G1 X151.494 Y152.364 E28.78029
G1 X150.411 Y152.574 E28.95366
G1 X148.975 Y152.705 E29.18027
G1 X148.288 Y152.72 E29.28826
G1 X76.281 Y152.719 E40.60446
G1 X75.583 Y152.709 E40.71416
G1 X74.433 Y152.636 E40.89526
G1 X73.376 Y152.475 E41.06328
G1 X72.487 Y152.264 E41.20687
G1 X71.318 Y151.875 E41.40049
G1 X70.408 Y151.478 E41.55652
G1 X69.4 Y150.929 E41.7369
G1 X68.637 Y150.425 E41.88061
G1 X67.675 Y149.661 E42.07367
G1 X66.901 Y148.921 E42.24195
G1 X66.245 Y148.175 E42.39807
G1 X65.608 Y147.314 E42.56639
G1 X65.087 Y146.471 E42.72213
G1 X64.538 Y145.368 E42.91575
G1 X64.152 Y144.37 E43.08391
G1 X63.858 Y143.364 E43.24862
G1 X63.716 Y142.704 E43.35472
G1 X63.192 Y139.889 E43.80471
G1 X62.659 Y137.427 E44.20058
G1 X62.073 Y135.053 E44.58487
G1 X61.413 Y132.666 E44.97407
G1 X60.687 Y130.306 E45.36211
G1 X59.9 Y127.977 E45.74845
G1 X58.676 Y124.714 E46.29613
G1 X58.44 Y124.121 E46.39644
G1 X58.141 Y123.257 E46.54012
G1 X57.891 Y122.316 E46.69313
G1 X57.712 Y121.419 E46.83688
G1 X57.619 Y120.725 E46.94692
G1 X57.561 Y120.138 E47.03961
G1 X57.51 Y119.25 E47.1794
G1 X57.501 Y118.71 E47.26427
G1 X57.501 Y80.019 E53.34472
G1 X57.511 Y79.354 E53.44924
G1 X57.585 Y78.204 E53.63034
G1 X57.748 Y77.145 E53.79873
G1 X58.003 Y76.105 E53.96701
G1 X58.348 Y75.089 E54.13563
G1 X58.745 Y74.181 E54.29137
G1 X59.256 Y73.239 E54.45979
G1 X59.891 Y72.283 E54.64015
G1 X60.46 Y71.567 E54.78388
G1 X61.305 Y70.676 E54.97686
G1 X61.989 Y70.07 E55.12047
G0 F6000 X62.586 Y70.744
G1 F600 X63.448 Y70.106 E55.28901
G1 X64.297 Y69.591 E55.44506
G1 X65.115 Y69.184 E55.58865
G1 X66.113 Y68.792 E55.75715
G1 X67.064 Y68.515 E55.91282
G1 X67.96 Y68.333 E56.0565
G1 X69.447 Y68.193 E56.29122
G1 X70.061 Y68.18 E56.38774
G1 X146.879 Y68.18 E68.46
G1 X147.729 Y68.191 E68.5936
G1 X148.761 Y68.254 E68.75608
G1 X149.742 Y68.401 E68.91197
G1 X150.631 Y68.612 E69.05556
G1 X151.648 Y68.95 E69.22398
G1 X152.558 Y69.346 E69.37995
G1 X153.362 Y69.781 E69.52361
G1 X154.256 Y70.371 E69.69194
G1 X154.973 Y70.939 E69.83569
G1 X155.466 Y71.389 E69.94059
G1 X156.239 Y72.144 E70.1104
G1 X156.772 Y72.693 E70.23065
G1 X157.431 Y73.437 E70.38685
G1 X158.021 Y74.235 E70.54281
G1 X158.501 Y75.012 E70.68634
G1 X158.981 Y75.969 E70.85459
G1 X159.345 Y76.894 E71.01081
G1 X159.627 Y77.847 E71.167
G1 X159.811 Y78.742 E71.31059
G1 X159.928 Y79.728 E71.46664
G1 X159.959 Y80.368 E71.56733
G1 X159.971 Y81.111 E71.68411
G1 X159.969 Y139.891 E80.92163
G1 X159.959 Y140.616 E81.03558
G1 X159.897 Y141.647 E81.1979
G1 X159.765 Y142.551 E81.34147
G1 X159.518 Y143.595 E81.51007
G1 X159.203 Y144.534 E81.66572
G1 X158.806 Y145.446 E81.82204
G1 X158.331 Y146.317 E81.97795
G1 X157.829 Y147.08 E82.12148
G1 X157.163 Y147.92 E82.28995
G1 X156.478 Y148.639 E82.44601
G1 X155.733 Y149.296 E82.60212
G1 X154.934 Y149.884 E82.75802
G1 X154.155 Y150.363 E82.90174
G1 X153.196 Y150.841 E83.07013
G1 X152.272 Y151.202 E83.22603
G1 X151.319 Y151.481 E83.38208
G1 X150.328 Y151.678 E83.54087
G1 X148.955 Y151.805 E83.75757
G1 X148.288 Y151.82 E83.86241
G1 X76.294 Y151.819 E95.17657
G1 X75.596 Y151.809 E95.28627
G1 X74.566 Y151.746 E95.44844
G1 X73.584 Y151.599 E95.60449
G1 X72.695 Y151.388 E95.74808
G1 X71.678 Y151.05 E95.9165
G1 X70.768 Y150.653 E96.07253
G1 X69.896 Y150.178 E96.22858
G1 X69.133 Y149.674 E96.37229
G1 X68.295 Y149.009 E96.54041
G1 X67.575 Y148.324 E96.69659
G1 X66.969 Y147.64 E96.8402
G1 X66.332 Y146.779 E97.00852
G1 X65.854 Y146 E97.15215
G1 X65.376 Y145.041 E97.32055
G1 X65.015 Y144.116 E97.47659
G1 X64.738 Y143.174 E97.6309
G1 X64.601 Y142.539 E97.73299
G1 X64.074 Y139.71 E98.18522
G1 X63.539 Y137.237 E98.58286
G1 X62.947 Y134.837 E98.97133
G1 X62.273 Y132.401 E99.36854
G1 X61.54 Y130.018 E99.76036
G1 X60.748 Y127.675 E100.14904
G1 X59.518 Y124.398 E100.69911
G1 X59.291 Y123.827 E100.79568
G1 X58.992 Y122.963 E100.93936
G1 X58.774 Y122.14 E101.07316
G1 X58.595 Y121.243 E101.21691
G1 X58.515 Y120.635 E101.31328
G1 X58.46 Y120.086 E101.39999
G1 X58.409 Y119.198 E101.53977
G1 X58.401 Y118.696 E101.61867
G1 X58.401 Y80.033 E107.69472
G1 X58.411 Y79.368 E107.79924
G1 X58.475 Y78.338 E107.96142
G1 X58.623 Y77.356 E108.11749
G1 X58.856 Y76.392 E108.27335
G1 X59.173 Y75.45 E108.42955
G1 X59.57 Y74.542 E108.58529
G1 X60.046 Y73.67 E108.74141
G1 X60.596 Y72.843 E108.8975
G1 X61.165 Y72.127 E109.04122
G1 X61.902 Y71.35 E109.20953
G1 X62.586 Y70.744 E109.35314
G0 F6000 X63.183 Y71.418
G1 F600 X63.918 Y70.874 E109.49684
G1 X64.698 Y70.397 E109.64053
G1 X65.516 Y69.99 E109.78411
G1 X66.367 Y69.655 E109.92784
G1 X67.243 Y69.397 E110.07135
G1 X68.139 Y69.215 E110.21504
G1 X69.466 Y69.093 E110.42446
G1 X70.08 Y69.08 E110.52098
G1 X146.867 Y69.08 E122.58837
G1 X147.717 Y69.091 E122.72196
G1 X148.63 Y69.144 E122.86569
G1 X149.534 Y69.277 E123.00928
G1 X150.423 Y69.488 E123.15287
G1 X151.291 Y69.776 E123.2966
G1 X152.13 Y70.138 E123.4402
G1 X152.934 Y70.573 E123.58386
G1 X153.697 Y71.076 E123.72748
G1 X154.414 Y71.644 E123.87123
G1 X154.837 Y72.033 E123.96154
G1 X155.594 Y72.772 E124.1278
G1 X156.1 Y73.292 E124.24182
G1 X156.709 Y73.975 E124.38563
G1 X157.255 Y74.708 E124.52927
G1 X157.735 Y75.485 E124.6728
G1 X158.145 Y76.302 E124.81646
G1 X158.483 Y77.152 E124.96021
G1 X158.745 Y78.028 E125.1039
G1 X158.929 Y78.923 E125.2475
G1 X159.034 Y79.831 E125.39115
G1 X159.059 Y80.383 E125.47798
G1 X159.071 Y81.111 E125.59241
G1 X159.069 Y139.879 E134.82804
G1 X159.059 Y140.604 E134.94199
G1 X159.006 Y141.517 E135.08571
G1 X158.874 Y142.421 E135.22929
G1 X158.664 Y143.311 E135.37299
G1 X158.376 Y144.178 E135.51657
G1 X158.014 Y145.018 E135.66031
G1 X157.579 Y145.822 E135.80397
G1 X157.077 Y146.585 E135.94751
G1 X156.509 Y147.302 E136.09126
G1 X155.881 Y147.966 E136.23489
G1 X155.197 Y148.573 E136.3786
G1 X154.463 Y149.117 E136.52218
G1 X153.684 Y149.596 E136.6659
G1 X152.866 Y150.004 E136.80955
G1 X152.016 Y150.339 E136.95313
G1 X151.139 Y150.599 E137.09689
G1 X150.244 Y150.782 E137.24045
G1 X148.934 Y150.905 E137.44723
G1 X148.288 Y150.92 E137.54878
G1 X76.307 Y150.919 E148.86089
G1 X75.609 Y150.909 E148.97059
G1 X74.697 Y150.856 E149.11416
G1 X73.792 Y150.723 E149.25791
G1 X72.903 Y150.512 E149.4015
G1 X72.035 Y150.224 E149.54523
G1 X71.196 Y149.861 E149.68889
G1 X70.392 Y149.427 E149.83248
G1 X69.629 Y148.923 E149.97618
G1 X68.913 Y148.355 E150.11981
G1 X68.249 Y147.727 E150.26344
G1 X67.643 Y147.043 E150.40705
G1 X67.099 Y146.308 E150.55076
G1 X66.621 Y145.529 E150.69439
G1 X66.213 Y144.711 E150.83805
G1 X65.878 Y143.86 E150.98177
G1 X65.618 Y142.984 E151.12538
G1 X65.486 Y142.374 E151.22346
G1 X64.959 Y139.545 E151.6757
G1 X64.419 Y137.047 E152.07734
G1 X63.821 Y134.622 E152.46985
G1 X63.14 Y132.161 E152.87114
G1 X62.393 Y129.73 E153.27081
G1 X61.596 Y127.373 E153.66183
G1 X60.36 Y124.082 E154.2143
G1 X60.142 Y123.533 E154.30713
G1 X59.843 Y122.669 E154.45081
G1 X59.657 Y121.964 E154.56539
G1 X59.478 Y121.067 E154.70914
G1 X59.408 Y120.521 E154.79565
G1 X59.359 Y120.034 E154.87257
G1 X59.308 Y119.146 E155.01235
G1 X59.301 Y118.682 E155.08528
G1 X59.301 Y80.047 E161.15693
G1 X59.311 Y79.382 E161.26145
G1 X59.365 Y78.469 E161.40518
G1 X59.498 Y77.565 E161.54878
G1 X59.71 Y76.676 E161.69241
G1 X59.999 Y75.808 E161.83618
G1 X60.362 Y74.97 E161.9797
G1 X60.797 Y74.166 E162.12336
G1 X61.301 Y73.403 E162.26706
G1 X61.87 Y72.687 E162.41079
G1 X62.499 Y72.024 E162.55441
G1 X63.183 Y71.418 E162.69803
G1 F2700 E157.69803
G1 F300 Z0.62
;MESH:top_case.STL
EXCLUDE_OBJECT_START NAME=top_case_STL
G0 F6000 X77.098 Y138.458 Z0.62
;TYPE:WALL-INNER
G1 F300 Z0.42
G1 F2700 E162.69803
G1 F600 X146.61 Y138.458 E173.62212
G1 X146.61 Y81.538 E182.56734
G1 X71.098 Y81.538 E194.43436
G1 X71.098 Y119.015 E200.32403
G1 X71.133 Y119.26 E200.36292
G1 X71.253 Y119.495 E200.40439
G1 X76.155 Y124.398 E201.49397
G1 X76.476 Y124.779 E201.57226
G1 X76.744 Y125.213 E201.65242
G1 X76.934 Y125.683 E201.73209
G1 X77.063 Y126.231 E201.82057
G1 X77.095 Y126.632 E201.88378
G1 X77.098 Y138.458 E203.74229
G0 F6000 X76.198 Y139.358
;TYPE:WALL-OUTER
G1 F600 X147.51 Y139.358 E214.94927
G1 X147.51 Y81.035 E224.11497
G1 X147.113 Y80.638 E224.2032
G1 X70.198 Y80.638 E236.29071
G1 X70.198 Y119.055 E242.3281
G1 X70.233 Y119.439 E242.3887
G1 X70.371 Y119.771 E242.4452
G1 X70.55 Y120.065 E242.49929
G1 X75.505 Y125.021 E243.60065
G1 X75.72 Y125.27 E243.65235
G1 X75.923 Y125.595 E243.71257
G1 X76.08 Y125.966 E243.77588
G1 X76.171 Y126.349 E243.83775
G1 X76.197 Y126.698 E243.89275
G1 X76.198 Y139.358 E245.88232
G1 F2700 E240.88232
G1 F300 Z0.62
G0 F6000 X77.938 Y137.618 Z0.62
;TYPE:SKIN
G1 F300 Z0.42
G1 F2700 E245.88232
G1 F600 X77.933 Y126.569 E247.61871
G1 X77.891 Y126.055 E247.69976
G1 X77.725 Y125.392 E247.80717
G1 X77.488 Y124.825 E247.90375
G1 X77.154 Y124.274 E248.00501
G1 X76.782 Y123.838 E248.09508
G1 X71.938 Y118.993 E249.17176
G1 X71.938 Y82.378 E254.92596
G1 X145.77 Y82.378 E266.52897
G1 X145.77 Y137.618 E275.21016
G1 X77.938 Y137.618 E285.87024
G0 F6000 X78.62 Y137.168
G1 F600 X78.387 Y136.935 E285.92202
G0 F6000 X78.386 Y135.662
G1 F600 X79.892 Y137.168 E286.25673
G0 F6000 X81.165 Y137.168
G1 F600 X78.386 Y134.388 E286.87447
G0 F6000 X78.385 Y133.115
G1 F600 X82.438 Y137.168 E287.77525
G0 F6000 X83.711 Y137.168
G1 F600 X78.384 Y131.841 E288.95918
G0 F6000 X78.383 Y130.568
G1 F600 X84.984 Y137.168 E290.42613
G0 F6000 X86.256 Y137.168
G1 F600 X78.383 Y129.294 E292.17601
G0 F6000 X78.382 Y128.021
G1 F600 X87.529 Y137.168 E294.20893
G0 F6000 X88.802 Y137.168
G1 F600 X78.381 Y126.747 E296.52499
G1 F2700 E291.52499
G1 F300 Z0.62
G0 F6000 X78.141 Y125.234 Z0.62
G1 F300 Z0.42
G1 F2700 E296.52499
G1 F600 X90.075 Y137.168 E299.17732
G0 F6000 X91.348 Y137.168
G1 F600 X72.388 Y118.208 E303.39117
G0 F6000 X72.388 Y116.936
G1 F600 X92.62 Y137.168 E307.88772
G0 F6000 X93.893 Y137.168
G1 F600 X72.388 Y115.663 E312.6672
G0 F6000 X72.388 Y114.39
G1 F600 X95.166 Y137.168 E317.7296
G0 F6000 X96.439 Y137.168
G1 F600 X72.388 Y113.117 E323.07492
G0 F6000 X72.388 Y111.844
G1 F600 X97.712 Y137.168 E328.70317
G0 F6000 X98.984 Y137.168
G1 F600 X72.388 Y110.572 E334.61411
G0 F6000 X72.388 Y109.299
G1 F600 X100.257 Y137.168 E340.80799
G0 F6000 X101.53 Y137.168
G1 F600 X72.388 Y108.026 E347.28478
G0 F6000 X72.388 Y106.753
G1 F600 X102.803 Y137.168 E354.0445
G0 F6000 X104.076 Y137.168
G1 F600 X72.388 Y105.481 E361.08703
G0 F6000 X72.388 Y104.208
G1 F600 X105.348 Y137.168 E368.41238
G0 F6000 X106.621 Y137.168
G1 F600 X72.388 Y102.935 E376.02064
G0 F6000 X72.388 Y101.662
G1 F600 X107.894 Y137.168 E383.91183
G0 F6000 X109.167 Y137.168
G1 F600 X72.388 Y100.389 E392.08595
G0 F6000 X72.388 Y99.117
G1 F600 X110.439 Y137.168 E400.54277
G0 F6000 X111.712 Y137.168
G1 F600 X72.388 Y97.844 E409.28251
G0 F6000 X72.388 Y96.571
G1 F600 X112.985 Y137.168 E418.30517
G0 F6000 X114.258 Y137.168
G1 F600 X72.388 Y95.298 E427.61076
G0 F6000 X72.388 Y94.025
G1 F600 X115.531 Y137.168 E437.19927
G0 F6000 X116.803 Y137.168
G1 F600 X72.388 Y92.753 E447.07048
G0 F6000 X72.388 Y91.48
G1 F600 X118.076 Y137.168 E457.22462
G0 F6000 X119.349 Y137.168
G1 F600 X72.388 Y90.207 E467.66167
G0 F6000 X72.388 Y88.934
G1 F600 X120.622 Y137.168 E478.38166
G0 F6000 X121.895 Y137.168
G1 F600 X72.388 Y87.661 E489.38456
G0 F6000 X72.388 Y86.389
G1 F600 X123.167 Y137.168 E500.67017
G0 F6000 X124.44 Y137.168
G1 F600 X72.388 Y85.116 E512.2387
G0 F6000 X72.388 Y83.843
G1 F600 X125.713 Y137.168 E524.09016
G0 F6000 X126.986 Y137.168
G1 F600 X72.645 Y82.828 E536.16731
G0 F6000 X73.918 Y82.828
G1 F600 X128.259 Y137.168 E548.24446
G0 F6000 X129.531 Y137.168
G1 F600 X75.191 Y82.828 E560.3215
G0 F6000 X76.464 Y82.828
G1 F600 X130.804 Y137.168 E572.39854
G0 F6000 X132.077 Y137.168
G1 F600 X77.736 Y82.828 E584.47569
G0 F6000 X79.009 Y82.828
G1 F600 X133.35 Y137.168 E596.55284
G0 F6000 X134.623 Y137.168
G1 F600 X80.282 Y82.828 E608.62998
G0 F6000 X81.555 Y82.828
G1 F600 X135.895 Y137.168 E620.70702
G0 F6000 X137.168 Y137.168
G1 F600 X82.828 Y82.828 E632.78406
G0 F6000 X84.1 Y82.828
G1 F600 X138.441 Y137.168 E644.86121
G0 F6000 X139.714 Y137.168
G1 F600 X85.373 Y82.828 E656.93836
G0 F6000 X86.646 Y82.828
G1 F600 X140.986 Y137.168 E669.0154
G0 F6000 X142.259 Y137.168
G1 F600 X87.919 Y82.828 E681.09244
G0 F6000 X89.192 Y82.828
G1 F600 X143.532 Y137.168 E693.16948
G0 F6000 X144.805 Y137.168
G1 F600 X90.464 Y82.828 E705.24663
G0 F6000 X91.737 Y82.828
G1 F600 X145.32 Y136.411 E717.15542
G0 F6000 X145.32 Y135.138
G1 F600 X93.01 Y82.828 E728.78129
G0 F6000 X94.283 Y82.828
G1 F600 X145.32 Y133.865 E740.12424
G0 F6000 X145.32 Y132.592
G1 F600 X95.556 Y82.828 E751.18427
G0 F6000 X96.828 Y82.828
G1 F600 X145.32 Y131.32 E761.96159
G0 F6000 X145.32 Y130.047
G1 F600 X98.101 Y82.828 E772.45599
G0 F6000 X99.374 Y82.828
G1 F600 X145.32 Y128.774 E782.66747
G0 F6000 X145.32 Y127.501
G1 F600 X100.647 Y82.828 E792.59602
G0 F6000 X101.92 Y82.828
G1 F600 X145.32 Y126.228 E802.24165
G0 F6000 X145.32 Y124.956
G1 F600 X103.192 Y82.828 E811.60458
G0 F6000 X104.465 Y82.828
G1 F600 X145.32 Y123.683 E820.68458
G0 F6000 X145.32 Y122.41
G1 F600 X105.738 Y82.828 E829.48166
G0 F6000 X107.011 Y82.828
G1 F600 X145.32 Y121.137 E837.99582
G0 F6000 X145.32 Y119.864
G1 F600 X108.284 Y82.828 E846.22705
G0 F6000 X109.556 Y82.828
G1 F600 X145.32 Y118.592 E854.17558
G0 F6000 X145.32 Y117.319
G1 F600 X110.829 Y82.828 E861.84119
G0 F6000 X112.102 Y82.828
G1 F600 X145.32 Y116.046 E869.22387
G0 F6000 X145.32 Y114.773
G1 F600 X113.375 Y82.828 E876.32363
G0 F6000 X114.647 Y82.828
G1 F600 X145.32 Y113.501 E883.14069
G0 F6000 X145.32 Y112.228
G1 F600 X115.92 Y82.828 E889.67483
G0 F6000 X117.193 Y82.828
G1 F600 X145.32 Y110.955 E895.92604
G0 F6000 X145.32 Y109.682
G1 F600 X118.466 Y82.828 E901.89433
G0 F6000 X119.739 Y82.828
G1 F600 X145.32 Y108.409 E907.57969
G0 F6000 X145.32 Y107.137
G1 F600 X121.011 Y82.828 E912.98236
G0 F6000 X122.284 Y82.828
