;FLAVOR:Marlin
M73 P0


; Pre-Processed for Cancel-Object support by preprocess_cancellation v0.2.0
; 1 known objects
EXCLUDE_OBJECT_DEFINE NAME=Ultimate_Filament_Clip_Clamp_Improved_stl CENTER=112.456,111.402 POLYGON=[[84.983,89.904],[84.983,129.11],[135.618,129.11],[135.618,89.904]]
M117 Time Left 0h16m07s
;TIME:967
;Filament used: 1.13582m
;Layer height: 0.3
;MINX:83.185
;MINY:88.104
;MINZ:0.42
;MAXX:137.418
;MAXY:130.908
;MAXZ:20.42
;TARGET_MACHINE.NAME:Creality Ender-3
;POSTPROCESSED
;  [InsertAtLayerChange]
;  [MeshPrintSize]
;  [DisplayProgressOnLCD]
;  [DisplayFilenameAndLayerOnLCD]
;Generated with Cura_SteamEngine 5.6.0
M82 ;absolute extrusion mode
;Nozzle diameter = 0.6
;Filament type = PLA
;Filament name = Purple/Pink
START_PRINT PRINT_MIN=83.185,88.104 PRINT_MAX=137.418,130.908 BED_TEMP=65 EXTRUDER_TEMP=200.0
G92 E0
G92 E0
G1 F2700 E-5
;LAYER_COUNT:67
TIMELAPSE_TAKE_FRAME
;LAYER:0
M117 Printing Ultimate_Filament_Clip_Clamp_Improved - Layer 0 of 66
M107
G1 F300 Z0.62
G0 F6000 X88.146 Y93.633 Z0.62
;TYPE:SKIRT
G1 F300 Z0.42
G1 F2700 E0
G1 F600 X88.965 Y92.891 E0.17368
G1 X89.325 Y92.588 E0.24762
G1 X90.207 Y91.914 E0.42207
G1 X90.976 Y91.421 E0.56563
G1 X91.535 Y91.11 E0.66616
G1 X93.04 Y90.325 E0.93291
G1 X94.084 Y89.842 E1.11369
G1 X94.943 Y89.529 E1.25737
G1 X96.131 Y89.211 E1.45064
G1 X97.184 Y89.031 E1.61852
G1 X98.07 Y88.953 E1.7583
G1 X100.521 Y88.84 E2.14389
G1 X103.052 Y88.656 E2.5427
G1 X105.482 Y88.41 E2.92654
G1 X107.13 Y88.208 E3.18747
G1 X108.273 Y88.129 E3.36752
G1 X109.725 Y88.104 E3.59574
G1 X110.647 Y88.12 E3.74066
G1 X112.006 Y88.178 E3.95443
G1 X113.51 Y88.273 E4.19126
G1 X114.497 Y88.382 E4.34731
G1 X115.528 Y88.583 E4.51239
G1 X116.083 Y88.73 E4.60262
G1 X117.411 Y89.115 E4.81991
G1 X118.811 Y89.542 E5.04993
G1 X119.895 Y89.931 E5.23093
G1 X120.727 Y90.311 E5.37467
G1 X121.796 Y90.917 E5.56778
G1 X122.549 Y91.436 E5.71151
G1 X123.49 Y92.212 E5.90319
G1 X124.076 Y92.784 E6.03188
G1 X126.072 Y94.89 E6.48788
G1 X127.906 Y96.733 E6.89648
G1 X129.629 Y98.371 E7.27009
G1 X131.562 Y100.105 E7.67819
G1 X132.794 Y101.171 E7.93422
G1 X133.629 Y101.968 E8.11562
G1 X134.333 Y102.77 E8.28333
G1 X134.878 Y103.504 E8.427
G1 X135.613 Y104.724 E8.65084
G1 X136.007 Y105.5 E8.78761
G1 X136.295 Y106.118 E8.89476
G1 X136.699 Y107.105 E9.06236
G1 X136.997 Y108.053 E9.21853
G1 X137.23 Y109.1 E9.38709
G1 X137.363 Y110.084 E9.54314
G1 X137.418 Y111.486 E9.76364
G1 X137.399 Y112.457 E9.91626
G1 X137.393 Y113.909 E10.14445
G1 X137.379 Y114.734 E10.27413
G1 X137.303 Y115.884 E10.45525
G1 X137.14 Y116.938 E10.62286
G1 X136.939 Y117.782 E10.7592
G1 X136.813 Y118.227 E10.83189
G1 X136.526 Y119.095 E10.97556
G1 X136.05 Y120.2 E11.16464
G1 X135.687 Y120.895 E11.28786
G1 X135.377 Y121.431 E11.38517
G1 X135.055 Y121.952 E11.48143
G1 X134.472 Y122.807 E11.64406
G1 X133.797 Y123.636 E11.81206
G1 X132.984 Y124.466 E11.99465
G1 X132.147 Y125.178 E12.16734
G1 X130.283 Y126.612 E12.53693
G1 X129.387 Y127.285 E12.71304
G1 X128.533 Y127.868 E12.87554
G1 X127.6 Y128.393 E13.04379
G1 X126.531 Y128.872 E13.22788
G1 X125.374 Y129.262 E13.41976
G1 X124.708 Y129.447 E13.52838
G1 X123.656 Y129.682 E13.69778
G1 X122.571 Y129.827 E13.86981
G1 X122.064 Y129.869 E13.94976
G1 X121.17 Y129.91 E14.09041
G1 X118.819 Y129.928 E14.45989
G1 X116.431 Y130.009 E14.83539
G1 X112.189 Y130.306 E15.50367
G1 X111.426 Y130.335 E15.62366
G1 X110.543 Y130.339 E15.76243
G1 X109.247 Y130.327 E15.96611
G1 X106.757 Y130.375 E16.3575
G1 X104.281 Y130.493 E16.74705
G1 X101.851 Y130.676 E17.13002
G1 X100.796 Y130.787 E17.29673
G1 X99.925 Y130.864 E17.43415
G1 X98.772 Y130.908 E17.61548
G1 X97.708 Y130.856 E17.78289
G1 X96.866 Y130.747 E17.91632
G1 X96.164 Y130.626 E18.02827
G1 X95.121 Y130.394 E18.19618
G1 X94.178 Y130.099 E18.35146
G1 X93.292 Y129.743 E18.50152
G1 X92.541 Y129.397 E18.63147
G1 X91.869 Y129.065 E18.74926
G1 X91.001 Y128.585 E18.90514
G1 X90.13 Y128.005 E19.06959
G1 X89.666 Y127.65 E19.1614
G1 X88.912 Y127.031 E19.31471
G1 X88.4 Y126.586 E19.42132
G1 X87.652 Y125.874 E19.58361
M73 P1
G1 X86.95 Y125.082 E19.74993
G1 X86.429 Y124.395 E19.88543
G1 X85.901 Y123.621 E20.03268
G1 X85.643 Y123.216 E20.10814
G1 X85.091 Y122.252 E20.28272
G1 X84.704 Y121.423 E20.4265
G1 X84.283 Y120.266 E20.61999
G1 X84.012 Y119.231 E20.78812
G1 X83.832 Y118.176 E20.95632
G1 X83.75 Y117.207 E21.10914
G1 X83.737 Y116.602 E21.20424
G1 X83.748 Y114.014 E21.61096
G1 X83.689 Y111.492 E22.00741
G1 X83.564 Y109.099 E22.384
G1 X83.228 Y105.219 E22.99604
G1 X83.185 Y104.067 E23.1772
G1 X83.233 Y103.074 E23.33344
G1 X83.361 Y102.092 E23.48907
G1 X83.629 Y100.891 E23.68246
G1 X83.958 Y99.875 E23.85029
G1 X84.343 Y98.96 E24.00629
G1 X84.866 Y97.964 E24.18309
G1 X85.192 Y97.439 E24.2802
G1 X85.861 Y96.425 E24.47112
G1 X86.554 Y95.443 E24.66
G1 X87.264 Y94.548 E24.83954
G1 X88.146 Y93.633 E25.03926
G0 F6000 X88.794 Y94.258
G1 F600 X89.545 Y93.58 E25.19827
G1 X89.905 Y93.277 E25.27221
G1 X90.693 Y92.672 E25.42834
G1 X91.462 Y92.179 E25.57189
G1 X91.951 Y91.908 E25.65976
G1 X93.456 Y91.123 E25.92651
G1 X94.392 Y90.688 E26.08872
G1 X95.251 Y90.375 E26.2324
G1 X96.285 Y90.098 E26.40062
G1 X97.263 Y89.928 E26.55662
G1 X98.149 Y89.85 E26.6964
G1 X100.587 Y89.738 E27.07995
G1 X103.118 Y89.553 E27.47877
G1 X105.593 Y89.303 E27.8697
G1 X107.193 Y89.106 E28.12305
G1 X108.289 Y89.029 E28.29571
G1 X109.71 Y89.004 E28.51906
M117 Time Left 0h15m52s
G1 X110.609 Y89.019 E28.66036
G1 X111.949 Y89.076 E28.87114
G1 X113.411 Y89.168 E29.10136
G1 X114.398 Y89.277 E29.25741
G1 X115.353 Y89.466 E29.4104
G1 X115.832 Y89.594 E29.48832
G1 X117.148 Y89.976 E29.70367
G1 X118.548 Y90.403 E29.93369
G1 X119.521 Y90.75 E30.09604
G1 X120.353 Y91.13 E30.23978
G1 X121.285 Y91.658 E30.40812
G1 X122.038 Y92.177 E30.55184
G1 X122.861 Y92.856 E30.71952
G1 X123.447 Y93.428 E30.84821
G1 X125.434 Y95.525 E31.30221
G1 X127.268 Y97.368 E31.71082
G1 X129.028 Y99.041 E32.09243
G1 X130.973 Y100.786 E32.50308
G1 X132.205 Y101.852 E32.75911
G1 X132.954 Y102.564 E32.92152
G1 X133.61 Y103.307 E33.07728
G1 X134.155 Y104.041 E33.22095
G1 X134.811 Y105.132 E33.42102
G1 X135.192 Y105.881 E33.55308
G1 X135.463 Y106.461 E33.65369
G1 X135.841 Y107.378 E33.80956
G1 X136.118 Y108.249 E33.9532
G1 X136.351 Y109.296 E34.12176
G1 X136.471 Y110.202 E34.26539
G1 X136.518 Y111.468 E34.46448
G1 X136.499 Y112.439 E34.61711
G1 X136.493 Y113.894 E34.84577
G1 X136.479 Y114.719 E34.97544
G1 X136.413 Y115.749 E35.13764
G1 X136.264 Y116.729 E35.29342
G1 X136.063 Y117.573 E35.42977
G1 X135.958 Y117.944 E35.49036
G1 X135.671 Y118.812 E35.63404
G1 X135.252 Y119.784 E35.80038
G1 X134.907 Y120.445 E35.91755
G1 X134.611 Y120.958 E36.01063
G1 X134.289 Y121.479 E36.10689
G1 X133.729 Y122.299 E36.26294
G1 X133.152 Y123.008 E36.40659
G1 X132.401 Y123.78 E36.57585
G1 X131.564 Y124.492 E36.74854
G1 X129.742 Y125.892 E37.10965
G1 X128.846 Y126.565 E37.28575
G1 X128.026 Y127.124 E37.44171
G1 X127.229 Y127.573 E37.58547
G1 X126.244 Y128.019 E37.7554
G1 X125.087 Y128.409 E37.94728
G1 X124.509 Y128.569 E38.04153
G1 X123.536 Y128.79 E38.19834
G1 X122.495 Y128.93 E38.36341
G1 X122.022 Y128.97 E38.43801
G1 X121.163 Y129.01 E38.57315
G1 X118.812 Y129.028 E38.94263
G1 X116.368 Y129.111 E39.32693
G1 X112.126 Y129.408 E39.99521
G1 X111.422 Y129.435 E40.10593
G1 X110.551 Y129.439 E40.24281
M73 P2
G1 X109.238 Y129.427 E40.44917
G1 X106.732 Y129.475 E40.84307
G1 X104.238 Y129.594 E41.23546
G1 X101.762 Y129.781 E41.62568
G1 X100.717 Y129.89 E41.79079
G1 X99.846 Y129.967 E41.92821
G1 X98.814 Y130.009 E42.09053
G1 X97.824 Y129.963 E42.24628
G1 X96.982 Y129.854 E42.3797
G1 X96.357 Y129.747 E42.47936
G1 X95.387 Y129.534 E42.63543
G1 X94.514 Y129.264 E42.77903
G1 X93.628 Y128.908 E42.92909
G1 X92.939 Y128.59 E43.04835
G1 X92.305 Y128.277 E43.15946
G1 X91.437 Y127.797 E43.31534
G1 X90.677 Y127.29 E43.45892
G1 X90.213 Y126.935 E43.55073
G1 X89.502 Y126.351 E43.69533
G1 X89.021 Y125.934 E43.79537
G1 X88.273 Y125.222 E43.95766
G1 X87.667 Y124.538 E44.10127
G1 X87.146 Y123.851 E44.23677
G1 X86.66 Y123.137 E44.37251
G1 X86.402 Y122.732 E44.44797
G1 X85.907 Y121.871 E44.60405
G1 X85.52 Y121.042 E44.74783
G1 X85.153 Y120.036 E44.91612
G1 X84.899 Y119.077 E45.07203
G1 X84.729 Y118.098 E45.22818
G1 X84.65 Y117.187 E45.37189
G1 X84.637 Y116.606 E45.46322
G1 X84.648 Y113.993 E45.87386
G1 X84.589 Y111.471 E46.27032
G1 X84.461 Y109.021 E46.65587
G1 X84.125 Y105.141 E47.26791
G1 X84.084 Y104.11 E47.43006
G1 X84.132 Y103.117 E47.5863
G1 X84.253 Y102.211 E47.72994
G1 X84.486 Y101.166 E47.8982
G1 X84.789 Y100.221 E48.05416
G1 X85.141 Y99.377 E48.19787
G1 X85.631 Y98.439 E48.36418
G1 X85.957 Y97.914 E48.4613
G1 X86.597 Y96.943 E48.64406
G1 X87.261 Y96 E48.82531
G1 X87.912 Y95.173 E48.99072
G1 X88.794 Y94.258 E49.19044
G0 F6000 X89.442 Y94.883
G1 F600 X90.126 Y94.267 E49.3351
G1 X90.455 Y93.989 E49.40279
G1 X91.179 Y93.43 E49.54654
G1 X91.948 Y92.937 E49.69009
G1 X92.367 Y92.706 E49.76528
G1 X93.872 Y91.921 E50.03204
G1 X94.7 Y91.534 E50.17568
G1 X95.559 Y91.221 E50.31935
G1 X96.442 Y90.984 E50.46303
G1 X97.342 Y90.825 E50.60666
G1 X98.228 Y90.747 E50.74644
G1 X100.653 Y90.636 E51.12794
G1 X103.184 Y90.451 E51.52676
G1 X105.7 Y90.196 E51.92418
G1 X107.257 Y90.004 E52.17072
G1 X108.305 Y89.929 E52.33584
G1 X109.696 Y89.904 E52.55448
G1 X110.571 Y89.918 E52.69201
G1 X111.893 Y89.974 E52.89995
G1 X113.316 Y90.063 E53.12402
G1 X114.225 Y90.16 E53.26768
G1 X115.122 Y90.336 E53.41134
G1 X115.581 Y90.458 E53.48597
G1 X116.885 Y90.837 E53.69938
G1 X118.285 Y91.264 E53.92941
G1 X119.147 Y91.569 E54.0731
G1 X119.979 Y91.949 E54.21685
G1 X120.774 Y92.399 E54.36041
G1 X121.527 Y92.918 E54.50413
G1 X122.232 Y93.5 E54.6478
G1 X122.818 Y94.072 E54.77649
G1 X124.796 Y96.16 E55.22849
G1 X126.63 Y98.003 E55.6371
G1 X128.427 Y99.711 E56.02672
G1 X130.384 Y101.467 E56.43993
G1 X131.616 Y102.533 E56.69596
G1 X132.281 Y103.161 E56.8397
G1 X132.887 Y103.844 E56.9832
G1 X133.432 Y104.578 E57.12687
G1 X134.038 Y105.593 E57.31265
G1 X134.377 Y106.263 E57.43065
M117 Time Left 0h15m37s
G1 X134.632 Y106.807 E57.52507
G1 X134.983 Y107.651 E57.66872
G1 X135.26 Y108.522 E57.81236
G1 X135.459 Y109.414 E57.95598
G1 X135.579 Y110.32 E58.09961
G1 X135.618 Y111.45 E58.2773
G1 X135.599 Y112.421 E58.42993
G1 X135.593 Y113.879 E58.65906
G1 X135.579 Y114.704 E58.78873
G1 X135.523 Y115.616 E58.93232
G1 X135.388 Y116.52 E59.07597
G1 X135.187 Y117.364 E59.21231
G1 X135.103 Y117.661 E59.26082
G1 X134.816 Y118.529 E59.40449
G1 X134.454 Y119.368 E59.54809
G1 X134.127 Y119.995 E59.65923
G1 X133.831 Y120.508 E59.7523
M73 P3
G1 X133.544 Y120.974 E59.83831
G1 X133.031 Y121.731 E59.98202
G1 X132.454 Y122.44 E60.12568
G1 X131.817 Y123.095 E60.26927
G1 X131.016 Y123.778 E60.4347
G1 X129.201 Y125.173 E60.79445
G1 X128.337 Y125.823 E60.96436
G1 X127.584 Y126.34 E61.10791
G1 X126.787 Y126.789 E61.25167
G1 X125.955 Y127.167 E61.39528
G1 X124.847 Y127.542 E61.57911
G1 X124.306 Y127.692 E61.66734
G1 X123.415 Y127.898 E61.81106
G1 X122.417 Y128.033 E61.96932
G1 X121.979 Y128.071 E62.03842
G1 X121.156 Y128.11 E62.1679
G1 X118.805 Y128.128 E62.53738
G1 X116.305 Y128.213 E62.93049
G1 X112.091 Y128.509 E63.59437
G1 X111.418 Y128.535 E63.70021
G1 X110.559 Y128.539 E63.83521
G1 X109.229 Y128.527 E64.04424
G1 X106.707 Y128.575 E64.44065
G1 X104.195 Y128.695 E64.83587
G1 X101.673 Y128.886 E65.23335
G1 X100.638 Y128.993 E65.39687
G1 X99.767 Y129.07 E65.53429
G1 X98.853 Y129.11 E65.67806
G1 X97.94 Y129.07 E65.82168
G1 X97.098 Y128.961 E65.95511
G1 X96.547 Y128.867 E66.04295
G1 X95.653 Y128.674 E66.18668
G1 X94.78 Y128.404 E66.33029
G1 X94.004 Y128.09 E66.46185
G1 X93.337 Y127.783 E66.57724
G1 X92.738 Y127.488 E66.68217
G1 X91.936 Y127.048 E66.82593
G1 X91.176 Y126.541 E66.96951
G1 X90.784 Y126.239 E67.04727
G1 X90.092 Y125.671 E67.18797
G1 X89.611 Y125.254 E67.28801
G1 X88.947 Y124.625 E67.43175
G1 X88.341 Y123.941 E67.57536
G1 X87.89 Y123.344 E67.69294
G1 X87.418 Y122.652 E67.82458
G1 X87.181 Y122.281 E67.89377
G1 X86.723 Y121.49 E68.03741
G1 X86.336 Y120.661 E68.18119
G1 X86.022 Y119.803 E68.32477
G1 X85.785 Y118.92 E68.46845
G1 X85.626 Y118.02 E68.61208
G1 X85.547 Y117.109 E68.75579
G1 X85.537 Y116.61 E68.83422
G1 X85.548 Y113.972 E69.2488
G1 X85.489 Y111.45 E69.64525
G1 X85.358 Y108.943 E70.03977
G1 X85.022 Y105.063 E70.65181
G1 X84.983 Y104.15 E70.79542
G1 X85.024 Y103.236 E70.93921
G1 X85.145 Y102.33 E71.08285
G1 X85.344 Y101.438 E71.22648
G1 X85.62 Y100.567 E71.37007
G1 X85.972 Y99.723 E71.51378
G1 X86.396 Y98.913 E71.65746
G1 X86.708 Y98.409 E71.75062
G1 X87.333 Y97.461 E71.92906
G1 X87.997 Y96.518 E72.11031
G1 X88.56 Y95.798 E72.25395
G1 X89.442 Y94.883 E72.45367
G1 F2700 E67.45367
G1 F300 Z0.62
G0 F6000 X96.832 Y102.884 Z0.62
G1 F300 Z0.42
G1 F2700 E72.45367
G1 F600 X96.956 Y102.774 E72.47972
G1 X96.971 Y102.754 E72.48365
G1 X97.391 Y102.388 E72.5712
G1 X97.432 Y102.376 E72.57791
G1 X98.073 Y102.028 E72.69254
G1 X98.079 Y102.026 E72.69353
G1 X98.562 Y101.764 E72.77989
G1 X98.597 Y101.8 E72.78778
G1 X98.608 Y101.949 E72.81126
G1 X98.007 Y102.169 E72.91184
G1 X97.843 Y102.274 E72.94244
G1 X97.714 Y102.403 E72.97111
G1 X97.392 Y102.576 E73.02855
G1 X97.258 Y102.685 E73.0557
G1 X96.929 Y103.083 E73.13685
G1 X96.545 Y103.493 E73.22513
G1 X96.471 Y103.599 E73.24545
G1 X96.198 Y104.142 E73.34096
G1 X96.056 Y104.114 E73.3637
G1 X96.052 Y104.102 E73.36569
G1 X96.02 Y104.066 E73.37326
G1 X96.516 Y103.339 E73.51157
G1 X96.52 Y103.336 E73.51236
G1 X96.832 Y102.884 E73.59867
G1 F2700 E68.59867
G1 F300 Z0.62
G0 F6000 X108.952 Y100.886 Z0.62
G1 F300 Z0.42
G1 F2700 E73.59867
G1 F600 X108.979 Y100.802 E73.61254
G1 X109.878 Y100.801 E73.75382
G1 X110.074 Y100.887 E73.78745
G1 X108.952 Y100.886 E73.96378
G1 F2700 E68.96378
M73 P4
G1 F300 Z0.62
G0 F6000 X109.155 Y107.139 Z0.62
G1 F300 Z0.42
G1 F2700 E73.96378
G1 F600 X111.427 Y107.137 E74.32084
G1 X111.488 Y107.133 E74.33044
G1 X111.889 Y107.078 E74.39405
G1 X111.755 Y107.618 E74.48149
G1 X111.742 Y107.706 E74.49547
G1 X111.724 Y108.099 E74.55729
G1 X111.729 Y108.189 E74.57146
G1 X111.791 Y108.587 E74.63476
G1 X111.814 Y108.676 E74.64921
G1 X111.953 Y109.048 E74.71162
G1 X111.992 Y109.127 E74.72546
G1 X112.203 Y109.468 E74.78848
G1 X112.257 Y109.538 E74.80238
G1 X112.511 Y109.811 E74.86098
G1 X112.57 Y109.864 E74.87344
G1 X112.704 Y109.965 E74.89981
G1 X112.658 Y109.958 E74.90712
G1 X111.49 Y109.958 E75.09068
G1 X111.306 Y109.998 E75.12027
G1 X111.153 Y110.109 E75.14998
G1 X111.046 Y110.337 E75.18956
G1 X110.909 Y111.193 E75.32579
G1 X110.845 Y111.319 E75.348
M117 Time Left 0h15m22s
G1 X110.752 Y111.412 E75.36867
G1 X110.625 Y111.476 E75.39102
G1 X110.492 Y111.498 E75.41221
G1 X110.358 Y111.477 E75.43352
G1 X110.231 Y111.411 E75.45602
G1 X110.136 Y111.317 E75.47702
G1 X110.075 Y111.196 E75.49831
G1 X109.934 Y110.335 E75.63543
G1 X109.865 Y110.16 E75.66499
G1 X109.731 Y110.028 E75.69455
G1 X109.49 Y109.958 E75.73399
G1 X107.999 Y109.958 E75.9683
G1 X108.141 Y109.878 E75.99392
G1 X108.205 Y109.834 E76.00612
G1 X108.517 Y109.578 E76.06955
G1 X108.581 Y109.514 E76.08377
G1 X108.831 Y109.206 E76.14611
G1 X108.881 Y109.131 E76.16028
G1 X109.067 Y108.776 E76.22326
G1 X109.1 Y108.692 E76.23745
G1 X109.211 Y108.309 E76.30011
G1 X109.227 Y108.222 E76.31402
G1 X109.261 Y107.823 E76.37695
G1 X109.26 Y107.732 E76.39125
G1 X109.213 Y107.338 E76.45361
G1 X109.191 Y107.243 E76.46893
G1 X109.155 Y107.139 E76.48623
G0 F6000 X110.146 Y108.038
G1 F600 X110.826 Y108.038 E76.59309
G1 X110.825 Y108.058 E76.59624
G1 X110.84 Y108.328 E76.63874
G1 X110.902 Y108.726 E76.70204
G1 X110.971 Y108.991 E76.74507
G1 X111.03 Y109.149 E76.77158
G1 X110.858 Y109.215 E76.80053
G1 X110.589 Y109.403 E76.8521
G1 X110.491 Y109.515 E76.87549
G1 X110.337 Y109.357 E76.91017
G1 X110.058 Y109.184 E76.96176
G1 X109.89 Y109.13 E76.98949
G1 X109.965 Y108.943 E77.02115
G1 X110.076 Y108.56 E77.08382
G1 X110.124 Y108.299 E77.12553
G1 X110.146 Y108.038 E77.16669
G1 F2700 E72.16669
G1 F300 Z0.62
G0 F6000 X113.055 Y110.205 Z0.62
G1 F300 Z0.42
G1 F2700 E77.16669
G1 F600 X113.146 Y110.247 E77.18244
G1 X113.243 Y110.258 E77.19778
G1 X113.25 Y110.29 E77.20293
