;FLAVOR:Marlin
M73 P0


; Pre-Processed for Cancel-Object support by preprocess_cancellation v0.2.0
; 1 known objects
EXCLUDE_OBJECT_DEFINE NAME=xyzCalibration_cube_stl CENTER=111.098,108.369 POLYGON=[[89.55,89.55],[89.55,130.45],[130.45,130.45],[130.45,89.55]]
M117 Time Left 0h18m27s
;TIME:1107
;Filament used: 1.62611m
;Layer height: 0.3
;MINX:87.75
;MINY:87.75
;MINZ:0.45
;MAXX:132.25
;MAXY:132.25
;MAXZ:20.15
;TARGET_MACHINE.NAME:Creality Ender-3
;POSTPROCESSED
;  [InsertAtLayerChange]
;  [MeshPrintSize]
;  [DisplayProgressOnLCD]
;  [DisplayFilenameAndLayerOnLCD]
;KLIPPERSETTINGSPROCESSED
SET_RETRACTION RETRACT_LENGTH=6 RETRACT_SPEED=20 UNRETRACT_SPEED=20 ;KlipperSettingsPlugin

;Generated with Cura_SteamEngine 5.6.0
M82 ;absolute extrusion mode
;Nozzle diameter = 0.6
;Filament type = PLA
;Filament name = PLA
START_PRINT PRINT_MIN=87.75,87.75 PRINT_MAX=132.25,132.25 BED_TEMP=65 EXTRUDER_TEMP=215
G92 E0
G92 E0
G10
;LAYER_COUNT:66
TIMELAPSE_TAKE_FRAME
;LAYER:0
M117 Printing xyzCalibration_cube - Layer 0 of 65
M107
G1 F300 Z0.65
G0 F6000 X91.543 Y91.157 Z0.65
;TYPE:SKIRT
G1 F300 Z0.45
G11
G1 F600 X92.346 Y90.452 E0.17992
G1 X93.08 Y89.907 E0.33386
G1 X94.13 Y89.264 E0.54117
G1 X95.091 Y88.791 E0.72152
G1 X96.092 Y88.403 E0.90229
G1 X97.124 Y88.105 E1.08316
G1 X98.208 Y87.896 E1.26904
G1 X99.678 Y87.763 E1.51757
G1 X100.292 Y87.75 E1.62098
G1 X119.317 Y87.75 E4.8244
G1 X120.165 Y87.761 E4.9672
G1 X121.317 Y87.834 E5.16156
G1 X122.374 Y87.995 E5.34159
G1 X123.263 Y88.206 E5.49544
G1 X124.432 Y88.595 E5.70288
G1 X125.342 Y88.992 E5.87006
G1 X126.35 Y89.541 E6.06332
G1 X127.113 Y90.045 E6.21729
G1 X128.075 Y90.809 E6.42414
G1 X128.849 Y91.549 E6.60445
G1 X129.505 Y92.295 E6.77172
G1 X130.142 Y93.156 E6.95206
G1 X130.663 Y93.999 E7.11892
G1 X131.212 Y95.102 E7.32638
G1 X131.598 Y96.098 E7.50624
G1 X131.858 Y96.974 E7.6601
G1 X132.105 Y98.217 E7.87349
G1 X132.237 Y99.679 E8.12066
G1 X132.25 Y100.33 E8.23029
G1 X132.249 Y119.416 E11.44398
G1 X132.239 Y120.182 E11.57297
G1 X132.171 Y121.291 E11.76006
G1 X132.04 Y122.196 E11.91403
G1 X131.759 Y123.394 E12.12122
M73 P1
G1 X131.472 Y124.262 E12.27516
G1 X131.022 Y125.315 E12.46797
G1 X130.513 Y126.26 E12.64871
G1 X129.878 Y127.221 E12.84265
G1 X129.259 Y128 E13.01019
G1 X128.466 Y128.835 E13.20409
G1 X127.665 Y129.538 E13.38353
G1 X126.866 Y130.129 E13.55087
G1 X125.954 Y130.69 E13.73116
M117 Time Left 0h18m12s
G1 X124.922 Y131.204 E13.92529
G1 X123.925 Y131.592 E14.10543
G1 X123.049 Y131.853 E14.25934
G1 X121.905 Y132.088 E14.45599
G1 X120.321 Y132.237 E14.72388
G1 X119.67 Y132.25 E14.83351
G1 X100.548 Y132.249 E18.05326
G1 X99.811 Y132.239 E18.17737
G1 X98.701 Y132.169 E18.36464
G1 X97.641 Y132.008 E18.54517
G1 X96.601 Y131.757 E18.72532
G1 X95.733 Y131.47 E18.87925
G1 X94.677 Y131.018 E19.07266
G1 X93.664 Y130.468 E19.26675
G1 X92.836 Y129.92 E19.43394
G1 X91.995 Y129.254 E19.61457
G1 X91.274 Y128.576 E19.78122
G1 X90.456 Y127.657 E19.98838
G1 X89.866 Y126.858 E20.15562
G1 X89.267 Y125.876 E20.3493
G1 X88.794 Y124.915 E20.52965
G1 X88.407 Y123.92 E20.70941
G1 X88.146 Y123.043 E20.86348
G1 X87.911 Y121.899 E21.06013
G1 X87.763 Y120.31 E21.32884
G1 X87.75 Y119.658 E21.43865
G1 X87.751 Y100.508 E24.66312
G1 X87.761 Y99.804 E24.78167
G1 X87.831 Y98.692 E24.96927
G1 X87.993 Y97.631 E25.15
G1 X88.245 Y96.595 E25.32952
G1 X88.532 Y95.727 E25.48346
M73 P2
G1 X89.02 Y94.6 E25.69025
G1 X89.494 Y93.727 E25.85751
G1 X90.131 Y92.767 E26.05151
G1 X90.802 Y91.93 E26.23214
G1 X91.543 Y91.157 E26.41244
G0 F6000 X92.139 Y91.832
G1 F600 X92.883 Y91.175 E26.57956
G1 X93.617 Y90.63 E26.7335
G1 X94.53 Y90.07 E26.91384
G1 X95.419 Y89.629 E27.08094
G1 X96.345 Y89.267 E27.24835
G1 X97.298 Y88.988 E27.41555
G1 X98.29 Y88.792 E27.58581
G1 X99.697 Y88.663 E27.82371
G1 X100.311 Y88.65 E27.92712
G1 X119.305 Y88.65 E31.12532
G1 X120.153 Y88.661 E31.26812
G1 X121.184 Y88.724 E31.44204
M117 Time Left 0h17m57s
G1 X122.166 Y88.871 E31.60923
G1 X123.055 Y89.082 E31.76308
G1 X124.072 Y89.42 E31.94353
G1 X124.982 Y89.817 E32.1107
G1 X125.854 Y90.292 E32.2779
G1 X126.617 Y90.796 E32.43187
G1 X127.455 Y91.461 E32.61201
G1 X128.175 Y92.146 E32.77934
G1 X128.781 Y92.83 E32.93321
G1 X129.418 Y93.691 E33.11355
G1 X129.896 Y94.47 E33.26744
G1 X130.374 Y95.429 E33.44786
G1 X130.735 Y96.354 E33.61506
G1 X130.995 Y97.23 E33.76892
G1 X131.209 Y98.299 E33.95248
G1 X131.337 Y99.697 E34.18886
G1 X131.35 Y100.33 E34.29547
G1 X131.349 Y119.404 E37.50714
G1 X131.339 Y120.17 E37.63613
G1 X131.28 Y121.162 E37.80346
G1 X131.149 Y122.067 E37.95743
G1 X130.904 Y123.111 E38.13799
M73 P3
G1 X130.617 Y123.979 E38.29193
G1 X130.228 Y124.891 E38.45888
G1 X129.761 Y125.766 E38.62588
G1 X129.173 Y126.661 E38.80619
G1 X128.554 Y127.44 E38.97373
G1 X127.87 Y128.16 E39.14094
G1 X127.127 Y128.816 E39.30783
G1 X126.394 Y129.362 E39.46173
G1 X125.482 Y129.923 E39.64202
G1 X124.593 Y130.366 E39.80927
G1 X123.668 Y130.729 E39.97658
G1 X122.792 Y130.99 E40.13049
G1 X121.819 Y131.192 E40.29782
G1 X120.303 Y131.337 E40.55425
G1 X119.67 Y131.35 E40.66085
G1 X100.56 Y131.349 E43.87858
G1 X99.823 Y131.339 E44.00269
G1 X98.833 Y131.279 E44.16969
G1 X97.85 Y131.133 E44.33702
G1 X96.884 Y130.902 E44.50427
G1 X96.016 Y130.615 E44.6582
G1 X95.104 Y130.226 E44.82515
G1 X94.161 Y129.717 E45.00558
G1 X93.333 Y129.169 E45.17277
G1 X92.556 Y128.55 E45.34004
G1 X91.892 Y127.922 E45.49393
G1 X91.18 Y127.122 E45.67426
G1 X90.59 Y126.323 E45.8415
M117 Time Left 0h17m42s
G1 X90.073 Y125.476 E46.00858
G1 X89.632 Y124.587 E46.17568
G1 X89.27 Y123.663 E46.34277
G1 X89.009 Y122.786 E46.49684
G1 X88.807 Y121.814 E46.66401
G1 X88.663 Y120.292 E46.92142
G1 X88.65 Y119.658 E47.0282
G1 X88.651 Y100.521 E50.25048
G1 X88.661 Y99.817 E50.36903
G1 X88.721 Y98.825 E50.53636
G1 X88.868 Y97.842 E50.70372
G1 X89.1 Y96.878 E50.87067
G1 X89.387 Y96.01 E51.02461
M73 P4
G1 X89.812 Y95.027 E51.20493
G1 X90.246 Y94.222 E51.35892
G1 X90.835 Y93.328 E51.53919
G1 X91.454 Y92.551 E51.70646
G1 X92.139 Y91.832 E51.87367
G0 F6000 X92.736 Y92.505
G1 F600 X93.42 Y91.898 E52.02766
G1 X94.154 Y91.353 E52.18159
G1 X94.933 Y90.875 E52.33548
G1 X95.75 Y90.466 E52.48932
G1 X96.601 Y90.13 E52.64338
G1 X97.477 Y89.87 E52.79724
G1 X98.373 Y89.688 E52.95119
G1 X99.716 Y89.563 E53.1783
G1 X100.33 Y89.55 E53.28171
G1 X119.293 Y89.55 E56.47469
G1 X120.141 Y89.561 E56.61748
G1 X121.053 Y89.614 E56.7713
G1 X121.958 Y89.747 E56.92533
G1 X122.847 Y89.958 E57.07917
G1 X123.715 Y90.246 E57.23316
G1 X124.554 Y90.609 E57.38709
G1 X125.358 Y91.043 E57.54093
G1 X126.121 Y91.547 E57.6949
G1 X126.837 Y92.115 E57.84879
G1 X127.501 Y92.743 E58.00268
G1 X128.107 Y93.427 E58.15655
G1 X128.651 Y94.162 E58.31052
G1 X129.129 Y94.941 E58.46441
G1 X129.537 Y95.759 E58.61832
G1 X129.872 Y96.61 E58.77232
G1 X130.132 Y97.486 E58.92618
G1 X130.313 Y98.382 E59.08009
G1 X130.437 Y99.716 E59.30568
G1 X130.45 Y100.33 E59.40909
G1 X130.449 Y119.393 E62.61891
G1 X130.44 Y120.12 E62.74133
G1 X130.389 Y121.033 E62.8953
M117 Time Left 0h17m27s
G1 X130.258 Y121.938 E63.04927
G1 X130.049 Y122.828 E63.2032
M73 P5
G1 X129.762 Y123.696 E63.35714
G1 X129.401 Y124.535 E63.51093
G1 X128.968 Y125.34 E63.66484
G1 X128.466 Y126.104 E63.81877
G1 X127.9 Y126.822 E63.97271
G1 X127.272 Y127.487 E64.12672
G1 X126.589 Y128.094 E64.28058
G1 X125.856 Y128.64 E64.43448
G1 X125.078 Y129.119 E64.58831
G1 X124.261 Y129.529 E64.74223
G1 X123.411 Y129.866 E64.89619
G1 X122.535 Y130.127 E65.0501
G1 X121.639 Y130.31 E65.20408
G1 X120.284 Y130.437 E65.43324
G1 X119.67 Y130.45 E65.53664
G1 X100.572 Y130.449 E68.75235
G1 X99.874 Y130.44 E68.86989
G1 X98.962 Y130.388 E69.0237
G1 X98.057 Y130.257 E69.17768
G1 X97.167 Y130.047 E69.33165
G1 X96.299 Y129.76 E69.48558
G1 X95.46 Y129.399 E69.63938
G1 X94.655 Y128.965 E69.79337
G1 X93.891 Y128.463 E69.94729
G1 X93.174 Y127.896 E70.10121
G1 X92.51 Y127.268 E70.2551
G1 X91.902 Y126.585 E70.40907
G1 X91.357 Y125.852 E70.56286
G1 X90.878 Y125.073 E70.71685
G1 X90.469 Y124.256 E70.87069
G1 X90.133 Y123.406 E71.02459
G1 X89.872 Y122.529 E71.17865
G1 X89.689 Y121.634 E71.33247
G1 X89.563 Y120.273 E71.56262
G1 X89.55 Y119.658 E71.66619
G1 X89.551 Y100.533 E74.88645
G1 X89.56 Y99.868 E74.99843
G1 X89.612 Y98.955 E75.15241
G1 X89.744 Y98.05 E75.30641
G1 X89.955 Y97.161 E75.46026
G1 X90.242 Y96.293 E75.61419
G1 X90.604 Y95.454 E75.76805
M73 P6
G1 X91.038 Y94.649 E75.92204
G1 X91.541 Y93.886 E76.07592
G1 X92.108 Y93.169 E76.22983
G1 X92.736 Y92.505 E76.38372
G10
G1 F300 Z0.65
M117 Time Left 0h17m12s
;MESH:xyzCalibration_cube.stl
EXCLUDE_OBJECT_START NAME=xyzCalibration_cube_stl
G0 F6000 X118.65 Y118.65 Z0.65
;TYPE:WALL-INNER
G1 F300 Z0.45
G11
G1 F600 X118.65 Y101.35 E79.29669
G1 X101.35 Y101.35 E82.20965
G1 X101.35 Y118.65 E85.12261
G1 X118.65 Y118.65 E88.03558
G0 F6000 X119.55 Y119.55
;TYPE:WALL-OUTER
G1 F600 X119.55 Y100.45 E91.25163
G1 X100.45 Y100.45 E94.46767
G1 X100.45 Y119.55 E97.68372
G1 X119.55 Y119.55 E100.89977
G10
G1 F300 Z0.65
G0 F6000 X117.81 Y117.81 Z0.65
;TYPE:SKIN
G1 F300 Z0.45
G11
G1 F600 X102.19 Y117.81 E103.52985
G1 X102.19 Y102.19 E106.15994
G1 X117.81 Y102.19 E108.79003
G1 X117.81 Y117.81 E111.42011
G10
G1 F300 Z0.65
G0 F6000 X117.359 Y103.359 Z0.65
G1 F300 Z0.45
G11
G1 F600 X116.64 Y102.64 E111.59133
G0 F6000 X115.368 Y102.64
G1 F600 X117.359 Y104.632 E112.06555
G0 F6000 X117.359 Y105.904
M73 P7
G1 F600 X114.095 Y102.64 E112.84279
G0 F6000 X112.822 Y102.64
G1 F600 X117.359 Y107.177 E113.92316
G0 F6000 X117.359 Y108.45
G1 F600 X111.549 Y102.64 E115.30666
G0 F6000 X110.276 Y102.64
G1 F600 X117.359 Y109.723 E116.9933
G0 F6000 X117.359 Y110.995
G1 F600 X109.004 Y102.64 E118.98283
G0 F6000 X107.731 Y102.64
G1 F600 X117.359 Y112.268 E121.27549
G0 F6000 X117.359 Y113.541
G1 F600 X106.458 Y102.64 E123.87129
G0 F6000 X105.185 Y102.64
G1 F600 X117.359 Y114.814 E126.77021
G0 F6000 X117.359 Y116.087
M117 Time Left 0h16m57s
G1 F600 X103.912 Y102.64 E129.97227
G0 F6000 X102.639 Y102.639
G1 F600 X117.359 Y117.359 E133.47747
G0 F6000 X116.086 Y117.359
G1 F600 X102.639 Y103.912 E136.67953
G0 F6000 X102.639 Y105.184
G1 F600 X114.813 Y117.359 E139.57857
G0 F6000 X113.54 Y117.359
G1 F600 X102.639 Y106.457 E142.17449
G0 F6000 X102.639 Y107.73
G1 F600 X112.268 Y117.359 E144.46739
G0 F6000 X110.995 Y117.359
G1 F600 X102.639 Y109.003 E146.45715
G0 F6000 X102.639 Y110.276
G1 F600 X109.722 Y117.359 E148.14379
G0 F6000 X108.449 Y117.359
G1 F600 X102.639 Y111.548 E149.52741
G0 F6000 X102.639 Y112.821
M104 S210
G1 F600 X107.176 Y117.359 E150.6079
G0 F6000 X105.904 Y117.359
G1 F600 X102.639 Y114.094 E151.38538
G0 F6000 X102.639 Y115.367
G1 F600 X104.631 Y117.359 E151.85972
G0 F6000 X103.358 Y117.359
M73 P8
G1 F600 X102.639 Y116.64 E152.03093
G10
G1 F300 Z0.65
;MESH:NONMESH
EXCLUDE_OBJECT_END NAME=xyzCalibration_cube_stl
G0 F6000 X92.736 Y92.505 Z0.65
;TIME_ELAPSED:99.453083
TIMELAPSE_TAKE_FRAME
;LAYER:1
M117 Printing xyzCalibration_cube - Layer 1 of 65
M140 S60
M106 S63.8
G0 F7875 X92.736 Y92.505 Z0.95
;TYPE:SKIRT
G1 F300 Z0.75
G11
G1 F600 X93.42 Y91.898 E152.09937
G1 X94.154 Y91.353 E152.16779
G1 X94.933 Y90.875 E152.23618
G1 X95.75 Y90.466 E152.30456
G1 X96.601 Y90.13 E152.37303
G1 X97.477 Y89.87 E152.44141
G1 X98.373 Y89.688 E152.50983
G1 X99.716 Y89.563 E152.61077
G1 X100.33 Y89.55 E152.65673
G1 X119.293 Y89.55 E154.07583
G1 X120.141 Y89.561 E154.13929
G1 X121.053 Y89.614 E154.20766
G1 X121.958 Y89.747 E154.27611
G1 X122.847 Y89.958 E154.34449
G1 X123.715 Y90.246 E154.41293
M117 Time Left 0h16m42s
G1 X124.554 Y90.609 E154.48134
G1 X125.358 Y91.043 E154.54971
G1 X126.121 Y91.547 E154.61815
G1 X126.837 Y92.115 E154.68654
G1 X127.501 Y92.743 E154.75494
G1 X128.107 Y93.427 E154.82332
G1 X128.651 Y94.162 E154.89175
G1 X129.129 Y94.941 E154.96015
G1 X129.537 Y95.759 E155.02856
G1 X129.872 Y96.61 E155.097
G1 X130.132 Y97.486 E155.16538
G1 X130.313 Y98.382 E155.23379
G1 X130.437 Y99.716 E155.33405
G1 X130.45 Y100.33 E155.38001
G1 X130.449 Y119.393 E156.80659
G1 X130.44 Y120.12 E156.861
M73 P9
G1 X130.389 Y121.033 E156.92943
G1 X130.258 Y121.938 E156.99787
G1 X130.049 Y122.828 E157.06628
G1 X129.762 Y123.696 E157.1347
G1 X129.401 Y124.535 E157.20305
G1 X128.968 Y125.34 E157.27145
G1 X128.466 Y126.104 E157.33987
G1 X127.9 Y126.822 E157.40828
G1 X127.272 Y127.487 E157.47673
G1 X126.589 Y128.094 E157.54511
G1 X125.856 Y128.64 E157.61351
G1 X125.078 Y129.119 E157.68189
G1 X124.261 Y129.529 E157.75029
G1 X123.411 Y129.866 E157.81872
G1 X122.535 Y130.127 E157.88712
G1 X121.639 Y130.31 E157.95556
G1 X120.284 Y130.437 E158.05741
G1 X119.67 Y130.45 E158.10337
G1 X100.572 Y130.449 E159.53257
G1 X99.874 Y130.44 E159.58481
G1 X98.962 Y130.388 E159.65317
G1 X98.057 Y130.257 E159.7216
G1 X97.167 Y130.047 E159.79004
G1 X96.299 Y129.76 E159.85845
G1 X95.46 Y129.399 E159.9268
G1 X94.655 Y128.965 E159.99524
G1 X93.891 Y128.463 E160.06365
G1 X93.174 Y127.896 E160.13206
G1 X92.51 Y127.268 E160.20046
G1 X91.902 Y126.585 E160.26889
G1 X91.357 Y125.852 E160.33724
G1 X90.878 Y125.073 E160.40568
G1 X90.469 Y124.256 E160.47405
G1 X90.133 Y123.406 E160.54245
G1 X89.872 Y122.529 E160.61093
G1 X89.689 Y121.634 E160.67929
G1 X89.563 Y120.273 E160.78158
G1 X89.55 Y119.658 E160.82761
G1 X89.551 Y100.533 E162.25884
M73 P10
G1 X89.56 Y99.868 E162.30861
G1 X89.612 Y98.955 E162.37704
M117 Time Left 0h16m27s
G1 X89.744 Y98.05 E162.44548
G1 X89.955 Y97.161 E162.51386
G1 X90.242 Y96.293 E162.58228
G1 X90.604 Y95.454 E162.65066
G1 X91.038 Y94.649 E162.7191
G1 X91.541 Y93.886 E162.78749
G1 X92.108 Y93.169 E162.85589
G1 X92.736 Y92.505 E162.92429
G10
G1 F300 Z0.95
;MESH:xyzCalibration_cube.stl
EXCLUDE_OBJECT_START NAME=xyzCalibration_cube_stl
G0 F7875 X119.1 Y119.1 Z0.95
;TYPE:WALL-INNER
G1 F300 Z0.75
G11
G1 F1275 X119.1 Y100.9 E164.28629
G1 X100.9 Y100.9 E165.64829
G1 X100.9 Y119.1 E167.0103
G1 X119.1 Y119.1 E168.3723
G0 F7875 X119.7 Y119.7
;TYPE:WALL-OUTER
G1 F1275 X119.7 Y100.3 E169.8241
G1 X100.3 Y100.3 E171.27591
G1 X100.3 Y119.7 E172.72771
G1 X119.7 Y119.7 E174.17952
G10
G1 F300 Z0.95
G0 F7875 X118.56 Y118.56 Z0.95
;TYPE:SKIN
G1 F300 Z0.75
G11
G1 F1275 X101.44 Y118.56 E175.4607
G1 X101.44 Y101.44 E176.74188
G1 X118.56 Y101.44 E178.02306
G1 X118.56 Y118.56 E179.30424
G0 F7875 X117.631 Y118.259
G1 F1275 X118.259 Y117.631 E179.3707
M73 P11
G0 F7875 X118.259 Y116.782
G1 F1275 X116.782 Y118.259 E179.52702
G0 F7875 X115.934 Y118.259
G1 F1275 X118.259 Y115.934 E179.77308
G0 F7875 X118.259 Y115.085
G1 F1275 X115.085 Y118.259 E180.109
G0 F7875 X114.237 Y118.259
G1 F1275 X118.259 Y114.237 E180.53466
G0 F7875 X118.259 Y113.388
G1 F1275 X113.388 Y118.259 E181.05017
G0 F7875 X112.54 Y118.259
G1 F1275 X118.259 Y112.54 E181.65543
G0 F7875 X118.259 Y111.691
G1 F1275 X111.691 Y118.259 E182.35054
G0 F7875 X110.843 Y118.259
G1 F1275 X118.259 Y110.843 E183.1354
G0 F7875 X118.259 Y109.994
G1 F1275 X109.994 Y118.259 E184.01011
G0 F7875 X109.146 Y118.259
G1 F1275 X118.259 Y109.146 E184.97457
M117 Time Left 0h16m12s
G0 F7875 X118.259 Y108.297
G1 F1275 X108.297 Y118.259 E186.02888
G0 F7875 X107.449 Y118.259
G1 F1275 X118.259 Y107.449 E187.17293
G0 F7875 X118.259 Y106.6
G1 F1275 X106.6 Y118.259 E188.40684
G0 F7875 X105.752 Y118.259
G1 F1275 X118.259 Y105.752 E189.73049
G0 F7875 X118.259 Y104.903
G1 F1275 X104.903 Y118.259 E191.144
G0 F7875 X104.055 Y118.259
G1 F1275 X118.259 Y104.055 E192.64725
G0 F7875 X118.259 Y103.206
G1 F1275 X103.206 Y118.259 E194.24036
G0 F7875 X102.357 Y118.259
G1 F1275 X118.259 Y102.357 E195.92332
G0 F7875 X118.028 Y101.739
G1 F1275 X101.739 Y118.028 E197.64723
M73 P12
G0 F7875 X101.739 Y117.18
G1 F1275 X117.18 Y101.739 E199.2814
G0 F7875 X116.331 Y101.739
G1 F1275 X101.739 Y116.331 E200.82572
G0 F7875 X101.739 Y115.483
G1 F1275 X115.483 Y101.739 E202.28029
G0 F7875 X114.634 Y101.739
G1 F1275 X101.739 Y114.634 E203.64501
G0 F7875 X101.739 Y113.786
G1 F1275 X113.786 Y101.739 E204.91998
G0 F7875 X112.937 Y101.739
G1 F1275 X101.739 Y112.937 E206.1051
G0 F7875 X101.739 Y112.089
G1 F1275 X112.089 Y101.739 E207.20047
G0 F7875 X111.24 Y101.739
G1 F1275 X101.739 Y111.24 E208.20599
G0 F7875 X101.739 Y110.392
G1 F1275 X110.392 Y101.739 E209.12176
G0 F7875 X109.543 Y101.739
